;FLAVOR:Marlin
;TIME:13926
;Filament used: 25.7548m
;Layer height: 0.32
;MINX:11.914
;MINY:12.078
;MINZ:0.32
;MAXX:208.086
;MAXY:207.92
;MAXZ:2.88
;TARGET_MACHINE.NAME:Creality Ender-3 S1
;Generated with Cura_SteamEngine 5.9.0
M82 ;absolute extrusion mode
; Ender 3 S1 Start G-code
; M413 S0 ; Disable power loss recovery
M201 X500.00 Y500.00 Z100.00 E5000.00 ;Setup machine max acceleration
M203 X500.00 Y500.00 Z20.00 E50.00 ;Setup machine max feedrate
M204 P500.00 R1000.00 T500.00 ;Setup Print/Retract/Travel acceleration
M205 X8.00 Y8.00 Z0.40 E5.00 ;Setup Jerk
M220 S100 ;Reset Feedrate
M221 S100 ;Reset Flowrate
G92 E0 ; Reset Extruder

; Prep surfaces before auto home for better accuracy
M140 S60
M104 S200
G92 E0 ; Reset Extruder
G28 ; Home all axes
M420 S1 Z10; Use Level Mesh up to 2mm;
G1 Z10.0 F3000 ; Move Z Axis up little to prevent scratching of Heat Bed
G1 X0 Y0

M190 S60
M109 S200

G1 X0.1 Y20 Z0.3 F5000.0 ; Move to start position
G1 X0.1 Y200.0 Z0.3 F1500.0 E15 ; Draw the first line
G1 X0.4 Y200.0 Z0.3 F5000.0 ; Move to side a little
G1 X0.4 Y20 Z0.3 F1500.0 E30 ; Draw the second line
G92 E0 ; Reset Extruder
G1 Z2.0 F3000 ; Move Z Axis up little to prevent scratching of Heat Bed
G1 X5 Y20 Z0.3 F5000.0 ; Move over to prevent blob squish
G92 E0
G92 E0
G1 F2400 E-0.8
;LAYER_COUNT:9
;LAYER:0
M107
M204 S2000
G0 F7500 X24.287 Y62.296 Z0.32
M204 S500
;TYPE:SKIRT
G1 F2400 E0
G1 F1500 X30.367 Y52.721 E0.90539
G1 X38.703 Y42.642 E1.94946
G1 X47.88 Y34.094 E2.95056
G1 X57.243 Y27.31 E3.87352
G1 X68.667 Y21.049 E4.91341
G1 X79.667 Y16.722 E5.85697
G1 X91.45 Y13.687 E6.82824
G1 X104.313 Y12.08 E7.863
G1 X115.649 Y12.078 E8.76789
G1 X128.888 Y13.75 E9.83308
G1 X140.193 Y16.676 E10.76523
G1 X152.221 Y21.465 E11.79866
G1 X162.158 Y26.93 E12.70392
G1 X172.915 Y34.754 E13.76569
G1 X181.182 Y42.52 E14.67111
G1 X189.661 Y52.772 E15.73309
G1 X196.061 Y62.942 E16.69228
G1 X201.388 Y74.37 E17.69875
G1 X204.889 Y85.156 E18.60395
G1 X207.372 Y98.194 E19.66341
G1 X208.086 Y110.512 E20.64833
G1 X207.372 Y121.829 E21.5535
G1 X204.878 Y134.866 E22.61304
G1 X201.002 Y146.595 E23.5991
G1 X195.713 Y157.704 E24.58124
G1 X189.633 Y167.279 E25.48663
G1 X181.297 Y177.358 E26.5307
G1 X172.12 Y185.906 E27.53181
G1 X162.757 Y192.69 E28.45476
G1 X151.332 Y198.951 E29.49472
G1 X140.262 Y203.301 E30.44415
G1 X128.625 Y206.299 E31.4034
G1 X115.667 Y207.92 E32.44582
G1 X103.316 Y207.855 E33.43175
G1 X91.112 Y206.25 E34.41431
G1 X79.807 Y203.324 E35.34646
G1 X67.779 Y198.535 E36.37989
G1 X57.842 Y193.07 E37.28515
G1 X47.085 Y185.246 E38.34693
G1 X38.818 Y177.48 E39.25235
G1 X30.34 Y167.229 E40.31422
G1 X23.939 Y157.057 E41.27358
G1 X18.611 Y145.627 E42.28023
G1 X15.111 Y134.844 E43.18518
G1 X12.628 Y121.806 E44.24464
G1 X11.914 Y109.488 E45.22956
G1 X12.628 Y98.171 E46.13473
G1 X15.122 Y85.134 E47.19427
G1 X18.998 Y73.405 E48.18033
G1 X24.287 Y62.296 E49.16247
M204 S2000
G0 F7500 X24.794 Y62.618
M204 S500
G1 F1500 X30.874 Y53.043 E50.06786
G1 X39.112 Y43.081 E51.09975
G1 X48.232 Y34.58 E52.09496
G1 X57.595 Y27.796 E53.01792
G1 X68.887 Y21.607 E54.04581
G1 X79.817 Y17.303 E54.98349
G1 X91.6 Y14.268 E55.95476
G1 X104.313 Y12.68 E56.97746
G1 X115.649 Y12.678 E57.88235
G1 X128.738 Y14.331 E58.93547
G1 X140.043 Y17.257 E59.86762
G1 X151.932 Y21.991 E60.88911
G1 X161.869 Y27.456 E61.79437
G1 X172.504 Y35.191 E62.8441
G1 X180.771 Y42.957 E63.74951
G1 X189.153 Y53.092 E64.79936
G1 X195.553 Y63.262 E65.75855
G1 X200.817 Y74.555 E66.75313
G1 X204.318 Y85.341 E67.65833
G1 X206.773 Y98.229 E68.70561
G1 X207.487 Y110.474 E69.68472
G1 X206.773 Y121.791 E70.58988
G1 X204.308 Y134.678 E71.63723
G1 X200.46 Y146.337 E72.61728
G1 X195.206 Y157.382 E73.59361
G1 X189.126 Y166.957 E74.499
G1 X180.888 Y176.919 E75.53088
G1 X171.768 Y185.42 E76.5261
G1 X162.405 Y192.204 E77.44906
G1 X151.112 Y198.393 E78.47701
G1 X140.112 Y202.72 E79.42057
G1 X128.475 Y205.718 E80.37982
G1 X115.67 Y207.32 E81.40994
G1 X103.394 Y207.26 E82.38987
G1 X91.262 Y205.669 E83.3666
G1 X79.957 Y202.743 E84.29875
G1 X68.068 Y198.009 E85.32024
G1 X58.131 Y192.544 E86.2255
G1 X47.496 Y184.809 E87.27523
G1 X39.229 Y177.043 E88.18064
G1 X30.848 Y166.909 E89.23038
G1 X24.447 Y156.737 E90.18974
G1 X19.182 Y145.442 E91.1845
G1 X15.682 Y134.659 E92.08945
G1 X13.227 Y121.771 E93.13673
G1 X12.513 Y109.526 E94.11584
G1 X13.227 Y98.209 E95.021
G1 X15.692 Y85.322 E96.06835
G1 X19.54 Y73.663 E97.0484
G1 X24.794 Y62.618 E98.02473
M204 S2000
G0 F7500 X25.301 Y62.94
M204 S500
G1 F1500 X31.381 Y53.365 E98.93012
G1 X39.574 Y43.464 E99.95596
G1 X48.584 Y35.066 E100.93915
G1 X57.947 Y28.282 E101.86211
G1 X69.107 Y22.165 E102.87799
G1 X79.967 Y17.884 E103.80981
G1 X91.75 Y14.849 E104.78108
G1 X104.313 Y13.28 E105.7917
G1 X115.649 Y13.278 E106.69659
G1 X128.588 Y14.912 E107.73764
G1 X139.893 Y17.838 E108.66979
G1 X151.643 Y22.517 E109.67936
G1 X161.58 Y27.982 E110.58462
G1 X172.093 Y35.628 E111.62228
G1 X180.36 Y43.394 E112.5277
G1 X188.645 Y53.412 E113.56542
G1 X195.045 Y63.582 E114.5246
G1 X200.246 Y74.74 E115.50729
G1 X203.747 Y85.526 E116.4125
G1 X206.174 Y98.264 E117.44759
G1 X206.888 Y110.436 E118.42088
G1 X206.174 Y121.753 E119.32605
G1 X203.738 Y134.49 E120.3612
G1 X199.918 Y146.079 E121.33524
G1 X194.699 Y157.06 E122.30576
G1 X188.619 Y166.635 E123.21115
G1 X180.426 Y176.536 E124.23699
G1 X171.416 Y184.934 E125.22018
G1 X162.053 Y191.718 E126.14314
G1 X150.892 Y197.835 E127.15909
G1 X139.962 Y202.139 E128.09678
G1 X128.325 Y205.137 E129.05603
G1 X115.673 Y206.72 E130.07384
G1 X103.472 Y206.665 E131.04779
G1 X91.412 Y205.088 E132.01866
G1 X80.107 Y202.162 E132.95081
G1 X68.357 Y197.483 E133.96038
G1 X58.42 Y192.018 E134.86564
G1 X47.907 Y184.372 E135.90331
G1 X39.64 Y176.606 E136.80872
G1 X31.356 Y166.589 E137.84633
G1 X24.955 Y156.417 E138.80569
G1 X19.753 Y145.257 E139.78856
G1 X16.253 Y134.474 E140.69351
G1 X13.826 Y121.736 E141.7286
G1 X13.112 Y109.564 E142.70189
G1 X13.826 Y98.247 E143.60706
G1 X16.262 Y85.51 E144.64221
G1 X20.082 Y73.921 E145.61626
G1 X25.301 Y62.94 E146.58677
M204 S2000
G0 F7500 X25.808 Y63.262
M204 S500
G1 F1500 X31.888 Y53.687 E147.49216
G1 X39.983 Y43.903 E148.50582
G1 X48.936 Y35.552 E149.48313
G1 X58.299 Y28.768 E150.40608
G1 X69.327 Y22.723 E151.40996
G1 X80.117 Y18.465 E152.33591
G1 X91.9 Y15.43 E153.30718
G1 X104.313 Y13.88 E154.30573
G1 X115.649 Y13.878 E155.21062
G1 X128.438 Y15.493 E156.2396
G1 X139.743 Y18.419 E157.17175
G1 X151.354 Y23.043 E158.16939
G1 X161.291 Y28.508 E159.07465
G1 X171.682 Y36.065 E160.10026
G1 X179.949 Y43.831 E161.00567
G1 X188.137 Y53.732 E162.03126
G1 X194.537 Y63.902 E162.99045
G1 X199.675 Y74.925 E163.96124
G1 X203.176 Y85.711 E164.86645
G1 X205.575 Y98.299 E165.88936
G1 X206.289 Y110.398 E166.85683
G1 X205.575 Y121.715 E167.762
G1 X203.168 Y134.302 E168.78496
G1 X199.376 Y145.822 E169.75307
G1 X194.192 Y156.738 E170.7177
G1 X188.112 Y166.313 E171.62309
G1 X180.017 Y176.097 E172.63675
G1 X171.064 Y184.448 E173.61405
G1 X161.701 Y191.232 E174.53701
G1 X150.672 Y197.277 E175.54096
G1 X139.812 Y201.558 E176.47278
G1 X128.175 Y204.556 E177.43203
G1 X115.675 Y206.12 E178.43761
G1 X103.55 Y206.07 E179.40549
G1 X91.562 Y204.507 E180.37052
G1 X80.257 Y201.581 E181.30267
G1 X68.646 Y196.957 E182.30031
G1 X58.709 Y191.492 E183.20556
G1 X48.318 Y183.935 E184.23118
G1 X40.051 Y176.169 E185.13659
G1 X31.864 Y166.269 E186.16207
G1 X25.463 Y156.097 E187.12143
G1 X20.324 Y145.072 E188.0924
G1 X16.824 Y134.289 E188.99736
G1 X14.425 Y121.701 E190.02027
G1 X13.711 Y109.602 E190.98775
G1 X14.425 Y98.285 E191.89291
G1 X16.832 Y85.698 E192.91587
G1 X20.624 Y74.178 E193.88398
G1 X25.808 Y63.262 E194.84861
M204 S2000
G0 F7500 X26.315 Y63.584
M204 S500
G1 F1500 X32.395 Y54.009 E195.754
G1 X40.392 Y44.342 E196.75548
G1 X49.288 Y36.038 E197.7269
G1 X58.651 Y29.254 E198.64985
G1 X69.547 Y23.281 E199.64173
G1 X80.267 Y19.046 E200.5618
G1 X92.05 Y16.011 E201.53307
G1 X104.313 Y14.48 E202.51956
G1 X115.649 Y14.478 E203.42445
G1 X128.288 Y16.074 E204.44136
G1 X139.593 Y19 E205.37351
G1 X151.065 Y23.569 E206.35921
G1 X161.002 Y29.034 E207.26447
G1 X171.271 Y36.502 E208.27803
G1 X179.538 Y44.268 E209.18344
G1 X187.629 Y54.052 E210.1969
G1 X194.029 Y64.222 E211.15609
G1 X199.104 Y75.11 E212.11499
G1 X202.605 Y85.896 E213.02019
G1 X204.976 Y98.335 E214.03101
G1 X205.69 Y110.36 E214.99258
G1 X204.976 Y121.677 E215.89775
G1 X202.598 Y134.115 E216.90859
G1 X198.834 Y145.565 E217.8707
G1 X193.685 Y156.416 E218.82944
G1 X187.605 Y165.991 E219.73483
G1 X179.608 Y175.658 E220.73631
G1 X170.712 Y183.962 E221.70773
G1 X161.349 Y190.746 E222.63068
G1 X150.452 Y196.719 E223.62263
G1 X139.662 Y200.977 E224.54858
G1 X128.025 Y203.975 E225.50782
G1 X115.677 Y205.52 E226.50118
G1 X103.627 Y205.475 E227.46307
G1 X91.712 Y203.926 E228.42218
G1 X80.407 Y201 E229.35433
G1 X68.935 Y196.431 E230.34003
G1 X58.998 Y190.966 E231.24529
G1 X48.729 Y183.498 E232.25885
G1 X40.462 Y175.732 E233.16426
G1 X32.372 Y165.949 E234.17761
G1 X26.007 Y155.843 E235.13098
G1 X20.895 Y144.887 E236.09605
G1 X17.395 Y134.104 E237.001
G1 X15.024 Y121.665 E238.01182
G1 X14.31 Y109.64 E238.97339
G1 X15.024 Y98.323 E239.87856
G1 X17.402 Y85.885 E240.8894
G1 X21.166 Y74.435 E241.85151
G1 X26.315 Y63.584 E242.81025
M204 S2000
G0 F7500 X26.822 Y63.906
M204 S500
G1 F1500 X32.902 Y54.331 E243.71564
G1 X40.854 Y44.725 E244.71108
G1 X49.64 Y36.524 E245.67047
G1 X59.003 Y29.74 E246.59342
G1 X69.768 Y23.839 E247.57337
G1 X80.417 Y19.627 E248.4875
G1 X92.2 Y16.592 E249.45877
G1 X104.313 Y15.08 E250.43318
G1 X115.649 Y15.078 E251.33807
G1 X128.138 Y16.655 E252.34291
G1 X139.443 Y19.581 E253.27506
G1 X150.776 Y24.095 E254.24883
G1 X160.713 Y29.56 E255.15409
G1 X170.86 Y36.939 E256.1556
G1 X179.127 Y44.705 E257.06101
G1 X187.121 Y54.372 E258.06234
G1 X193.485 Y64.476 E259.01553
G1 X198.533 Y75.295 E259.96853
G1 X202.034 Y86.081 E260.87374
G1 X204.377 Y98.371 E261.87245
G1 X205.091 Y110.322 E262.82813
G1 X204.377 Y121.639 E263.73329
G1 X202.028 Y133.928 E264.73202
G1 X198.292 Y145.308 E265.68812
G1 X193.178 Y156.094 E266.64098
G1 X187.098 Y165.669 E267.54636
G1 X179.146 Y175.275 E268.5418
G1 X170.36 Y183.476 E269.50119
G1 X160.997 Y190.26 E270.42415
G1 X150.232 Y196.161 E271.40409
G1 X139.512 Y200.396 E272.32417
G1 X127.875 Y203.394 E273.28341
G1 X115.679 Y204.92 E274.26454
G1 X103.704 Y204.88 E275.22044
G1 X91.862 Y203.345 E276.17363
G1 X80.557 Y200.419 E277.10578
G1 X69.224 Y195.905 E278.07955
G1 X59.287 Y190.44 E278.98481
G1 X49.14 Y183.061 E279.98631
G1 X40.873 Y175.295 E280.89173
G1 X32.88 Y165.629 E281.89294
G1 X26.551 Y155.589 E282.84033
G1 X21.466 Y144.702 E283.79949
G1 X17.966 Y133.919 E284.70445
G1 X15.623 Y121.629 E285.70316
G1 X14.909 Y109.678 E286.65884
G1 X15.623 Y98.361 E287.56401
G1 X17.972 Y86.072 E288.56273
G1 X21.708 Y74.692 E289.51883
G1 X26.822 Y63.906 E290.47169
M204 S2000
G0 F7500 X27.329 Y64.228
M204 S500
G1 F1500 X33.409 Y54.653 E291.37708
G1 X41.316 Y45.108 E292.36647
G1 X49.992 Y37.01 E293.31383
G1 X59.355 Y30.226 E294.23679
G1 X69.989 Y24.397 E295.2048
G1 X80.567 Y20.208 E296.11298
G1 X92.35 Y17.173 E297.08425
G1 X104.313 Y15.68 E298.0466
G1 X115.649 Y15.678 E298.95149
G1 X127.988 Y17.236 E299.94426
G1 X139.221 Y20.139 E300.87039
G1 X150.487 Y24.621 E301.83824
G1 X160.424 Y30.086 E302.7435
G1 X170.449 Y37.376 E303.73295
G1 X178.716 Y45.142 E304.63836
G1 X186.613 Y54.692 E305.62756
G1 X192.941 Y64.73 E306.57476
G1 X197.962 Y75.48 E307.52186
G1 X201.463 Y86.266 E308.42707
G1 X203.778 Y98.407 E309.41368
G1 X204.492 Y110.284 E310.36346
G1 X203.778 Y121.601 E311.26863
G1 X201.458 Y133.741 E312.25523
G1 X197.75 Y145.051 E313.20533
G1 X192.671 Y155.772 E314.1523
G1 X186.591 Y165.347 E315.05769
G1 X178.684 Y174.892 E316.04709
G1 X170.008 Y182.99 E316.99444
G1 X160.645 Y189.774 E317.9174
G1 X150.011 Y195.603 E318.88542
G1 X139.362 Y199.815 E319.79954
G1 X127.725 Y202.813 E320.75879
G1 X115.681 Y204.32 E321.72769
G1 X103.781 Y204.285 E322.67761
G1 X92.012 Y202.764 E323.62487
G1 X80.779 Y199.861 E324.551
G1 X69.513 Y195.379 E325.51885
G1 X59.576 Y189.914 E326.42411
G1 X49.551 Y182.624 E327.41356
G1 X41.284 Y174.858 E328.31898
G1 X33.387 Y165.309 E329.30811
G1 X27.095 Y155.335 E330.24946
G1 X22.037 Y144.517 E331.20273
G1 X18.537 Y133.734 E332.10768
G1 X16.222 Y121.593 E333.09429
G1 X15.508 Y109.716 E334.04407
G1 X16.222 Y98.399 E334.94924
G1 X18.542 Y86.259 E335.93584
G1 X22.25 Y74.949 E336.88594
G1 X27.329 Y64.228 E337.83291
M204 S2000
G0 F7500 X27.836 Y64.55
M204 S500
G1 F1500 X33.916 Y54.975 E338.7383
G1 X41.726 Y45.546 E339.71563
G1 X50.344 Y37.496 E340.65699
G1 X59.707 Y30.712 E341.57994
G1 X70.21 Y24.955 E342.53603
G1 X80.788 Y20.766 E343.44421
G1 X92.499 Y17.754 E344.40945
G1 X104.313 Y16.28 E345.35981
G1 X115.649 Y16.278 E346.2647
G1 X127.838 Y17.817 E347.2454
G1 X139.071 Y20.72 E348.17153
G1 X150.198 Y25.147 E349.12745
G1 X160.135 Y30.612 E350.03271
G1 X170.038 Y37.813 E351.01011
G1 X178.305 Y45.579 E351.91552
G1 X186.106 Y55.012 E352.89263
G1 X192.397 Y64.984 E353.83381
G1 X197.391 Y75.665 E354.775
G1 X200.892 Y86.451 E355.68021
G1 X203.179 Y98.443 E356.65471
G1 X203.893 Y110.246 E357.5986
G1 X203.179 Y121.563 E358.50377
G1 X200.888 Y133.554 E359.47826
G1 X197.208 Y144.794 E360.42235
G1 X192.164 Y155.45 E361.36343
G1 X186.084 Y165.025 E362.26882
G1 X178.274 Y174.454 E363.24615
G1 X169.656 Y182.504 E364.18751
G1 X160.293 Y189.288 E365.11047
G1 X149.79 Y195.045 E366.06655
G1 X139.212 Y199.234 E366.97473
G1 X127.575 Y202.232 E367.93398
G1 X115.683 Y203.72 E368.89065
G1 X103.858 Y203.69 E369.83458
G1 X92.162 Y202.183 E370.77592
G1 X80.929 Y199.28 E371.70204
G1 X69.802 Y194.853 E372.65797
G1 X59.865 Y189.388 E373.56323
G1 X49.962 Y182.187 E374.54062
G1 X41.695 Y174.421 E375.44604
G1 X33.894 Y164.989 E376.42309
G1 X27.638 Y155.081 E377.35845
G1 X22.608 Y144.332 E378.30578
G1 X19.108 Y133.549 E379.21073
G1 X16.821 Y121.557 E380.18524
G1 X16.107 Y109.754 E381.12913
G1 X16.821 Y98.437 E382.0343
G1 X19.112 Y86.446 E383.00878
G1 X22.792 Y75.206 E383.95287
G1 X27.836 Y64.55 E384.89396
M204 S2000
G0 F7500 X28.343 Y64.872
M204 S500
G1 F1500 X34.423 Y55.297 E385.79935
G1 X42.136 Y45.984 E386.7646
G1 X50.696 Y37.982 E387.69997
G1 X60.059 Y31.198 E388.62292
G1 X70.431 Y25.513 E389.56707
G1 X81.009 Y21.324 E390.47525
G1 X92.574 Y18.349 E391.42848
G1 X104.313 Y16.88 E392.37284
G1 X115.649 Y16.878 E393.27773
G1 X127.688 Y18.398 E394.24637
G1 X138.921 Y21.301 E395.17249
G1 X149.909 Y25.673 E396.11648
G1 X159.846 Y31.138 E397.02174
G1 X169.627 Y38.25 E397.98708
G1 X177.894 Y46.016 E398.8925
G1 X185.599 Y55.332 E399.85753
G1 X191.854 Y65.238 E400.79271
G1 X196.82 Y75.85 E401.72797
G1 X200.321 Y86.636 E402.63318
G1 X202.58 Y98.479 E403.59558
G1 X203.294 Y110.208 E404.53357
G1 X202.58 Y121.525 E405.43874
G1 X200.318 Y133.368 E406.40119
G1 X196.666 Y144.537 E407.3392
G1 X191.657 Y155.128 E408.2744
G1 X185.577 Y164.703 E409.17979
G1 X177.864 Y174.016 E410.14505
G1 X169.304 Y182.018 E411.08041
G1 X159.941 Y188.802 E412.00337
G1 X149.569 Y194.487 E412.94752
G1 X138.991 Y198.676 E413.8557
G1 X127.426 Y201.651 E414.80892
G1 X115.684 Y203.12 E415.75352
G1 X103.934 Y203.095 E416.69146
G1 X92.312 Y201.602 E417.6268
G1 X81.079 Y198.699 E418.55293
G1 X70.091 Y194.327 E419.49692
G1 X60.154 Y188.862 E420.40218
G1 X50.373 Y181.75 E421.36752
G1 X42.106 Y173.984 E422.27293
G1 X34.401 Y164.668 E423.23797
G1 X28.181 Y154.826 E424.16734
G1 X23.179 Y144.147 E425.10866
G1 X19.679 Y133.364 E426.01361
G1 X17.42 Y121.521 E426.97602
G1 X16.706 Y109.792 E427.91401
G1 X17.42 Y98.475 E428.81918
G1 X19.682 Y86.632 E429.78163
G1 X23.334 Y75.463 E430.71964
G1 X28.343 Y64.872 E431.65484
M204 S2000
G0 F7500 X28.85 Y65.194
M204 S500
G1 F1500 X34.93 Y55.619 E432.56023
G1 X42.546 Y46.422 E433.51341
G1 X51.048 Y38.468 E434.44278
G1 X60.411 Y31.684 E435.36573
G1 X70.652 Y26.071 E436.29795
G1 X81.23 Y21.882 E437.20613
G1 X92.723 Y18.93 E438.15333
G1 X104.313 Y17.48 E439.08571
G1 X115.649 Y17.478 E439.9906
G1 X127.538 Y18.979 E440.94716
G1 X138.771 Y21.882 E441.87329
G1 X149.62 Y26.199 E442.80534
G1 X159.557 Y31.664 E443.7106
G1 X169.216 Y38.687 E444.66389
