;FLAVOR:Marlin
;TIME:5879
;Filament used: 4.42296m
;Layer height: 0.2
;MINX:79.448
;MINY:74.9
;MINZ:0.2
;MAXX:140.552
;MAXY:145.226
;MAXZ:16.2
;TARGET_MACHINE.NAME:Creality Ender-3 S1
;Generated with Cura_SteamEngine 5.9.0
M82 ;absolute extrusion mode
; Ender 3 S1 Start G-code
; M413 S0 ; Disable power loss recovery
M201 X500.00 Y500.00 Z100.00 E5000.00 ;Setup machine max acceleration
M203 X500.00 Y500.00 Z20.00 E50.00 ;Setup machine max feedrate
M204 P500.00 R1000.00 T500.00 ;Setup Print/Retract/Travel acceleration
M205 X8.00 Y8.00 Z0.40 E5.00 ;Setup Jerk
M220 S100 ;Reset Feedrate
M221 S100 ;Reset Flowrate
G92 E0 ; Reset Extruder

; Prep surfaces before auto home for better accuracy
M140 S60
M104 S200
G92 E0 ; Reset Extruder
G28 ; Home all axes
M420 S1 Z10; Use Level Mesh up to 2mm;
G1 Z10.0 F3000 ; Move Z Axis up little to prevent scratching of Heat Bed
G1 X0 Y0

M190 S60
M109 S200

G1 X0.1 Y20 Z0.3 F5000.0 ; Move to start position
G1 X0.1 Y200.0 Z0.3 F1500.0 E15 ; Draw the first line
G1 X0.4 Y200.0 Z0.3 F5000.0 ; Move to side a little
G1 X0.4 Y20 Z0.3 F1500.0 E30 ; Draw the second line
G92 E0 ; Reset Extruder
G1 Z2.0 F3000 ; Move Z Axis up little to prevent scratching of Heat Bed
G1 X5 Y20 Z0.3 F5000.0 ; Move over to prevent blob squish
G92 E0
G92 E0
G1 F2400 E-0.8
;LAYER_COUNT:81
;LAYER:0
M107
M204 S2000
;MESH:AA_4_Battery_Holder.stl
G0 F7500 X97.547 Y87.2 Z0.2
M204 S500
;TYPE:WALL-INNER
G1 F2400 E0
G1 F1500 X97.112 Y87.166 E0.02177
G1 X96.806 Y87.104 E0.03735
G1 X96.382 Y86.962 E0.05965
G1 X95.857 Y86.687 E0.08922
G1 X95.383 Y86.285 E0.12023
G1 X95.035 Y85.834 E0.14865
G1 X94.768 Y85.335 E0.17688
G1 X94.595 Y84.771 E0.20632
G1 X94.541 Y84.189 E0.23548
G1 X94.582 Y83.764 E0.25678
G1 X94.643 Y83.463 E0.2721
G1 X94.777 Y83.05 E0.29376
G1 X95.024 Y82.573 E0.32056
G1 X95.362 Y82.144 E0.34781
G1 X95.545 Y81.968 E0.36048
G1 X95.915 Y81.675 E0.38402
G1 X96.396 Y81.43 E0.41095
G1 X96.907 Y81.263 E0.43777
G1 X97.404 Y81.206 E0.46273
G1 X97.692 Y81.206 E0.4771
G1 X98.179 Y81.26 E0.50155
G1 X98.688 Y81.423 E0.52821
G1 X99.191 Y81.679 E0.55637
G1 X99.656 Y82.06 E0.58636
G1 X100.017 Y82.489 E0.61433
G1 X100.306 Y82.999 E0.64358
G1 X100.457 Y83.472 E0.66835
G1 X100.514 Y83.762 E0.68309
G1 X100.555 Y84.196 E0.70484
G1 X100.495 Y84.786 E0.73443
G1 X100.314 Y85.37 E0.76493
G1 X100.06 Y85.849 E0.79198
G1 X99.696 Y86.31 E0.82129
G1 X99.307 Y86.628 E0.84635
G1 X99.087 Y86.77 E0.85942
G1 X98.676 Y86.983 E0.88251
G1 X98.258 Y87.113 E0.90435
G1 X97.984 Y87.166 E0.91828
G1 X97.547 Y87.2 E0.94014
M204 S2000
G0 F7500 X97.547 Y86.6
M204 S500
G1 F1500 X97.079 Y86.56 E0.96358
G1 X96.615 Y86.414 E0.98784
G1 X96.187 Y86.176 E1.01228
G1 X95.855 Y85.901 E1.03379
G1 X95.545 Y85.526 E1.05806
G1 X95.338 Y85.132 E1.08026
G1 X95.187 Y84.658 E1.10508
G1 X95.144 Y84.201 E1.12798
G1 X95.189 Y83.724 E1.15189
G1 X95.332 Y83.279 E1.17521
G1 X95.553 Y82.867 E1.19853
G1 X95.855 Y82.495 E1.22244
G1 X96.208 Y82.205 E1.24523
G1 X96.626 Y81.984 E1.26882
G1 X97.082 Y81.844 E1.29262
G1 X97.548 Y81.794 E1.316
G1 X98.01 Y81.844 E1.33918
G1 X98.461 Y81.979 E1.36267
G1 X98.869 Y82.188 E1.38554
G1 X99.237 Y82.49 E1.40929
G1 X99.545 Y82.867 E1.43358
G1 X99.769 Y83.281 E1.45706
G1 X99.907 Y83.721 E1.48007
G1 X99.952 Y84.204 E1.50427
G1 X99.904 Y84.681 E1.52819
G1 X99.758 Y85.138 E1.55212
G1 X99.536 Y85.546 E1.57529
G1 X99.263 Y85.883 E1.59693
G1 X98.886 Y86.197 E1.62141
G1 X98.492 Y86.404 E1.64361
G1 X98.022 Y86.56 E1.66832
G1 X97.547 Y86.6 E1.6921
M204 S2000
G1 F2400 E0.8921
G0 F7500 X97.505 Y87.012
G0 X98.788 Y87.242
G0 X102.343 Y89.756
G0 X102.911 Y95.971
G0 X103.266 Y96.878
G0 X103.871 Y97.636
G0 X104.672 Y98.18
G0 X105.504 Y98.436
G0 X109.191 Y98.741
M204 S500
G1 F2400 E1.6921
G1 F1500 X105.97 Y98.744 E1.8528
G1 X105.593 Y98.712 E1.87167
G1 X105.044 Y98.597 E1.89966
G1 X104.578 Y98.408 E1.92475
G1 X104.145 Y98.164 E1.94954
G1 X103.7 Y97.817 E1.9777
G1 X103.377 Y97.469 E2.00138
G1 X103.074 Y97.041 E2.02755
G1 X102.819 Y96.534 E2.05586
G1 X102.673 Y96.044 E2.08137
G1 X102.588 Y95.527 E2.10751
G1 X102.58 Y90.321 E2.36724
G1 X102.617 Y89.84 E2.3913
G1 X102.736 Y89.307 E2.41855
G1 X102.93 Y88.828 E2.44433
G1 X103.19 Y88.376 E2.47035
G1 X103.509 Y87.967 E2.49623
G1 X103.895 Y87.615 E2.52229
G1 X104.314 Y87.325 E2.54771
G1 X104.807 Y87.087 E2.57502
G1 X105.301 Y86.935 E2.60081
G1 X105.803 Y86.852 E2.62619
G1 X114.032 Y86.852 E3.03674
G1 X114.436 Y86.884 E3.05696
G1 X114.959 Y87.004 E3.08373
G1 X115.422 Y87.19 E3.10862
G1 X115.862 Y87.441 E3.1339
G1 X116.295 Y87.783 E3.16142
G1 X116.623 Y88.131 E3.18528
G1 X116.938 Y88.573 E3.21236
G1 X117.181 Y89.09 E3.24086
G1 X117.322 Y89.554 E3.26506
G1 X117.409 Y90.096 E3.29244
G1 X117.416 Y95.257 E3.54993
G1 X117.379 Y95.756 E3.57489
G1 X117.256 Y96.288 E3.60213
G1 X117.061 Y96.778 E3.62844
G1 X116.806 Y97.217 E3.65377
G1 X116.483 Y97.64 E3.68032
G1 X116.101 Y97.981 E3.70587
G1 X115.682 Y98.271 E3.73129
G1 X115.202 Y98.506 E3.75796
G1 X114.648 Y98.668 E3.78675
G1 X114.211 Y98.738 E3.80883
G1 X109.191 Y98.741 E4.05928
M204 S2000
G0 F7500 X108.768 Y98.144
M204 S500
G1 F1500 X106.053 Y98.148 E4.19473
G1 X105.669 Y98.117 E4.21395
G1 X105.195 Y98.012 E4.23817
G1 X104.832 Y97.864 E4.25773
G1 X104.428 Y97.631 E4.281
G1 X104.108 Y97.377 E4.30138
G1 X103.834 Y97.08 E4.32154
G1 X103.583 Y96.724 E4.34327
G1 X103.379 Y96.309 E4.36634
G1 X103.257 Y95.903 E4.38749
G1 X103.191 Y95.482 E4.40875
G1 X103.18 Y90.333 E4.66564
G1 X103.212 Y89.921 E4.68626
G1 X103.312 Y89.491 E4.70828
G1 X103.468 Y89.088 E4.72984
G1 X103.685 Y88.715 E4.75137
G1 X103.985 Y88.345 E4.77514
G1 X104.271 Y88.082 E4.79452
G1 X104.62 Y87.841 E4.81568
G1 X104.977 Y87.671 E4.83541
G1 X105.429 Y87.522 E4.85915
G1 X105.851 Y87.452 E4.88049
G1 X113.984 Y87.45 E5.28625
G1 X114.35 Y87.479 E5.30457
G1 X114.775 Y87.577 E5.32633
G1 X115.139 Y87.72 E5.34584
G1 X115.54 Y87.943 E5.36873
G1 X115.888 Y88.223 E5.39101
G1 X116.166 Y88.52 E5.41131
G1 X116.412 Y88.87 E5.43265
G1 X116.619 Y89.3 E5.45646
G1 X116.739 Y89.696 E5.4771
G1 X116.804 Y90.106 E5.49781
G1 X116.814 Y95.314 E5.75764
G1 X116.775 Y95.729 E5.77844
G1 X116.684 Y96.109 E5.79793
G1 X116.547 Y96.461 E5.81678
G1 X116.311 Y96.877 E5.84064
G1 X116.044 Y97.227 E5.8626
G1 X115.725 Y97.514 E5.88401
G1 X115.376 Y97.755 E5.90517
G1 X114.946 Y97.957 E5.92887
G1 X114.592 Y98.065 E5.94734
G1 X114.171 Y98.139 E5.96866
G1 X108.768 Y98.144 E6.23822
M204 S2000
G1 F2400 E5.43822
G0 F7500 X108.768 Y98.56
G0 X105.557 Y98.991
G0 X100.779 Y100.776
G0 X100.094 Y102.453
G0 X99.843 Y102.928
G0 X99.499 Y103.349
G0 X99.079 Y103.692
G0 X97.547 Y104.4
M204 S500
G1 F2400 E6.23822
G1 F1500 X97.112 Y104.366 E6.25999
G1 X96.806 Y104.304 E6.27556
G1 X96.382 Y104.162 E6.29787
G1 X95.857 Y103.887 E6.32744
G1 X95.39 Y103.491 E6.35799
G1 X95.047 Y103.062 E6.38539
G1 X94.774 Y102.551 E6.41429
G1 X94.595 Y101.969 E6.44467
G1 X94.542 Y101.375 E6.47443
G1 X94.601 Y100.809 E6.50282
G1 X94.778 Y100.231 E6.53297
G1 X95.042 Y99.741 E6.56074
G1 X95.403 Y99.289 E6.5896
G1 X95.874 Y98.898 E6.62014
G1 X96.416 Y98.614 E6.65067
G1 X96.839 Y98.486 E6.67272
G1 X97.112 Y98.434 E6.68658
G1 X97.549 Y98.4 E6.70845
G1 X97.984 Y98.435 E6.73022
G1 X98.272 Y98.491 E6.74486
G1 X98.71 Y98.625 E6.76771
G1 X99.222 Y98.902 E6.79676
G1 X99.702 Y99.301 E6.8279
G1 X100.04 Y99.722 E6.85483
G1 X100.334 Y100.266 E6.88568
G1 X100.502 Y100.829 E6.91499
G1 X100.554 Y101.41 E6.9441
G1 X100.492 Y102.017 E6.97454
G1 X100.312 Y102.567 E7.00341
G1 X100.062 Y103.047 E7.03041
G1 X99.695 Y103.51 E7.05989
G1 X99.307 Y103.828 E7.08491
G1 X99.087 Y103.97 E7.09798
G1 X98.676 Y104.183 E7.12107
G1 X98.258 Y104.313 E7.14291
G1 X97.984 Y104.366 E7.15683
G1 X97.547 Y104.4 E7.1787
M204 S2000
G0 F7500 X97.547 Y103.8
M204 S500
G1 F1500 X97.079 Y103.76 E7.20214
G1 X96.615 Y103.614 E7.2264
G1 X96.187 Y103.376 E7.25084
G1 X95.855 Y103.101 E7.27234
G1 X95.549 Y102.73 E7.29634
G1 X95.337 Y102.325 E7.31914
G1 X95.187 Y101.861 E7.34347
G1 X95.144 Y101.387 E7.36722
G1 X95.192 Y100.915 E7.39089
G1 X95.321 Y100.503 E7.41243
G1 X95.547 Y100.066 E7.43697
G1 X95.839 Y99.706 E7.4601
G1 X96.209 Y99.399 E7.48408
G1 X96.604 Y99.192 E7.50633
G1 X97.079 Y99.04 E7.53121
G1 X97.549 Y99 E7.55475
G1 X98.017 Y99.04 E7.57818
G1 X98.48 Y99.182 E7.60234
G1 X98.912 Y99.422 E7.627
G1 X99.241 Y99.695 E7.64833
G1 X99.557 Y100.085 E7.67337
G1 X99.761 Y100.463 E7.6948
G1 X99.91 Y100.937 E7.71959
G1 X99.953 Y101.397 E7.74264
G1 X99.904 Y101.881 E7.76691
G1 X99.771 Y102.295 E7.7886
G1 X99.558 Y102.719 E7.81227
G1 X99.263 Y103.083 E7.83565
G1 X98.886 Y103.397 E7.86013
G1 X98.492 Y103.604 E7.88233
G1 X98.022 Y103.76 E7.90704
G1 X97.547 Y103.8 E7.93082
M204 S2000
G1 F2400 E7.13082
G0 F7500 X97.505 Y104.212
G0 X99.376 Y104.134
G0 X102.472 Y106.429
G0 X102.84 Y112.691
G0 X103.054 Y113.638
G0 X103.54 Y114.478
G0 X104.254 Y115.14
G0 X105.124 Y115.559
G0 X105.64 Y115.639
G0 X110 Y115.944
M204 S500
G1 F2400 E7.93082
G1 F1500 X105.97 Y115.944 E8.13188
G1 X105.593 Y115.912 E8.15075
G1 X105.044 Y115.797 E8.17874
G1 X104.576 Y115.607 E8.20394
G1 X104.142 Y115.362 E8.2288
G1 X103.706 Y115.022 E8.25638
G1 X103.346 Y114.631 E8.2829
G1 X103.032 Y114.17 E8.31073
G1 X102.81 Y113.694 E8.33693
G1 X102.673 Y113.244 E8.3604
G1 X102.588 Y112.727 E8.38654
G1 X102.58 Y107.521 E8.64627
G1 X102.617 Y107.04 E8.67034
G1 X102.736 Y106.507 E8.69758
G1 X102.93 Y106.028 E8.72336
G1 X103.19 Y105.576 E8.74938
G1 X103.518 Y105.16 E8.77581
G1 X103.891 Y104.818 E8.80106
G1 X104.314 Y104.525 E8.82673
G1 X104.824 Y104.279 E8.85498
G1 X105.373 Y104.123 E8.88345
G1 X105.834 Y104.051 E8.90673
G1 X113.97 Y104.049 E9.31264
G1 X114.41 Y104.084 E9.33466
G1 X114.962 Y104.205 E9.36285
G1 X115.419 Y104.388 E9.38741
G1 X115.865 Y104.642 E9.41302
G1 X116.29 Y104.978 E9.44005
G1 X116.655 Y105.365 E9.46659
G1 X116.961 Y105.812 E9.49361
G1 X117.181 Y106.29 E9.51986
G1 X117.322 Y106.754 E9.54406
G1 X117.409 Y107.296 E9.57145
G1 X117.416 Y112.471 E9.82963
G1 X117.375 Y112.998 E9.856
G1 X117.257 Y113.484 E9.88095
G1 X117.061 Y113.982 E9.90765
G1 X116.807 Y114.42 E9.93291
G1 X116.49 Y114.829 E9.95873
G1 X116.105 Y115.178 E9.98465
G1 X115.682 Y115.471 E10.01032
G1 X115.202 Y115.706 E10.03699
G1 X114.642 Y115.869 E10.06609
G1 X114.191 Y115.943 E10.08889
G1 X110 Y115.944 E10.29798
M204 S2000
G0 F7500 X110 Y115.345
M204 S500
G1 F1500 X106.053 Y115.348 E10.49489
G1 X105.669 Y115.317 E10.51411
G1 X105.195 Y115.212 E10.53833
G1 X104.83 Y115.064 E10.55798
G1 X104.469 Y114.859 E10.5787
G1 X104.111 Y114.58 E10.60134
G1 X103.815 Y114.257 E10.6232
G1 X103.558 Y113.882 E10.64588
G1 X103.378 Y113.506 E10.66668
G1 X103.257 Y113.103 E10.68767
G1 X103.191 Y112.682 E10.70893
G1 X103.18 Y107.533 E10.96581
G1 X103.212 Y107.121 E10.98643
G1 X103.312 Y106.691 E11.00846
G1 X103.468 Y106.288 E11.03002
G1 X103.685 Y105.915 E11.05154
G1 X103.938 Y105.595 E11.0719
G1 X104.269 Y105.284 E11.09456
G1 X104.62 Y105.041 E11.11585
G1 X105.043 Y104.843 E11.13916
G1 X105.418 Y104.727 E11.15874
G1 X105.854 Y104.651 E11.18082
G1 X113.947 Y104.648 E11.58458
G1 X114.333 Y104.679 E11.6039
G1 X114.74 Y104.77 E11.62471
G1 X115.171 Y104.931 E11.64766
G1 X115.535 Y105.143 E11.66868
G1 X115.885 Y105.42 E11.69095
G1 X116.185 Y105.739 E11.71279
G1 X116.412 Y106.07 E11.73282
G1 X116.619 Y106.5 E11.75663
G1 X116.739 Y106.896 E11.77727
G1 X116.804 Y107.306 E11.79798
G1 X116.816 Y112.46 E12.05511
G1 X116.776 Y112.926 E12.07845
G1 X116.684 Y113.307 E12.098
G1 X116.529 Y113.711 E12.11959
G1 X116.311 Y114.081 E12.14102
G1 X116.015 Y114.451 E12.16466
G1 X115.727 Y114.712 E12.18405
G1 X115.376 Y114.955 E12.20535
G1 X114.946 Y115.157 E12.22905
G1 X114.528 Y115.28 E12.25079
G1 X114.153 Y115.341 E12.26974
G1 X110 Y115.345 E12.47693
M204 S2000
G1 F2400 E11.67693
G0 F7500 X110 Y115.759
G0 X114.236 Y116.218
G0 X119.16 Y118.576
G0 X120.158 Y120.129
G0 X120.501 Y120.549
G0 X120.88 Y120.859
G0 X122.447 Y121.596
M204 S500
G1 F2400 E12.47693
G1 F1500 X122.033 Y121.568 E12.49764
G1 X121.706 Y121.504 E12.51426
G1 X121.282 Y121.362 E12.53657
G1 X120.757 Y121.087 E12.56614
G1 X120.283 Y120.685 E12.59714
G1 X119.935 Y120.234 E12.62556
G1 X119.668 Y119.735 E12.6538
G1 X119.494 Y119.166 E12.68348
G1 X119.441 Y118.568 E12.71343
G1 X119.501 Y118.009 E12.74148
G1 X119.675 Y117.448 E12.77079
G1 X119.944 Y116.94 E12.79947
G1 X120.331 Y116.462 E12.83015
G1 X120.778 Y116.095 E12.859
G1 X121.313 Y115.818 E12.88906
G1 X121.739 Y115.686 E12.91131
G1 X121.992 Y115.636 E12.92418
G1 X122.399 Y115.591 E12.94461
G1 X122.904 Y115.637 E12.9699
G1 X123.172 Y115.691 E12.98354
G1 X123.61 Y115.825 E13.0064
G1 X124.122 Y116.102 E13.03544
G1 X124.601 Y116.501 E13.06654
G1 X124.942 Y116.924 E13.09365
G1 X125.235 Y117.472 E13.12465
G1 X125.404 Y118.038 E13.15412
G1 X125.452 Y118.647 E13.1846
G1 X125.395 Y119.187 E13.21169
G1 X125.214 Y119.77 E13.24214
G1 X124.96 Y120.249 E13.26919
G1 X124.596 Y120.71 E13.2985
G1 X124.207 Y121.028 E13.32356
G1 X123.987 Y121.17 E13.33663
G1 X123.576 Y121.383 E13.35972
G1 X123.158 Y121.513 E13.38156
G1 X122.863 Y121.568 E13.39653
G1 X122.447 Y121.596 E13.41733
M204 S2000
G0 F7500 X122.447 Y120.996
M204 S500
G1 F1500 X121.989 Y120.963 E13.44024
G1 X121.515 Y120.814 E13.46503
G1 X121.087 Y120.576 E13.48946
G1 X120.755 Y120.301 E13.51097
G1 X120.445 Y119.926 E13.53525
G1 X120.238 Y119.532 E13.55745
G1 X120.087 Y119.057 E13.58232
G1 X120.044 Y118.584 E13.60601
G1 X120.092 Y118.117 E13.62943
G1 X120.237 Y117.662 E13.65326
G1 X120.468 Y117.244 E13.67708
G1 X120.736 Y116.908 E13.69853
G1 X121.111 Y116.598 E13.7228
G1 X121.549 Y116.375 E13.74732
G1 X121.978 Y116.24 E13.76976
G1 X122.449 Y116.196 E13.79336
G1 X122.92 Y116.241 E13.81697
G1 X123.38 Y116.382 E13.84097
G1 X123.812 Y116.622 E13.86562
G1 X124.141 Y116.895 E13.88695
G1 X124.457 Y117.286 E13.91203
G1 X124.662 Y117.668 E13.93366
G1 X124.802 Y118.103 E13.95646
G1 X124.853 Y118.592 E13.98099
G1 X124.804 Y119.081 E14.00551
G1 X124.658 Y119.538 E14.02944
G1 X124.436 Y119.946 E14.05262
G1 X124.163 Y120.283 E14.07425
G1 X123.786 Y120.597 E14.09873
G1 X123.392 Y120.804 E14.12094
G1 X122.913 Y120.963 E14.14612
G1 X122.447 Y120.996 E14.16942
M204 S2000
G1 F2400 E13.36942
G0 F7500 X122.407 Y121.41
G0 X121.397 Y121.144
G0 X120.922 Y120.893
G0 X120.501 Y120.549
G0 X120.158 Y120.129
G0 X119.906 Y119.656
G0 X119.748 Y119.14
G0 X119.693 Y118.599
G0 X119.748 Y118.058
G0 X119.906 Y117.547
G0 X120.157 Y117.072
G0 X120.501 Y116.651
G0 X122.376 Y115.311
G0 X122.447 Y104.68
G0 X122.447 Y104.4
M204 S500
G1 F2400 E14.16942
G1 F1500 X122.012 Y104.366 E14.19119
G1 X121.706 Y104.304 E14.20677
G1 X121.282 Y104.162 E14.22908
G1 X120.757 Y103.887 E14.25865
G1 X120.29 Y103.491 E14.28919
G1 X119.947 Y103.062 E14.3166
G1 X119.674 Y102.551 E14.3455
G1 X119.494 Y101.966 E14.37604
G1 X119.441 Y101.368 E14.40599
G1 X119.501 Y100.809 E14.43404
G1 X119.677 Y100.238 E14.46385
G1 X119.947 Y99.738 E14.4922
G1 X120.302 Y99.29 E14.52071
G1 X120.774 Y98.898 E14.55132
G1 X121.316 Y98.614 E14.58185
G1 X121.739 Y98.486 E14.6039
G1 X122.012 Y98.434 E14.61776
G1 X122.449 Y98.4 E14.63963
G1 X122.884 Y98.435 E14.6614
G1 X123.172 Y98.491 E14.67604
G1 X123.61 Y98.625 E14.69889
G1 X124.122 Y98.902 E14.72794
G1 X124.602 Y99.301 E14.75908
G1 X124.94 Y99.722 E14.78601
G1 X125.234 Y100.266 E14.81686
G1 X125.402 Y100.829 E14.84617
G1 X125.454 Y101.41 E14.87528
G1 X125.392 Y102.017 E14.90572
G1 X125.212 Y102.567 E14.93459
G1 X124.962 Y103.047 E14.96159
G1 X124.595 Y103.51 E14.99107
G1 X124.207 Y103.828 E15.01609
G1 X123.987 Y103.97 E15.02916
G1 X123.576 Y104.183 E15.05225
G1 X123.158 Y104.313 E15.07409
G1 X122.884 Y104.366 E15.08802
G1 X122.447 Y104.4 E15.10988
M204 S2000
G0 F7500 X122.447 Y103.8
M204 S500
G1 F1500 X121.979 Y103.76 E15.13332
G1 X121.515 Y103.614 E15.15758
G1 X121.087 Y103.376 E15.18202
G1 X120.755 Y103.101 E15.20352
G1 X120.449 Y102.73 E15.22752
G1 X120.237 Y102.325 E15.25032
G1 X120.087 Y101.86 E15.2747
G1 X120.044 Y101.384 E15.29854
G1 X120.093 Y100.909 E15.32237
G1 X120.25 Y100.438 E15.34714
G1 X120.473 Y100.038 E15.36999
G1 X120.736 Y99.708 E15.39104
G1 X121.11 Y99.399 E15.41524
G1 X121.504 Y99.192 E15.43745
G1 X121.979 Y99.04 E15.46233
