;FLAVOR:Marlin
;TIME:637
;Filament used: 0.708046m
;Layer height: 0.32
;MINX:94.518
;MINY:93.692
;MINZ:0.32
;MAXX:125.462
;MAXY:109.004
;MAXZ:14.4
;TARGET_MACHINE.NAME:Creality Ender-3 S1
;Generated with Cura_SteamEngine 5.9.0
M82 ;absolute extrusion mode
; Ender 3 S1 Start G-code
; M413 S0 ; Disable power loss recovery
M201 X500.00 Y500.00 Z100.00 E5000.00 ;Setup machine max acceleration
M203 X500.00 Y500.00 Z20.00 E50.00 ;Setup machine max feedrate
M204 P500.00 R1000.00 T500.00 ;Setup Print/Retract/Travel acceleration
M205 X8.00 Y8.00 Z0.40 E5.00 ;Setup Jerk
M220 S100 ;Reset Feedrate
M221 S100 ;Reset Flowrate
G92 E0 ; Reset Extruder

; Prep surfaces before auto home for better accuracy
M140 S60
M104 S200
G92 E0 ; Reset Extruder
G28 ; Home all axes
M420 S1 Z10; Use Level Mesh up to 2mm;
G1 Z10.0 F3000 ; Move Z Axis up little to prevent scratching of Heat Bed
G1 X0 Y0

M190 S60
M109 S200

G1 X0.1 Y20 Z0.3 F5000.0 ; Move to start position
G1 X0.1 Y200.0 Z0.3 F1500.0 E15 ; Draw the first line
G1 X0.4 Y200.0 Z0.3 F5000.0 ; Move to side a little
G1 X0.4 Y20 Z0.3 F1500.0 E30 ; Draw the second line
G92 E0 ; Reset Extruder
G1 Z2.0 F3000 ; Move Z Axis up little to prevent scratching of Heat Bed
G1 X5 Y20 Z0.3 F5000.0 ; Move over to prevent blob squish
G92 E0
G92 E0
G1 F2400 E-0.8
;LAYER_COUNT:45
;LAYER:0
M107
M204 S2000
;MESH:BallCasterV2.stl(1)
G0 F7500 X99.673 Y104.835 Z0.32
M204 S500
;TYPE:WALL-INNER
G1 F2400 E0
G1 F1243.1 X98.924 Y104.667 E0.07394
G1 F1250 X98.213 Y104.351 E0.14847
G1 X97.623 Y103.91 E0.21903
G1 X97.173 Y103.397 E0.28439
G1 X96.82 Y102.804 E0.3505
G1 X96.588 Y102.113 E0.42032
G1 X96.505 Y101.387 E0.49031
G1 X96.569 Y100.667 E0.55955
G1 F1251.7 X96.8 Y99.923 E0.63407
G1 F1250 X97.194 Y99.265 E0.70754
G1 X97.66 Y98.759 E0.77343
G1 X98.215 Y98.347 E0.83964
G1 X98.883 Y98.038 E0.91014
G1 X99.483 Y97.906 E0.96899
G1 F1227.8 X99.792 Y97.864 E0.9994
G1 F1293.1 X100.192 Y97.913 E1.03672
G1 F1442.3 X100.885 Y98.045 E1.09528
G1 F1500 X101.212 Y98.151 E1.12272
G1 X101.579 Y98.319 E1.15494
G1 X101.84 Y98.471 E1.17905
G1 X102.164 Y98.707 E1.21105
G1 X102.393 Y98.913 E1.23564
G1 X102.661 Y99.209 E1.26751
G1 X102.843 Y99.457 E1.29206
G1 X103.047 Y99.805 E1.32426
G1 X103.18 Y100.103 E1.35031
G1 X103.356 Y100.65 E1.39618
G1 X103.416 Y101.348 E1.4521
G1 X103.356 Y102.046 E1.50803
G1 X103.18 Y102.593 E1.5539
G1 X103.047 Y102.891 E1.57995
G1 X102.843 Y103.239 E1.61215
G1 X102.667 Y103.48 E1.63597
G1 X102.399 Y103.78 E1.66808
G1 X102.164 Y103.993 E1.6934
G1 X101.84 Y104.229 E1.72539
G1 X101.567 Y104.386 E1.75053
G1 X101.199 Y104.551 E1.78272
G1 X100.9 Y104.648 E1.80782
G1 X100.504 Y104.731 E1.84011
G1 F1355.4 X99.673 Y104.835 E1.9141
M204 S2000
G0 F7500 X100.284 Y104.164
M204 S500
G1 F1500 X99.69 Y104.164 E1.96151
G1 X99.124 Y104.038 E2.0078
G1 X98.579 Y103.797 E2.05537
G1 X98.101 Y103.449 E2.10256
G1 X97.707 Y103.009 E2.14971
G1 X97.41 Y102.5 E2.19675
G1 X97.227 Y101.936 E2.24408
G1 X97.162 Y101.348 E2.2913
G1 X97.227 Y100.762 E2.33837
G1 X97.404 Y100.192 E2.38601
G1 X97.707 Y99.687 E2.43302
G1 X98.097 Y99.246 E2.48002
G1 X98.58 Y98.903 E2.5273
G1 X99.114 Y98.654 E2.57434
G1 X99.697 Y98.536 E2.62182
G1 X100.287 Y98.536 E2.66891
G1 X100.865 Y98.653 E2.71599
G1 X101.413 Y98.903 E2.76407
G1 X101.885 Y99.246 E2.81064
G1 X102.277 Y99.679 E2.85727
G1 X102.581 Y100.196 E2.90514
G1 X102.759 Y100.768 E2.95296
G1 X102.816 Y101.348 E2.99948
G1 X102.759 Y101.928 E3.046
G1 X102.581 Y102.5 E3.09382
G1 X102.28 Y103.013 E3.1413
G1 X101.889 Y103.45 E3.18811
G1 X101.412 Y103.798 E3.23524
G1 X100.87 Y104.041 E3.28266
G1 X100.284 Y104.164 E3.33045
M204 S2000
G0 F7500 X100.284 Y104.574
G0 X99.657 Y105.192
G0 X100.093 Y105.424
G0 X109.993 Y107.804
M204 S500
G1 F1500 X110.669 Y107.804 E3.38441
G1 X112.173 Y107.483 E3.50717
G1 X119.488 Y105.821 E4.10597
G1 F1444.6 X119.894 Y105.705 E4.14097
G1 F1296.8 X120.274 Y105.57 E4.1782
G1 F1229.5 X120.669 Y105.492 E4.21741
G1 F1250 X121.282 Y105.353 E4.27762
G1 X122.092 Y104.993 E4.36253
G1 X122.805 Y104.475 E4.44695
G1 F1251.7 X123.392 Y103.821 E4.53101
G1 X123.835 Y103.06 E4.61524
G1 F1253.5 X124.105 Y102.224 E4.69916
G1 X124.196 Y101.348 E4.78329
G1 X124.106 Y100.476 E4.86703
G1 X123.835 Y99.638 E4.95116
G1 F1251.7 X123.391 Y98.874 E5.03568
G1 F1250 X122.805 Y98.221 E5.11973
G1 F1248.3 X122.092 Y97.703 E5.20426
G1 F1250 X121.282 Y97.343 E5.28917
G1 F1236.3 X120.37 Y97.144 E5.37958
G1 F1325.5 X119.898 Y96.98 E5.42472
G1 F1473 X119.508 Y96.88 E5.45744
G1 F1500 X112.104 Y95.197 E6.06354
G1 X110.673 Y94.892 E6.18034
G1 X109.314 Y94.892 E6.28882
G1 X107.7 Y95.237 E6.42056
G1 X100.476 Y96.879 E7.01192
G1 F1442.3 X100.089 Y96.991 E7.04537
G1 F1293.1 X99.71 Y97.128 E7.08269
G1 F1227.8 X99.333 Y97.201 E7.12013
G1 F1250 X98.702 Y97.343 E7.18209
G1 X97.892 Y97.703 E7.26699
G1 X97.178 Y98.223 E7.3516
G1 X96.589 Y98.874 E7.4357
G1 X96.15 Y99.636 E7.51994
G1 F1253.5 X95.878 Y100.478 E7.60446
G1 F1250 X95.785 Y101.348 E7.68827
G1 X95.878 Y102.222 E7.77246
G1 F1251.7 X96.15 Y103.063 E7.85701
G1 F1250 X96.588 Y103.821 E7.94087
G1 X97.177 Y104.474 E8.02511
G1 F1251.7 X97.892 Y104.993 E8.10962
G1 F1250 X98.702 Y105.353 E8.19453
G1 F1238 X99.615 Y105.553 E8.28493
G1 F1327.4 X100.086 Y105.717 E8.32991
G1 F1473 X100.495 Y105.821 E8.36422
G1 F1500 X107.88 Y107.499 E8.96875
G1 X109.311 Y107.804 E9.08554
G1 X109.993 Y107.804 E9.13998
M204 S2000
G0 F7500 X109.993 Y108.404
M204 S500
G1 F1500 X110.733 Y108.404 E9.19905
G1 X112.417 Y108.043 E9.33653
G1 X121.491 Y105.981 E10.07932
G1 X122.424 Y105.568 E10.16077
G1 X123.249 Y104.967 E10.24225
G1 X123.928 Y104.211 E10.32336
G1 X124.441 Y103.33 E10.40474
G1 X124.754 Y102.361 E10.48602
G1 X124.858 Y101.348 E10.56731
G1 X124.754 Y100.339 E10.64828
G1 X124.441 Y99.369 E10.72964
G1 X123.927 Y98.484 E10.81134
G1 X123.249 Y97.728 E10.8924
G1 X122.423 Y97.128 E10.97389
G1 X121.49 Y96.715 E11.05534
G1 X112.27 Y94.619 E11.8101
G1 X110.736 Y94.292 E11.9353
G1 X109.251 Y94.292 E12.05384
G1 X107.714 Y94.619 E12.17927
G1 X98.493 Y96.714 E12.93409
G1 X97.561 Y97.128 E13.0155
G1 X96.734 Y97.73 E13.09715
G1 X96.052 Y98.484 E13.17831
G1 X95.544 Y99.367 E13.25962
G1 X95.23 Y100.341 E13.34131
G1 X95.121 Y101.348 E13.42216
G1 X95.229 Y102.359 E13.50333
G1 X95.544 Y103.332 E13.58496
G1 X96.052 Y104.211 E13.666
G1 X96.734 Y104.966 E13.74722
G1 X97.561 Y105.567 E13.82882
G1 X98.493 Y105.982 E13.91026
G1 X107.714 Y108.077 E14.66508
G1 X109.247 Y108.404 E14.79021
G1 X109.993 Y108.404 E14.84975
M204 S2000
G0 F7500 X109.993 Y107.996
G0 X119.838 Y105.426
G0 X120.231 Y105.203
G0 X120.192 Y104.835
M204 S500
G1 F1296.8 X119.792 Y104.787 E14.88695
G1 F1444.6 X119.48 Y104.732 E14.91321
G1 F1500 X119.084 Y104.648 E14.94552
G1 X118.785 Y104.551 E14.97062
G1 X118.417 Y104.386 E15.00281
G1 X118.144 Y104.229 E15.02795
G1 X117.82 Y103.993 E15.05994
G1 X117.585 Y103.78 E15.08526
G1 X117.317 Y103.48 E15.11737
G1 X117.142 Y103.239 E15.14115
G1 X116.937 Y102.891 E15.17339
G1 X116.804 Y102.593 E15.19944
G1 X116.642 Y102.091 E15.24154
G1 X116.573 Y101.474 E15.2911
G1 X116.575 Y101.198 E15.31313
G1 X116.642 Y100.605 E15.36077
G1 X116.804 Y100.103 E15.40288
G1 X116.937 Y99.805 E15.42893
G1 X117.141 Y99.457 E15.46113
G1 X117.323 Y99.209 E15.48568
G1 X117.591 Y98.913 E15.51756
G1 X117.82 Y98.707 E15.54214
G1 X118.144 Y98.471 E15.57414
G1 X118.405 Y98.319 E15.59825
G1 X118.772 Y98.151 E15.63047
G1 X119.099 Y98.045 E15.65791
G1 X119.495 Y97.965 E15.69016
G1 F1355.4 X120.31 Y97.864 E15.76271
G1 F1243.1 X121.107 Y98.039 E15.8413
G1 F1250 X121.77 Y98.348 E15.91137
G1 F1248.3 X122.322 Y98.758 E15.97733
G1 F1250 X122.788 Y99.262 E16.04308
G1 X123.164 Y99.893 E16.11344
G1 F1253.5 X123.398 Y100.589 E16.18358
G1 X123.476 Y101.348 E16.25646
G1 X123.414 Y102.032 E16.32207
G1 X123.184 Y102.771 E16.396
G1 X122.809 Y103.397 E16.46571
G1 F1251.7 X122.356 Y103.916 E16.5316
G1 X121.772 Y104.35 E16.6012
G1 X121.099 Y104.658 E16.672
G1 F1250 X120.516 Y104.79 E16.72926
G1 F1229.5 X120.192 Y104.835 E16.76112
M204 S2000
G0 F7500 X119.695 Y104.164
M204 S500
G1 F1500 X119.113 Y104.041 E16.8086
G1 X118.573 Y103.799 E16.85583
G1 X118.097 Y103.453 E16.90281
G1 X117.704 Y103.013 E16.9499
G1 X117.403 Y102.5 E16.99738
G1 X117.225 Y101.928 E17.0452
G1 X117.163 Y101.345 E17.092
G1 X117.225 Y100.768 E17.13832
G1 X117.403 Y100.196 E17.18614
G1 X117.707 Y99.678 E17.23409
G1 X118.099 Y99.247 E17.28059
G1 X118.571 Y98.903 E17.32721
G1 X119.119 Y98.653 E17.37529
G1 X119.697 Y98.536 E17.42237
G1 X120.291 Y98.536 E17.46978
G1 X120.861 Y98.657 E17.5163
G1 X121.411 Y98.899 E17.56426
G1 X121.881 Y99.25 E17.61109
G1 X122.276 Y99.686 E17.65805
G1 X122.575 Y100.198 E17.70538
G1 X122.757 Y100.761 E17.75261
G1 X122.817 Y101.348 E17.79971
G1 X122.757 Y101.937 E17.84697
G1 X122.575 Y102.499 E17.89413
G1 X122.276 Y103.01 E17.94139
G1 X121.882 Y103.45 E17.98853
G1 X121.414 Y103.799 E18.03513
G1 X120.861 Y104.039 E18.08325
G1 X120.287 Y104.164 E18.13015
G1 X119.695 Y104.164 E18.1774
M204 S2000
G0 F7500 X119.758 Y103.564
M204 S500
;TYPE:WALL-OUTER
G1 F1500 X119.273 Y103.455 E18.21708
G1 X118.851 Y103.259 E18.25423
G1 X118.527 Y103.023 E18.28622
G1 X118.177 Y102.632 E18.32811
G1 X117.946 Y102.225 E18.36547
G1 X117.813 Y101.808 E18.40041
G1 X117.768 Y101.348 E18.4373
G1 X117.813 Y100.888 E18.4742
G1 X117.946 Y100.471 E18.50914
G1 X118.213 Y100.014 E18.55138
G1 X118.527 Y99.677 E18.58815
G1 X118.851 Y99.441 E18.62015
G1 X119.304 Y99.227 E18.66014
G1 X119.732 Y99.141 E18.69499
G1 X120.208 Y99.136 E18.73299
G1 X120.679 Y99.229 E18.77131
G1 X121.106 Y99.423 E18.80875
G1 X121.481 Y99.696 E18.84578
G1 X121.791 Y100.039 E18.88268
G1 X122.027 Y100.442 E18.91996
G1 X122.17 Y100.885 E18.95712
G1 X122.217 Y101.348 E18.99427
G1 X122.17 Y101.811 E19.03142
G1 X122.027 Y102.255 E19.06865
G1 X121.791 Y102.657 E19.10586
G1 X121.481 Y103.004 E19.143
G1 X121.133 Y103.259 E19.17744
G1 X120.679 Y103.467 E19.21731
G1 X120.255 Y103.558 E19.25192
G1 X119.758 Y103.564 E19.2916
M204 S2000
G1 F2400 E18.4916
G0 F7500 X119.551 Y104.551
G0 X120.231 Y105.203
G0 X119.838 Y105.426
G0 X109.993 Y107.996
G0 X109.993 Y109.004
M204 S500
G1 F2400 E19.2916
G1 F1500 X110.796 Y109.004 E19.3557
G1 X112.55 Y108.628 E19.49889
G1 X121.681 Y106.553 E20.24635
G1 X122.725 Y106.09 E20.33751
G1 X123.653 Y105.415 E20.42911
G1 X124.416 Y104.566 E20.52023
G1 X124.992 Y103.576 E20.61166
G1 X125.344 Y102.485 E20.70317
G1 X125.462 Y101.348 E20.79442
G1 X125.344 Y100.215 E20.88535
G1 X124.992 Y99.123 E20.97693
G1 X124.415 Y98.13 E21.06861
G1 X123.653 Y97.28 E21.15973
G1 X122.725 Y96.606 E21.25128
G1 X121.68 Y96.143 E21.34252
G1 X112.355 Y94.024 E22.10586
G1 X110.8 Y93.692 E22.23278
G1 X109.188 Y93.692 E22.36146
G1 X107.585 Y94.033 E22.49228
G1 X98.303 Y96.142 E23.2521
G1 X97.259 Y96.606 E23.34329
G1 X96.33 Y97.281 E23.43496
G1 X95.564 Y98.13 E23.52624
G1 X94.992 Y99.123 E23.61771
G1 X94.64 Y100.215 E23.7093
G1 X94.518 Y101.348 E23.80026
G1 X94.639 Y102.485 E23.89153
G1 X94.992 Y103.577 E23.98314
G1 X95.564 Y104.566 E24.07434
G1 X96.33 Y105.415 E24.16562
G1 X97.259 Y106.09 E24.25728
G1 X98.303 Y106.554 E24.34848
G1 X107.629 Y108.672 E25.11188
G1 X109.184 Y109.004 E25.2388
G1 X109.993 Y109.004 E25.30338
M204 S2000
G1 F2400 E24.50338
G0 F7500 X109.993 Y107.996
G0 X100.142 Y105.45
G0 X99.657 Y105.192
G0 X99.777 Y104.574
G0 X99.777 Y103.564
M204 S500
G1 F2400 E25.30338
G1 F1500 X99.305 Y103.466 E25.34186
G1 X98.878 Y103.277 E25.37914
G1 X98.503 Y103.003 E25.41621
G1 X98.193 Y102.657 E25.45329
G1 X97.956 Y102.255 E25.49054
G1 X97.814 Y101.811 E25.52775
G1 X97.768 Y101.348 E25.56489
G1 X97.809 Y100.916 E25.59953
G1 X97.946 Y100.471 E25.6367
G1 X98.193 Y100.039 E25.67642
G1 X98.503 Y99.696 E25.71333
G1 X98.878 Y99.423 E25.75036
G1 X99.303 Y99.228 E25.78768
G1 X99.732 Y99.141 E25.82262
G1 X100.252 Y99.141 E25.86413
G1 X100.68 Y99.227 E25.89898
G1 X101.133 Y99.441 E25.93897
G1 X101.503 Y99.718 E25.97587
G1 X101.807 Y100.064 E26.01263
G1 X102.038 Y100.471 E26.04999
G1 X102.171 Y100.888 E26.08493
G1 X102.216 Y101.348 E26.12182
G1 X102.171 Y101.808 E26.15872
G1 X102.038 Y102.225 E26.19365
G1 X101.772 Y102.68 E26.23573
G1 X101.457 Y103.023 E26.2729
G1 X101.079 Y103.29 E26.30984
G1 X100.711 Y103.455 E26.34203
G1 X100.255 Y103.558 E26.37935
G1 X99.777 Y103.564 E26.41751
M204 S2000
G1 F2400 E25.61751
G0 F7500 X99.777 Y104.574
G0 X100.975 Y104.377
G0 X103.126 Y103.3
G0 X103.27 Y99.671
G0 X99.753 Y97.495
G0 X100.532 Y97.134
G0 X109.341 Y95.153
G0 X110.515 Y95.153
G0 X119.483 Y97.081
G0 X119.386 Y97.42
M204 S500
;TYPE:SKIN
G1 F2400 E26.41751
G1 F1426.3 X119.374 Y97.419 E26.41852
M204 S2000
G0 F7500 X119.453 Y97.073
G0 X120.328 Y97.506
G0 X118.737 Y97.87
G0 X116.388 Y100.543
G0 X117.668 Y104.205
G0 X120.231 Y105.203
G0 X119.838 Y105.426
G0 X119.432 Y105.566
G0 X110.642 Y107.543
G0 X109.993 Y107.604
G0 X109.993 Y107.264
M204 S500
G1 F1500 X109.364 Y107.264 E26.46873
G1 X107.993 Y106.971 E26.58064
G1 X100.516 Y105.274 E27.19267
G1 X101.013 Y105.174 E27.23314
G1 X101.387 Y105.053 E27.26451
G1 X101.788 Y104.874 E27.29957
G1 X102.129 Y104.681 E27.33084
G1 X102.501 Y104.412 E27.36749
G1 X102.806 Y104.135 E27.40038
G1 X103.07 Y103.835 E27.43228
G1 X103.294 Y103.53 E27.46248
G1 X103.503 Y103.176 E27.4953
G1 X103.686 Y102.776 E27.53041
G1 X103.862 Y102.241 E27.57537
G1 X103.948 Y101.542 E27.63159
G1 X103.947 Y101.174 E27.66096
G1 X103.871 Y100.509 E27.71439
G1 X103.698 Y99.949 E27.76118
G1 X103.522 Y99.555 E27.79562
G1 X103.312 Y99.19 E27.82924
G1 X103.073 Y98.865 E27.86144
G1 X102.792 Y98.548 E27.89526
G1 X102.504 Y98.288 E27.92623
G1 X102.137 Y98.021 E27.96246
G1 X101.825 Y97.837 E27.99137
G1 X101.406 Y97.646 E28.02813
G1 X101.025 Y97.522 E28.06011
G1 X100.529 Y97.419 E28.10055
G1 X107.923 Y95.738 E28.70583
G1 X109.368 Y95.432 E28.82373
G1 X110.616 Y95.432 E28.92335
G1 X111.948 Y95.714 E29.03204
G1 F1490.1 X118.948 Y97.309 E29.60895
G1 F1451.6 X119.374 Y97.419 E29.64524
G1 X118.957 Y97.518 E29.68059
G1 F1490.1 X118.579 Y97.646 E29.71266
G1 F1500 X118.161 Y97.836 E29.74931
G1 X117.845 Y98.02 E29.7785
G1 X117.499 Y98.269 E29.81253
G1 X117.212 Y98.524 E29.84318
G1 X116.924 Y98.844 E29.87754
G1 X116.687 Y99.161 E29.90914
G1 X116.457 Y99.558 E29.94576
G1 X116.297 Y99.918 E29.97721
G1 X116.122 Y100.451 E30.02199
G1 X116.037 Y101.137 E30.07717
G1 X116.033 Y101.526 E30.10822
G1 X116.109 Y102.183 E30.16102
G1 X116.286 Y102.745 E30.20805
G1 X116.457 Y103.134 E30.24197
G1 X116.676 Y103.515 E30.27705
G1 X116.893 Y103.817 E30.30673
G1 X117.177 Y104.134 E30.34071
G1 X117.477 Y104.41 E30.37325
G1 X117.848 Y104.68 E30.40987
G1 X118.164 Y104.864 E30.43906
G1 X118.561 Y105.043 E30.47383
G1 X118.978 Y105.179 E30.50884
G1 X119.437 Y105.275 E30.54627
G1 X112.217 Y106.919 E31.13735
G1 X110.612 Y107.264 E31.2684
G1 X109.993 Y107.264 E31.31781
M204 S2000
G0 F7500 X109.993 Y107.604
G0 X109.338 Y107.543
G0 X100.142 Y105.45
G0 X99.657 Y105.192
G0 X101.974 Y104.379
G0 X102.347 Y104.893
M204 S500
G1 F1500 X102.979 Y105.524 E31.3891
M204 S2000
G0 F7500 X102.837 Y106.147
G0 X100.142 Y105.45
G0 X99.657 Y105.192
G0 X102.399 Y104.048
G0 X102.825 Y104.522
M204 S500
G1 F1500 X104.076 Y105.773 E31.53032
M204 S2000
G0 F7500 X103.934 Y106.396
G0 X105.032 Y106.646
G0 X105.174 Y106.022
M204 S500
G1 F1500 X103.242 Y104.09 E31.74842
M204 S2000
G0 F7500 X103.602 Y103.602
M204 S500
G1 F1500 X106.272 Y106.272 E32.04984
M204 S2000
G0 F7500 X106.13 Y106.895
G0 X107.227 Y107.144
G0 X107.369 Y106.521
M204 S500
G1 F1500 X103.891 Y103.042 E32.44252
M204 S2000
G0 F7500 X104.119 Y102.422
M204 S500
G1 F1500 X108.461 Y106.764 E32.93268
M204 S2000
G0 F7500 X108.328 Y107.388
G0 X109.51 Y107.604
G0 X109.51 Y106.964
M204 S500
G1 F1500 X104.232 Y101.687 E33.52845
M204 S2000
G0 F7500 X104.207 Y100.813
M204 S500
G1 F1500 X110.358 Y106.964 E34.22283
M204 S2000
G0 F7500 X111.096 Y106.853
M204 S500
G1 F1500 X103.892 Y99.649 E35.03608
M204 S2000
G0 F7500 X103.31 Y99.908
G0 X100.541 Y97.71
G0 X99.753 Y97.495
G0 X100.384 Y97.203
G0 X102.945 Y96.524
G0 X103.086 Y97.146
M204 S500
G1 F1500 X112.489 Y106.549 E36.09757
M204 S2000
G0 F7500 X113.18 Y106.391
M204 S500
G1 F1500 X103.777 Y96.989 E37.15901
M204 S2000
