;FLAVOR:Marlin
;TIME:5713
;Filament used: 7.38393m
;Layer height: 0.2
;MINX:75.3
;MINY:80.3
;MINZ:0.2
;MAXX:144.7
;MAXY:139.75
;MAXZ:14
;TARGET_MACHINE.NAME:Creality Ender-3 S1
;Generated with Cura_SteamEngine 5.9.0
M82 ;absolute extrusion mode
; Ender 3 S1 Start G-code
; M413 S0 ; Disable power loss recovery
M201 X500.00 Y500.00 Z100.00 E5000.00 ;Setup machine max acceleration
M203 X500.00 Y500.00 Z20.00 E50.00 ;Setup machine max feedrate
M204 P500.00 R1000.00 T500.00 ;Setup Print/Retract/Travel acceleration
M205 X8.00 Y8.00 Z0.40 E5.00 ;Setup Jerk
M220 S100 ;Reset Feedrate
M221 S100 ;Reset Flowrate
G92 E0 ; Reset Extruder

; Prep surfaces before auto home for better accuracy
M140 S60
M104 S200
G92 E0 ; Reset Extruder
G28 ; Home all axes
M420 S1 Z10; Use Level Mesh up to 2mm;
G1 Z10.0 F3000 ; Move Z Axis up little to prevent scratching of Heat Bed
G1 X0 Y0

M190 S60
M109 S200

G1 X0.1 Y20 Z0.3 F5000.0 ; Move to start position
G1 X0.1 Y200.0 Z0.3 F1500.0 E15 ; Draw the first line
G1 X0.4 Y200.0 Z0.3 F5000.0 ; Move to side a little
G1 X0.4 Y20 Z0.3 F1500.0 E30 ; Draw the second line
G92 E0 ; Reset Extruder
G1 Z2.0 F3000 ; Move Z Axis up little to prevent scratching of Heat Bed
G1 X5 Y20 Z0.3 F5000.0 ; Move over to prevent blob squish
G92 E0
G92 E0
G1 F2400 E-0.8
;LAYER_COUNT:70
;LAYER:0
M107
M204 S2000
;MESH:battery_holder.stl
G0 F7500 X110 Y138.5 Z0.2
M204 S500
;TYPE:WALL-INNER
G1 F2400 E0
G1 F1500 X143.5 Y138.5 E1.67132
G1 X143.5 Y81.5 E4.51506
G1 X76.5 Y81.5 E7.85771
G1 X76.5 Y138.5 E10.70145
G1 X110 Y138.5 E12.37277
M204 S2000
G0 F7500 X110 Y139.1
M204 S500
G1 F1500 X144.1 Y139.1 E14.07403
G1 X144.1 Y80.9 E16.97764
G1 X75.9 Y80.9 E20.38015
G1 X75.9 Y139.1 E23.28376
G1 X110 Y139.1 E24.98501
M204 S2000
G0 F7500 X110 Y139.7
M204 S500
;TYPE:WALL-OUTER
G1 F1500 X144.7 Y139.7 E26.7162
G1 X144.7 Y80.3 E29.67968
G1 X75.3 Y80.3 E33.14206
G1 X75.3 Y139.7 E36.10554
G1 X110 Y139.7 E37.83673
M204 S2000
G0 F7500 X110 Y138.69
G0 X110 Y138.3
G0 X110 Y137.96
M204 S500
;TYPE:SKIN
G1 F1500 X77.04 Y137.96 E39.48111
G1 X77.04 Y82.04 E42.27097
G1 X142.96 Y82.04 E45.55973
G1 X142.96 Y137.96 E48.34959
G1 X110 Y137.96 E49.99397
M204 S2000
G1 F2400 E49.19397
G0 F7500 X110 Y138.3
G0 X76.772 Y138.228
G0 X76.7 Y136.737
G0 X77.34 Y136.737
M204 S500
G1 F2400 E49.99397
G1 F1500 X78.263 Y137.66 E50.0591
M204 S2000
G0 F7500 X79.111 Y137.66
M204 S500
G1 F1500 X77.34 Y135.888 E50.18409
M204 S2000
G0 F7500 X77.34 Y135.04
M204 S500
G1 F1500 X79.96 Y137.66 E50.36894
M204 S2000
G0 F7500 X80.808 Y137.66
M204 S500
G1 F1500 X77.34 Y134.191 E50.61366
M204 S2000
G0 F7500 X77.34 Y133.343
M204 S500
G1 F1500 X81.657 Y137.66 E50.91825
M204 S2000
G0 F7500 X82.505 Y137.66
M204 S500
G1 F1500 X77.34 Y132.494 E51.2827
M204 S2000
G0 F7500 X77.34 Y131.646
M204 S500
G1 F1500 X83.354 Y137.66 E51.70702
M204 S2000
G0 F7500 X84.202 Y137.66
M204 S500
G1 F1500 X77.34 Y130.797 E52.19121
M204 S2000
G0 F7500 X77.34 Y129.949
M204 S500
G1 F1500 X85.051 Y137.66 E52.73526
M204 S2000
G0 F7500 X85.899 Y137.66
M204 S500
G1 F1500 X77.34 Y129.1 E53.33918
M204 S2000
G0 F7500 X77.34 Y128.251
M204 S500
G1 F1500 X86.748 Y137.66 E54.003
M204 S2000
G0 F7500 X87.596 Y137.66
M204 S500
G1 F1500 X77.34 Y127.403 E54.72665
M204 S2000
G0 F7500 X77.34 Y126.554
M204 S500
G1 F1500 X88.445 Y137.66 E55.51021
M204 S2000
G0 F7500 X89.293 Y137.66
M204 S500
G1 F1500 X77.34 Y125.706 E56.35359
M204 S2000
G0 F7500 X77.34 Y124.857
M204 S500
G1 F1500 X90.142 Y137.66 E57.25688
M204 S2000
G0 F7500 X90.991 Y137.66
M204 S500
G1 F1500 X77.34 Y124.009 E58.22003
M204 S2000
G0 F7500 X77.34 Y123.16
M204 S500
G1 F1500 X91.839 Y137.66 E59.24305
M204 S2000
G0 F7500 X92.688 Y137.66
M204 S500
G1 F1500 X77.34 Y122.312 E60.32593
M204 S2000
G0 F7500 X77.34 Y121.463
M204 S500
G1 F1500 X93.536 Y137.66 E61.46868
M204 S2000
G0 F7500 X94.385 Y137.66
M204 S500
G1 F1500 X77.34 Y120.615 E62.6713
M204 S2000
G0 F7500 X77.34 Y119.766
M204 S500
G1 F1500 X95.233 Y137.66 E63.93378
M204 S2000
G0 F7500 X96.082 Y137.66
M204 S500
G1 F1500 X77.34 Y118.918 E65.25613
M204 S2000
G0 F7500 X77.34 Y118.069
M204 S500
G1 F1500 X96.93 Y137.66 E66.63835
M204 S2000
G0 F7500 X97.779 Y137.66
M204 S500
G1 F1500 X77.34 Y117.221 E68.08043
M204 S2000
G0 F7500 X77.34 Y116.372
M204 S500
G1 F1500 X98.627 Y137.66 E69.58238
M204 S2000
G0 F7500 X99.476 Y137.66
M204 S500
G1 F1500 X77.34 Y115.524 E71.14419
M204 S2000
G0 F7500 X77.34 Y114.675
M204 S500
G1 F1500 X100.324 Y137.66 E72.76587
M204 S2000
G0 F7500 X101.173 Y137.66
M204 S500
G1 F1500 X77.34 Y113.827 E74.44742
M204 S2000
G0 F7500 X77.34 Y112.978
M204 S500
G1 F1500 X102.021 Y137.66 E76.18883
M204 S2000
G0 F7500 X102.87 Y137.66
M204 S500
G1 F1500 X77.34 Y112.129 E77.99015
M204 S2000
G0 F7500 X77.34 Y111.281
M204 S500
G1 F1500 X103.718 Y137.66 E79.85129
M204 S2000
G0 F7500 X104.567 Y137.66
M204 S500
G1 F1500 X77.34 Y110.432 E81.77234
M204 S2000
G0 F7500 X77.34 Y109.584
M204 S500
G1 F1500 X105.415 Y137.66 E83.75322
M204 S2000
G0 F7500 X106.264 Y137.66
M204 S500
G1 F1500 X77.34 Y108.735 E85.794
M204 S2000
G0 F7500 X77.34 Y107.887
M204 S500
G1 F1500 X107.113 Y137.66 E87.89464
M204 S2000
G0 F7500 X107.961 Y137.66
M204 S500
G1 F1500 X77.34 Y107.038 E90.05515
M204 S2000
G0 F7500 X77.34 Y106.19
M204 S500
G1 F1500 X108.81 Y137.66 E92.27553
M204 S2000
G0 F7500 X109.658 Y137.66
M204 S500
G1 F1500 X77.34 Y105.341 E94.55578
M204 S2000
G0 F7500 X77.34 Y104.493
M204 S500
G1 F1500 X110.507 Y137.66 E96.89589
M204 S2000
G0 F7500 X111.355 Y137.66
M204 S500
G1 F1500 X77.34 Y103.644 E99.29587
M204 S2000
G0 F7500 X77.34 Y102.796
M204 S500
G1 F1500 X112.204 Y137.66 E101.75571
M204 S2000
G0 F7500 X113.052 Y137.66
M204 S500
G1 F1500 X77.34 Y101.947 E104.27542
M204 S2000
G0 F7500 X77.34 Y101.099
M204 S500
G1 F1500 X113.901 Y137.66 E106.855
M204 S2000
G0 F7500 X114.749 Y137.66
M204 S500
G1 F1500 X77.34 Y100.25 E109.49444
M204 S2000
G0 F7500 X77.34 Y99.402
M204 S500
G1 F1500 X115.598 Y137.66 E112.19375
M204 S2000
G0 F7500 X116.446 Y137.66
M204 S500
G1 F1500 X77.34 Y98.553 E114.95292
M204 S2000
G0 F7500 X77.34 Y97.704
M204 S500
G1 F1500 X117.295 Y137.66 E117.772
M204 S2000
G0 F7500 X118.143 Y137.66
M204 S500
G1 F1500 X77.34 Y96.856 E120.6509
M204 S2000
G0 F7500 X77.34 Y96.007
M204 S500
G1 F1500 X118.992 Y137.66 E123.58971
M204 S2000
G0 F7500 X119.84 Y137.66
M204 S500
G1 F1500 X77.34 Y95.159 E126.58835
M204 S2000
G0 F7500 X77.34 Y94.31
M204 S500
G1 F1500 X120.689 Y137.66 E129.64689
M204 S2000
G0 F7500 X121.538 Y137.66
M204 S500
G1 F1500 X77.34 Y93.462 E132.7653
M204 S2000
G0 F7500 X77.34 Y92.613
M204 S500
G1 F1500 X122.386 Y137.66 E135.94358
M204 S2000
G0 F7500 X123.235 Y137.66
M204 S500
G1 F1500 X77.34 Y91.765 E139.18172
M204 S2000
G0 F7500 X77.34 Y90.916
M204 S500
G1 F1500 X124.083 Y137.66 E142.47972
M204 S2000
G0 F7500 X124.932 Y137.66
M204 S500
G1 F1500 X77.34 Y90.068 E145.8376
M204 S2000
G0 F7500 X77.34 Y89.219
M204 S500
G1 F1500 X125.78 Y137.66 E149.25533
M204 S2000
G0 F7500 X126.629 Y137.66
M204 S500
G1 F1500 X77.34 Y88.371 E152.73294
M204 S2000
G0 F7500 X77.34 Y87.522
M204 S500
G1 F1500 X127.477 Y137.66 E156.27041
M204 S2000
G0 F7500 X128.326 Y137.66
M204 S500
G1 F1500 X77.34 Y86.674 E159.86775
M204 S2000
G0 F7500 X77.34 Y85.825
M204 S500
G1 F1500 X129.174 Y137.66 E163.52495
M204 S2000
G0 F7500 X130.023 Y137.66
M204 S500
G1 F1500 X77.34 Y84.977 E167.24202
M204 S2000
G0 F7500 X77.34 Y84.128
M204 S500
G1 F1500 X130.871 Y137.66 E171.01896
M204 S2000
G0 F7500 X131.72 Y137.66
M204 S500
G1 F1500 X77.34 Y83.28 E174.85576
M204 S2000
G0 F7500 X77.34 Y82.431
M204 S500
G1 F1500 X132.568 Y137.66 E178.75243
M204 S2000
G0 F7500 X133.417 Y137.66
M204 S500
G1 F1500 X78.098 Y82.34 E182.65552
M204 S2000
G0 F7500 X78.946 Y82.34
M204 S500
G1 F1500 X134.265 Y137.66 E186.55861
M204 S2000
G0 F7500 X135.114 Y137.66
M204 S500
G1 F1500 X79.795 Y82.34 E190.4617
M204 S2000
G0 F7500 X80.643 Y82.34
M204 S500
G1 F1500 X135.962 Y137.66 E194.36479
M204 S2000
G0 F7500 X136.811 Y137.66
M204 S500
G1 F1500 X81.492 Y82.34 E198.26788
M204 S2000
G0 F7500 X82.34 Y82.34
M204 S500
G1 F1500 X137.66 Y137.66 E202.171
M204 S2000
G0 F7500 X138.508 Y137.66
M204 S500
G1 F1500 X83.189 Y82.34 E206.07409
M204 S2000
G0 F7500 X84.038 Y82.34
M204 S500
G1 F1500 X139.357 Y137.66 E209.97718
M204 S2000
G0 F7500 X140.205 Y137.66
M204 S500
G1 F1500 X84.886 Y82.34 E213.88027
M204 S2000
G0 F7500 X85.735 Y82.34
M204 S500
G1 F1500 X141.054 Y137.66 E217.78336
M204 S2000
G0 F7500 X141.902 Y137.66
M204 S500
G1 F1500 X86.583 Y82.34 E221.68645
M204 S2000
G0 F7500 X87.432 Y82.34
M204 S500
G1 F1500 X142.66 Y137.569 E225.58312
M204 S2000
G0 F7500 X142.66 Y136.721
M204 S500
G1 F1500 X88.28 Y82.34 E229.41996
M204 S2000
G0 F7500 X89.129 Y82.34
M204 S500
G1 F1500 X142.66 Y135.872 E233.19689
M204 S2000
G0 F7500 X142.66 Y135.023
M204 S500
G1 F1500 X89.977 Y82.34 E236.91396
M204 S2000
G0 F7500 X90.826 Y82.34
M204 S500
G1 F1500 X142.66 Y134.175 E240.57117
M204 S2000
G0 F7500 X142.66 Y133.326
M204 S500
G1 F1500 X91.674 Y82.34 E244.16851
M204 S2000
G0 F7500 X92.523 Y82.34
M204 S500
G1 F1500 X142.66 Y132.478 E247.70598
M204 S2000
G0 F7500 X142.66 Y131.629
M204 S500
G1 F1500 X93.371 Y82.34 E251.18358
M204 S2000
G0 F7500 X94.22 Y82.34
M204 S500
G1 F1500 X142.66 Y130.781 E254.60132
M204 S2000
G0 F7500 X142.66 Y129.932
M204 S500
G1 F1500 X95.068 Y82.34 E257.95919
M204 S2000
G0 F7500 X95.917 Y82.34
M204 S500
G1 F1500 X142.66 Y129.084 E261.2572
M204 S2000
G0 F7500 X142.66 Y128.235
M204 S500
G1 F1500 X96.765 Y82.34 E264.49534
M204 S2000
G0 F7500 X97.614 Y82.34
M204 S500
G1 F1500 X142.66 Y127.387 E267.67361
M204 S2000
G0 F7500 X142.66 Y126.538
M204 S500
G1 F1500 X98.462 Y82.34 E270.79202
M204 S2000
G0 F7500 X99.311 Y82.34
M204 S500
G1 F1500 X142.66 Y125.69 E273.85056
M204 S2000
G0 F7500 X142.66 Y124.841
M204 S500
G1 F1500 X100.16 Y82.34 E276.8492
M204 S2000
G0 F7500 X101.008 Y82.34
M204 S500
G1 F1500 X142.66 Y123.993 E279.78801
M204 S2000
G0 F7500 X142.66 Y123.144
M204 S500
G1 F1500 X101.857 Y82.34 E282.66692
M204 S2000
G0 F7500 X102.705 Y82.34
M204 S500
G1 F1500 X142.66 Y122.296 E285.486
M204 S2000
G0 F7500 X142.66 Y121.447
M204 S500
G1 F1500 X103.554 Y82.34 E288.24517
M204 S2000
G0 F7500 X104.402 Y82.34
M204 S500
G1 F1500 X142.66 Y120.598 E290.94448
M204 S2000
G0 F7500 X142.66 Y119.75
M204 S500
G1 F1500 X105.251 Y82.34 E293.58392
M204 S2000
G0 F7500 X106.099 Y82.34
M204 S500
G1 F1500 X142.66 Y118.901 E296.1635
M204 S2000
G0 F7500 X142.66 Y118.053
M204 S500
G1 F1500 X106.948 Y82.34 E298.68321
M204 S2000
G0 F7500 X107.796 Y82.34
M204 S500
G1 F1500 X142.66 Y117.204 E301.14305
M204 S2000
G0 F7500 X142.66 Y116.356
M204 S500
G1 F1500 X108.645 Y82.34 E303.54303
M204 S2000
G0 F7500 X109.493 Y82.34
M204 S500
G1 F1500 X142.66 Y115.507 E305.88314
M204 S2000
G0 F7500 X142.66 Y114.659
M204 S500
G1 F1500 X110.342 Y82.34 E308.16338
M204 S2000
G0 F7500 X111.19 Y82.34
M204 S500
G1 F1500 X142.66 Y113.81 E310.38376
M204 S2000
G0 F7500 X142.66 Y112.962
M204 S500
G1 F1500 X112.039 Y82.34 E312.54427
M204 S2000
G0 F7500 X112.887 Y82.34
M204 S500
G1 F1500 X142.66 Y112.113 E314.64492
M204 S2000
G0 F7500 X142.66 Y111.265
M204 S500
G1 F1500 X113.736 Y82.34 E316.6857
M204 S2000
G0 F7500 X114.585 Y82.34
M204 S500
G1 F1500 X142.66 Y110.416 E318.66658
M204 S2000
G0 F7500 X142.66 Y109.568
M204 S500
G1 F1500 X115.433 Y82.34 E320.58763
M204 S2000
G0 F7500 X116.282 Y82.34
M204 S500
G1 F1500 X142.66 Y108.719 E322.44877
M204 S2000
G0 F7500 X142.66 Y107.871
M204 S500
G1 F1500 X117.13 Y82.34 E324.25009
M204 S2000
G0 F7500 X117.979 Y82.34
M204 S500
G1 F1500 X142.66 Y107.022 E325.9915
M204 S2000
G0 F7500 X142.66 Y106.173
M204 S500
G1 F1500 X118.827 Y82.34 E327.67305
M204 S2000
G0 F7500 X119.676 Y82.34
M204 S500
G1 F1500 X142.66 Y105.325 E329.29473
M204 S2000
G0 F7500 X142.66 Y104.476
M204 S500
G1 F1500 X120.524 Y82.34 E330.85654
M204 S2000
G0 F7500 X121.373 Y82.34
M204 S500
G1 F1500 X142.66 Y103.628 E332.35849
M204 S2000
G0 F7500 X142.66 Y102.779
M204 S500
G1 F1500 X122.221 Y82.34 E333.80057
M204 S2000
G0 F7500 X123.07 Y82.34
M204 S500
G1 F1500 X142.66 Y101.931 E335.18279
M204 S2000
G0 F7500 X142.66 Y101.082
M204 S500
G1 F1500 X123.918 Y82.34 E336.50514
M204 S2000
G0 F7500 X124.767 Y82.34
M204 S500
G1 F1500 X142.66 Y100.234 E337.76762
M204 S2000
G0 F7500 X142.66 Y99.385
M204 S500
G1 F1500 X125.615 Y82.34 E338.97024
M204 S2000
G0 F7500 X126.464 Y82.34
M204 S500
G1 F1500 X142.66 Y98.537 E340.11299
M204 S2000
G0 F7500 X142.66 Y97.688
M204 S500
G1 F1500 X127.312 Y82.34 E341.19587
M204 S2000
G0 F7500 X128.161 Y82.34
M204 S500
G1 F1500 X142.66 Y96.84 E342.21889
M204 S2000
G0 F7500 X142.66 Y95.991
M204 S500
G1 F1500 X129.01 Y82.34 E343.182
M204 S2000
G0 F7500 X129.858 Y82.34
M204 S500
G1 F1500 X142.66 Y95.143 E344.08529
M204 S2000
G0 F7500 X142.66 Y94.294
M204 S500
G1 F1500 X130.707 Y82.34 E344.92867
M204 S2000
G0 F7500 X131.555 Y82.34
M204 S500
G1 F1500 X142.66 Y93.446 E345.71223
M204 S2000
G0 F7500 X142.66 Y92.597
M204 S500
G1 F1500 X132.404 Y82.34 E346.43588
M204 S2000
G0 F7500 X133.252 Y82.34
M204 S500
G1 F1500 X142.66 Y91.749 E347.0997
M204 S2000
G0 F7500 X142.66 Y90.9
M204 S500
G1 F1500 X134.101 Y82.34 E347.70362
M204 S2000
G0 F7500 X134.949 Y82.34
M204 S500
G1 F1500 X142.66 Y90.051 E348.24767
M204 S2000
G0 F7500 X142.66 Y89.203
M204 S500
G1 F1500 X135.798 Y82.34 E348.73186
M204 S2000
G0 F7500 X136.646 Y82.34
M204 S500
G1 F1500 X142.66 Y88.354 E349.15618
M204 S2000
G0 F7500 X142.66 Y87.506
M204 S500
G1 F1500 X137.495 Y82.34 E349.52063
M204 S2000
G0 F7500 X138.343 Y82.34
M204 S500
G1 F1500 X142.66 Y86.657 E349.82522
M204 S2000
G0 F7500 X142.66 Y85.809
M204 S500
G1 F1500 X139.192 Y82.34 E350.06994
M204 S2000
G0 F7500 X140.04 Y82.34
M204 S500
G1 F1500 X142.66 Y84.96 E350.2548
M204 S2000
G0 F7500 X142.66 Y84.112
M204 S500
G1 F1500 X140.889 Y82.34 E350.37978
M204 S2000
G0 F7500 X141.737 Y82.34
M204 S500
G1 F1500 X142.66 Y83.263 E350.44491
M104 S200
M204 S2000
G1 F2400 E349.64491
;MESH:NONMESH
G0 F300 X142.66 Y83.263 Z0.4
G0 F7500 X143.3 Y83.263
G0 X143.228 Y138.228
G0 X110 Y138.5
;TIME_ELAPSED:301.191440
;LAYER:1
M106 S85
M204 S500
;TYPE:WALL-INNER
;MESH:battery_holder.stl
G1 F2400 E350.44491
G1 F1650 X143.5 Y138.5 E352.11623
G1 X143.5 Y81.5 E354.95997
G1 X76.5 Y81.5 E358.30261
G1 X76.5 Y138.5 E361.14636
G1 X110 Y138.5 E362.81768
M204 S2000
G0 F8250 X110 Y139.1
M204 S500
G1 F1650 X144.1 Y139.1 E364.51893
G1 X144.1 Y80.9 E367.42254
G1 X75.9 Y80.9 E370.82505
G1 X75.9 Y139.1 E373.72866
G1 X110 Y139.1 E375.42992
M204 S2000
G0 F8250 X110 Y139.7
M204 S500
;TYPE:WALL-OUTER
G1 F1650 X144.7 Y139.7 E377.16111
G1 X144.7 Y80.3 E380.12459
G1 X75.3 Y80.3 E383.58697
G1 X75.3 Y139.7 E386.55045
G1 X110 Y139.7 E388.28164
M204 S2000
G0 F8250 X110 Y138.69
G0 X110 Y138.3
G0 X110 Y137.96
M204 S500
;TYPE:SKIN
G1 F1650 X77.04 Y137.96 E389.92602
G1 X77.04 Y82.04 E392.71588
G1 X142.96 Y82.04 E396.00464
G1 X142.96 Y137.96 E398.7945
G1 X110 Y137.96 E400.43888
M204 S2000
G1 F2400 E399.63888
G0 F8250 X110 Y138.3
G0 X142.354 Y138.3
G0 X142.354 Y137.66
M204 S500
G1 F2400 E400.43888
G1 F1650 X142.66 Y137.354 E400.46047
M204 S2000
G0 F8250 X142.66 Y136.506
M204 S500
G1 F1650 X141.506 Y137.66 E400.54189
M204 S2000
G0 F8250 X140.657 Y137.66
M204 S500
G1 F1650 X142.66 Y135.657 E400.68321
M204 S2000
G0 F8250 X142.66 Y134.808
M204 S500
G1 F1650 X139.808 Y137.66 E400.88444
M204 S2000
G0 F8250 X138.96 Y137.66
M204 S500
G1 F1650 X142.66 Y133.96 E401.14549
M204 S2000
G0 F8250 X142.66 Y133.111
M204 S500
G1 F1650 X138.111 Y137.66 E401.46645
M204 S2000
G0 F8250 X137.263 Y137.66
M204 S500
G1 F1650 X142.66 Y132.263 E401.84724
M204 S2000
G0 F8250 X142.66 Y131.414
M204 S500
G1 F1650 X136.414 Y137.66 E402.28793
M204 S2000
G0 F8250 X135.566 Y137.66
M204 S500
G1 F1650 X142.66 Y130.566 E402.78845
M204 S2000
G0 F8250 X142.66 Y129.717
M204 S500
G1 F1650 X134.717 Y137.66 E403.34887
M204 S2000
G0 F8250 X133.869 Y137.66
M204 S500
G1 F1650 X142.66 Y128.869 E403.96912
M204 S2000
G0 F8250 X142.66 Y128.02
M204 S500
G1 F1650 X133.02 Y137.66 E404.64927
M204 S2000
G0 F8250 X132.172 Y137.66
M204 S500
G1 F1650 X142.66 Y127.172 E405.38926
M204 S2000
G0 F8250 X142.66 Y126.323
M204 S500
