;FLAVOR:Marlin
;TIME:1398
;Filament used: 1.54589m
;Layer height: 0.2
;MINX:90.745
;MINY:85.241
;MINZ:0.2
;MAXX:126.775
;MAXY:133.315
;MAXZ:12
;TARGET_MACHINE.NAME:Creality Ender-3 S1
;Generated with Cura_SteamEngine 5.9.0
M82 ;absolute extrusion mode
; Ender 3 S1 Start G-code
; M413 S0 ; Disable power loss recovery
M201 X500.00 Y500.00 Z100.00 E5000.00 ;Setup machine max acceleration
M203 X500.00 Y500.00 Z20.00 E50.00 ;Setup machine max feedrate
M204 P500.00 R1000.00 T500.00 ;Setup Print/Retract/Travel acceleration
M205 X8.00 Y8.00 Z0.40 E5.00 ;Setup Jerk
M220 S100 ;Reset Feedrate
M221 S100 ;Reset Flowrate
G92 E0 ; Reset Extruder

; Prep surfaces before auto home for better accuracy
M140 S60
M104 S200
G92 E0 ; Reset Extruder
G28 ; Home all axes
M420 S1 Z10; Use Level Mesh up to 2mm;
G1 Z10.0 F3000 ; Move Z Axis up little to prevent scratching of Heat Bed
G1 X0 Y0

M190 S60
M109 S200

G1 X0.1 Y20 Z0.3 F5000.0 ; Move to start position
G1 X0.1 Y200.0 Z0.3 F1500.0 E15 ; Draw the first line
G1 X0.4 Y200.0 Z0.3 F5000.0 ; Move to side a little
G1 X0.4 Y20 Z0.3 F1500.0 E30 ; Draw the second line
G92 E0 ; Reset Extruder
G1 Z2.0 F3000 ; Move Z Axis up little to prevent scratching of Heat Bed
G1 X5 Y20 Z0.3 F5000.0 ; Move over to prevent blob squish
G92 E0
G92 E0
G1 F2400 E-0.8
;LAYER_COUNT:60
;LAYER:0
M107
M204 S2000
;MESH:dragger.stl
G0 F7500 X114.471 Y100.717 Z0.2
M204 S500
;TYPE:WALL-INNER
G1 F2400 E0
G1 F1500 X113.979 Y100.669 E0.02466
G1 X113.689 Y100.617 E0.03936
G1 X112.876 Y100.29 E0.08308
G1 X112.348 Y99.842 E0.11763
G1 X111.991 Y99.495 E0.14246
G1 X111.571 Y98.769 E0.18431
G1 X111.357 Y98.107 E0.21902
G1 X111.285 Y97.42 E0.25348
G1 X111.357 Y96.737 E0.28775
G1 X111.57 Y96.076 E0.32239
G1 X111.894 Y95.513 E0.3548
G1 X112.36 Y94.979 E0.39016
G1 X112.928 Y94.561 E0.42534
G1 X113.571 Y94.274 E0.46047
G1 X114.244 Y94.133 E0.49478
G1 X114.934 Y94.133 E0.5292
G1 X115.618 Y94.274 E0.56404
G1 X116.259 Y94.563 E0.59912
G1 X116.483 Y94.704 E0.61233
G1 X116.931 Y95.089 E0.6418
G1 X117.335 Y95.557 E0.67264
G1 X117.475 Y95.812 E0.68716
G1 X117.737 Y96.4 E0.71927
G1 X117.882 Y97.061 E0.75304
G1 X117.883 Y97.765 E0.78816
G1 X117.734 Y98.459 E0.82357
G1 X117.62 Y98.752 E0.83926
G1 X117.259 Y99.382 E0.87548
G1 X117.094 Y99.591 E0.88877
G1 X116.638 Y100.033 E0.92045
G1 X116.076 Y100.367 E0.95307
G1 X115.785 Y100.497 E0.96897
G1 X115.351 Y100.634 E0.99167
G1 X114.929 Y100.714 E1.0131
G1 X114.614 Y100.731 E1.02884
G1 X114.471 Y100.717 E1.03601
M204 S2000
G0 F7500 X114.493 Y100.114
M204 S500
G1 F1500 X113.903 Y100.055 E1.06559
G1 X113.233 Y99.794 E1.10146
G1 X112.785 Y99.429 E1.13029
G1 X112.475 Y99.13 E1.15178
G1 X112.123 Y98.528 E1.18657
G1 X111.948 Y97.989 E1.21484
G1 X111.888 Y97.421 E1.24334
G1 X111.948 Y96.855 E1.27174
G1 X112.123 Y96.316 E1.30001
G1 X112.406 Y95.83 E1.32807
G1 X112.782 Y95.412 E1.35612
G1 X113.242 Y95.077 E1.38451
G1 X113.755 Y94.848 E1.41253
G1 X114.306 Y94.733 E1.44062
G1 X114.873 Y94.733 E1.4689
G1 X115.434 Y94.848 E1.49747
G1 X116.071 Y95.139 E1.53241
G1 X116.506 Y95.512 E1.561
G1 X116.876 Y95.944 E1.58938
G1 X117.166 Y96.588 E1.62461
G1 X117.283 Y97.142 E1.65286
G1 X117.285 Y97.694 E1.6804
G1 X117.134 Y98.394 E1.71613
G1 X116.717 Y99.126 E1.75816
G1 X116.24 Y99.578 E1.79094
G1 X115.69 Y99.895 E1.82262
G1 X115.196 Y100.054 E1.84851
G1 X114.736 Y100.138 E1.87184
G1 X114.493 Y100.114 E1.88402
M204 S2000
G1 F2400 E1.08402
G0 F7500 X114.45 Y100.524
G0 X114.658 Y101.013
G0 X115.024 Y108.079
G0 X114.183 Y108.38
M204 S500
G1 F2400 E1.88402
G1 F1500 X114.592 Y108.402 E1.90445
G1 X115.742 Y108.342 E1.9619
G1 X116.868 Y108.162 E2.01879
G1 X117.993 Y107.863 E2.07687
G1 X119.056 Y107.456 E2.13366
G1 X120.072 Y106.935 E2.19062
G1 X121.054 Y106.299 E2.24899
G1 X121.946 Y105.579 E2.30618
G1 X122.745 Y104.776 E2.3627
G1 X123.468 Y103.882 E2.42006
G1 X124.104 Y102.903 E2.4783
G1 X124.627 Y101.88 E2.53562
G1 X125.031 Y100.823 E2.59208
G1 X125.334 Y99.7 E2.65011
G1 X125.51 Y98.574 E2.70697
G1 X125.573 Y97.413 E2.76497
G1 X125.51 Y96.266 E2.82228
G1 X125.334 Y95.145 E2.8789
G1 X125.031 Y94.02 E2.93702
G1 X124.627 Y92.964 E2.99343
G1 X124.103 Y91.941 E3.05077
G1 X123.468 Y90.963 E3.10895
G1 X122.745 Y90.067 E3.16639
G1 X121.946 Y89.265 E3.22287
G1 X121.053 Y88.544 E3.28013
G1 X120.076 Y87.909 E3.33826
G1 X119.057 Y87.389 E3.39534
G1 X117.993 Y86.982 E3.45217
G1 X116.868 Y86.682 E3.51026
G1 X115.742 Y86.502 E3.56715
G1 X114.592 Y86.443 E3.6246
G1 X113.442 Y86.503 E3.68205
G1 X112.316 Y86.682 E3.73893
G1 X111.192 Y86.981 E3.79696
G1 X110.132 Y87.388 E3.85361
G1 X109.111 Y87.91 E3.91082
G1 X108.131 Y88.544 E3.96905
G1 X107.242 Y89.265 E4.02615
G1 X106.438 Y90.069 E4.08288
G1 X105.716 Y90.962 E4.14017
G1 X105.081 Y91.941 E4.19839
G1 X104.557 Y92.964 E4.25573
G1 X104.153 Y94.021 E4.31219
G1 X103.85 Y95.145 E4.37027
G1 X103.674 Y96.266 E4.42688
G1 X103.611 Y97.427 E4.48489
G1 X103.674 Y98.574 E4.5422
G1 X103.85 Y99.7 E4.59905
G1 X104.153 Y100.823 E4.65708
G1 X104.557 Y101.88 E4.71354
G1 X105.08 Y102.903 E4.77086
G1 X105.716 Y103.882 E4.8291
G1 X106.439 Y104.776 E4.88647
G1 X107.238 Y105.579 E4.94298
G1 X108.13 Y106.299 E5.00017
G1 X109.103 Y106.931 E5.05806
G1 X110.125 Y107.452 E5.11529
G1 X111.192 Y107.863 E5.17233
G1 X112.316 Y108.162 E5.23036
G1 X113.442 Y108.341 E5.28724
G1 X114.183 Y108.38 E5.32426
M204 S2000
G0 F7500 X114.161 Y108.98
M204 S500
G1 F1500 X114.592 Y109.002 E5.34579
G1 X115.805 Y108.939 E5.40639
G1 X116.992 Y108.75 E5.46636
G1 X118.178 Y108.434 E5.52759
G1 X119.3 Y108.004 E5.58754
G1 X120.373 Y107.455 E5.64767
G1 X121.407 Y106.786 E5.70911
G1 X122.348 Y106.026 E5.76946
G1 X123.193 Y105.178 E5.82918
G1 X123.954 Y104.234 E5.88968
G1 X124.624 Y103.204 E5.95098
G1 X125.176 Y102.125 E6.01145
G1 X125.602 Y101.009 E6.07104
G1 X125.922 Y99.824 E6.13228
G1 X126.107 Y98.637 E6.19221
G1 X126.174 Y97.413 E6.25337
G1 X126.107 Y96.203 E6.31383
G1 X125.922 Y95.02 E6.37357
G1 X125.602 Y93.835 E6.43481
G1 X125.176 Y92.719 E6.4944
G1 X124.623 Y91.64 E6.55489
G1 X123.954 Y90.61 E6.61617
G1 X123.193 Y89.666 E6.67666
G1 X122.348 Y88.818 E6.73638
G1 X121.406 Y88.058 E6.79677
G1 X120.376 Y87.389 E6.85804
G1 X119.301 Y86.84 E6.91827
G1 X118.178 Y86.41 E6.97826
G1 X116.992 Y86.094 E7.03949
G1 X115.805 Y85.905 E7.09946
G1 X114.592 Y85.842 E7.16006
G1 X113.379 Y85.905 E7.22066
G1 X112.192 Y86.094 E7.28062
G1 X111.006 Y86.41 E7.34186
G1 X109.887 Y86.84 E7.40166
G1 X108.811 Y87.389 E7.46193
G1 X107.778 Y88.058 E7.52333
G1 X106.84 Y88.818 E7.58356
G1 X105.991 Y89.667 E7.64346
G1 X105.23 Y90.61 E7.70391
G1 X104.561 Y91.64 E7.76519
G1 X104.008 Y92.719 E7.82568
G1 X103.582 Y93.835 E7.88528
G1 X103.262 Y95.02 E7.94651
G1 X103.077 Y96.203 E8.00625
G1 X103.01 Y97.427 E8.06741
G1 X103.076 Y98.637 E8.12786
G1 X103.262 Y99.824 E8.18781
G1 X103.582 Y101.009 E8.24904
G1 X104.008 Y102.125 E8.30864
G1 X104.56 Y103.204 E8.36911
G1 X105.23 Y104.234 E8.43041
G1 X105.991 Y105.178 E8.4909
G1 X106.836 Y106.026 E8.55063
G1 X107.777 Y106.786 E8.61097
G1 X108.803 Y107.451 E8.67197
G1 X109.88 Y108 E8.73228
G1 X111.007 Y108.434 E8.79253
G1 X112.192 Y108.75 E8.85372
G1 X113.379 Y108.939 E8.91369
G1 X114.161 Y108.98 E8.95275
M204 S2000
G0 F7500 X114.138 Y109.58
M204 S500
;TYPE:WALL-OUTER
G1 F1500 X114.592 Y109.603 E8.97543
G1 X115.868 Y109.537 E9.03918
G1 X117.117 Y109.338 E9.10228
G1 X118.363 Y109.006 E9.16661
G1 X119.545 Y108.553 E9.22976
G1 X120.673 Y107.975 E9.293
G1 X121.759 Y107.272 E9.35754
G1 X122.75 Y106.472 E9.42108
G1 X123.64 Y105.579 E9.48398
G1 X124.44 Y104.587 E9.54756
G1 X125.144 Y103.505 E9.61196
G1 X125.725 Y102.369 E9.67562
G1 X126.174 Y101.195 E9.73833
G1 X126.51 Y99.949 E9.80271
G1 X126.705 Y98.7 E9.86578
G1 X126.775 Y97.413 E9.93008
G1 X126.705 Y96.14 E9.99369
G1 X126.51 Y94.895 E10.05656
G1 X126.174 Y93.649 E10.12094
G1 X125.725 Y92.475 E10.18365
G1 X125.143 Y91.339 E10.24733
G1 X124.44 Y90.257 E10.3117
G1 X123.64 Y89.265 E10.37528
G1 X122.75 Y88.372 E10.43818
G1 X121.759 Y87.572 E10.50172
G1 X120.677 Y86.869 E10.5661
G1 X119.545 Y86.291 E10.62951
G1 X118.363 Y85.838 E10.69266
G1 X117.117 Y85.506 E10.757
G1 X115.868 Y85.307 E10.82009
G1 X114.592 Y85.241 E10.88384
G1 X113.316 Y85.307 E10.94758
G1 X112.067 Y85.506 E11.01068
G1 X110.821 Y85.838 E11.07502
G1 X109.643 Y86.291 E11.13798
G1 X108.511 Y86.869 E11.20139
G1 X107.425 Y87.572 E11.26594
G1 X106.438 Y88.372 E11.32932
G1 X105.544 Y89.265 E11.39236
G1 X104.744 Y90.257 E11.45594
G1 X104.041 Y91.339 E11.52032
G1 X103.459 Y92.475 E11.584
G1 X103.01 Y93.649 E11.6467
G1 X102.674 Y94.895 E11.71109
G1 X102.479 Y96.14 E11.77396
G1 X102.409 Y97.427 E11.83826
G1 X102.479 Y98.7 E11.90187
G1 X102.674 Y99.949 E11.96494
G1 X103.01 Y101.195 E12.02932
G1 X103.459 Y102.369 E12.09203
G1 X104.04 Y103.505 E12.15569
G1 X104.744 Y104.587 E12.22009
G1 X105.544 Y105.579 E12.28367
G1 X106.434 Y106.472 E12.34657
G1 X107.425 Y107.272 E12.41011
G1 X108.503 Y107.971 E12.47421
G1 X109.635 Y108.549 E12.53762
G1 X110.821 Y109.006 E12.60103
G1 X112.067 Y109.338 E12.66536
G1 X113.316 Y109.537 E12.72846
G1 X114.138 Y109.58 E12.76953
M204 S2000
G1 F2400 E11.96953
G0 F7500 X114.191 Y108.575
G0 X114.018 Y108.09
G0 X114.658 Y101.013
G0 X114.412 Y100.52
G0 X114.516 Y99.514
M204 S500
G1 F2400 E12.76953
G1 F1500 X114.07 Y99.471 E12.79188
G1 X113.517 Y99.26 E12.82141
G1 X113.18 Y98.977 E12.84336
G1 X112.945 Y98.751 E12.85963
G1 X112.667 Y98.264 E12.88761
G1 X112.542 Y97.875 E12.90799
G1 X112.492 Y97.437 E12.92999
G1 X112.535 Y97.001 E12.95184
G1 X112.68 Y96.551 E12.97543
G1 X112.902 Y96.175 E12.99721
G1 X113.175 Y95.871 E13.0176
G1 X113.559 Y95.592 E13.04128
G1 X113.928 Y95.427 E13.06145
G1 X114.352 Y95.335 E13.08309
G1 X114.812 Y95.333 E13.10604
G1 X115.256 Y95.427 E13.12868
G1 X115.758 Y95.66 E13.1563
G1 X116.098 Y95.954 E13.17872
G1 X116.366 Y96.272 E13.19947
G1 X116.585 Y96.756 E13.22597
G1 X116.681 Y97.189 E13.2481
G1 X116.681 Y97.655 E13.27135
G1 X116.565 Y98.176 E13.29798
G1 X116.246 Y98.737 E13.33017
G1 X115.893 Y99.082 E13.3548
G1 X115.446 Y99.343 E13.38062
G1 X115.042 Y99.474 E13.40181
G1 X114.708 Y99.532 E13.41872
G1 X114.516 Y99.514 E13.42835
M204 S2000
G1 F2400 E12.62835
G0 F7500 X114.412 Y100.52
G0 X114.658 Y101.013
G0 X115.024 Y108.079
G0 X114.186 Y108.179
G0 X114.204 Y107.839
M204 S500
;TYPE:SKIN
G1 F2400 E13.42835
G1 F1500 X113.492 Y107.801 E13.46392
G1 X112.435 Y107.634 E13.51731
G1 X111.349 Y107.342 E13.57341
G1 X110.347 Y106.957 E13.62696
G1 X109.379 Y106.463 E13.68118
G1 X108.441 Y105.856 E13.73692
G1 X107.602 Y105.18 E13.79068
G1 X106.836 Y104.411 E13.84483
G1 X106.156 Y103.567 E13.8989
G1 X105.545 Y102.625 E13.95492
G1 X105.047 Y101.65 E14.00954
G1 X104.67 Y100.659 E14.06244
G1 X104.378 Y99.577 E14.11835
G1 X104.211 Y98.519 E14.17179
G1 X104.149 Y97.431 E14.22616
G1 X104.211 Y96.316 E14.28187
G1 X104.374 Y95.263 E14.33503
G1 X104.67 Y94.178 E14.39114
G1 X105.047 Y93.191 E14.44385
G1 X105.545 Y92.219 E14.49834
G1 X106.156 Y91.273 E14.55452
G1 X106.844 Y90.425 E14.609
G1 X107.598 Y89.667 E14.66234
G1 X108.441 Y88.984 E14.71647
G1 X109.386 Y88.373 E14.77261
G1 X110.355 Y87.879 E14.82688
G1 X111.349 Y87.498 E14.87999
G1 X112.435 Y87.206 E14.93609
G1 X113.492 Y87.039 E14.98948
G1 X114.592 Y86.981 E15.04444
G1 X115.688 Y87.039 E15.09919
G1 X116.745 Y87.206 E15.15258
G1 X117.831 Y87.498 E15.20868
G1 X118.834 Y87.879 E15.26221
G1 X119.797 Y88.372 E15.31619
G1 X120.735 Y88.984 E15.37206
G1 X121.582 Y89.664 E15.42625
G1 X122.344 Y90.433 E15.48026
G1 X123.024 Y91.273 E15.53418
G1 X123.636 Y92.215 E15.59023
G1 X124.137 Y93.19 E15.64492
G1 X124.51 Y94.177 E15.69756
G1 X124.806 Y95.263 E15.75371
G1 X124.969 Y96.316 E15.80687
G1 X125.031 Y97.405 E15.86129
G1 X124.969 Y98.52 E15.91701
G1 X124.805 Y99.577 E15.97037
G1 X124.514 Y100.659 E16.02627
G1 X124.137 Y101.649 E16.07912
G1 X123.636 Y102.625 E16.13385
G1 X123.024 Y103.567 E16.1899
G1 X122.344 Y104.411 E16.24397
G1 X121.578 Y105.18 E16.29812
G1 X120.74 Y105.856 E16.35184
G1 X119.793 Y106.467 E16.40807
G1 X118.829 Y106.961 E16.46211
G1 X117.831 Y107.342 E16.5154
G1 X116.745 Y107.634 E16.57151
G1 X115.688 Y107.801 E16.6249
G1 X114.592 Y107.859 E16.67965
G1 X114.204 Y107.839 E16.69903
M204 S2000
G1 F2400 E15.89903
G0 F7500 X114.186 Y108.179
G0 X114.658 Y101.013
G0 X114.451 Y101.251
M204 S500
G1 F2400 E16.69903
G1 F1500 X114.793 Y101.284 E16.71618
G1 X115.495 Y101.154 E16.75179
G1 X116.165 Y100.932 E16.78701
G1 X116.843 Y100.545 E16.82596
G1 X117.107 Y100.331 E16.84291
G1 X117.558 Y99.889 E16.87442
G1 X117.762 Y99.588 E16.89256
G1 X118.107 Y98.981 E16.92739
G1 X118.25 Y98.614 E16.94704
G1 X118.42 Y97.809 E16.98809
G1 X118.419 Y97.026 E17.02715
G1 X118.27 Y96.305 E17.06388
G1 X118.157 Y96.009 E17.07969
G1 X117.896 Y95.447 E17.1106
G1 X117.732 Y95.198 E17.12548
G1 X117.394 Y94.792 E17.15183
G1 X117.198 Y94.601 E17.16549
G1 X116.822 Y94.282 E17.19009
G1 X116.505 Y94.08 E17.20884
G1 X115.959 Y93.835 E17.2387
G1 X115.699 Y93.741 E17.25249
G1 X114.992 Y93.593 E17.28853
G1 X114.169 Y93.595 E17.32959
G1 X113.388 Y93.763 E17.36944
G1 X112.67 Y94.083 E17.40866
G1 X112.102 Y94.495 E17.44367
G1 X111.884 Y94.703 E17.4587
G1 X111.492 Y95.139 E17.48795
G1 X111.08 Y95.835 E17.5283
G1 X110.823 Y96.638 E17.57037
G1 X110.744 Y97.438 E17.61047
G1 X110.83 Y98.239 E17.65067
G1 X111.08 Y99.005 E17.69087
G1 X111.481 Y99.69 E17.73047
G1 X111.689 Y99.954 E17.74723
G1 X111.971 Y100.228 E17.76685
G1 X112.474 Y100.654 E17.79974
G1 X112.795 Y100.844 E17.81835
G1 X113.482 Y101.11 E17.8551
G1 X113.809 Y101.189 E17.87188
G1 X114.451 Y101.251 E17.90406
M204 S2000
G1 F2400 E17.10406
G0 F7500 X114.483 Y100.916
G0 X112.922 Y100.618
G0 X109.712 Y106.904
G0 X109.375 Y106.844
G0 X109.667 Y106.273
M204 S500
G1 F2400 E17.90406
G1 F1500 X105.739 Y102.345 E18.1812
M204 S2000
G0 F7500 X105.169 Y102.636
G0 X104.447 Y101.031
G0 X105.046 Y100.803
M204 S500
G1 F1500 X111.209 Y106.966 E18.61604
M204 S2000
G0 F7500 X110.978 Y107.565
G0 X112.242 Y107.935
G0 X112.407 Y107.315
M204 S500
G1 F1500 X104.696 Y99.604 E19.16009
M204 S2000
G0 F7500 X104.077 Y99.77
G0 X103.893 Y98.684
G0 X104.525 Y98.586
M204 S500
G1 F1500 X113.426 Y107.487 E19.7881
M204 S2000
G0 F7500 X114.333 Y107.545
M204 S500
G1 F1500 X104.463 Y97.675 E20.48448
M204 S2000
G0 F7500 X104.481 Y96.845
M204 S500
G1 F1500 X115.164 Y107.528 E21.23823
M204 S2000
G0 F7500 X115.941 Y107.456
M204 S500
G1 F1500 X104.553 Y96.068 E22.04171
M204 S2000
G0 F7500 X104.667 Y95.333
M204 S500
G1 F1500 X116.674 Y107.34 E22.88887
M204 S2000
G0 F7500 X117.344 Y107.161
M204 S500
G1 F1500 X104.848 Y94.665 E23.77053
M204 S2000
G0 F7500 X105.051 Y94.02
M204 S500
G1 F1500 X117.99 Y106.959 E24.68345
M204 S2000
G0 F7500 X118.605 Y106.726
M204 S500
G1 F1500 X113.201 Y101.321 E25.06476
M204 S2000
G0 F7500 X113.431 Y100.729
G0 X114.324 Y100.901
G0 X114.263 Y101.535
M204 S500
G1 F1500 X119.175 Y106.447 E25.41133
M204 S2000
G0 F7500 X119.728 Y106.152
M204 S500
G1 F1500 X115.108 Y101.532 E25.7373
M204 S2000
G0 F7500 X115.797 Y101.372
M204 S500
G1 F1500 X120.244 Y105.819 E26.05106
M204 S2000
G0 F7500 X120.742 Y105.469
M204 S500
G1 F1500 X116.411 Y101.137 E26.35667
M204 S2000
G0 F7500 X116.951 Y100.829
M204 S500
G1 F1500 X121.212 Y105.09 E26.65731
M204 S2000
G0 F7500 X121.651 Y104.681
M204 S500
G1 F1500 X117.418 Y100.447 E26.956
M204 S2000
G0 F7500 X117.834 Y100.015
M204 S500
G1 F1500 X122.075 Y104.256 E27.25523
M204 S2000
G0 F7500 X122.459 Y103.791
M204 S500
G1 F1500 X118.16 Y99.492 E27.55854
M204 S2000
G0 F7500 X118.447 Y98.931
M204 S500
G1 F1500 X122.832 Y103.315 E27.86789
M204 S2000
G0 F7500 X123.165 Y102.801
M204 S500
G1 F1500 X118.631 Y98.266 E28.18783
M204 S2000
G0 F7500 X118.715 Y97.502
M204 S500
G1 F1500 X123.482 Y102.269 E28.52417
M204 S2000
G0 F7500 X123.77 Y101.708
M204 S500
G1 F1500 X118.631 Y96.569 E28.88675
M204 S2000
G0 F7500 X118.007 Y96.698
G0 X117.519 Y95.489
G0 X118.052 Y95.142
M204 S500
G1 F1500 X124.021 Y101.111 E29.3079
M204 S2000
G0 F7500 X124.249 Y100.49
M204 S500
G1 F1500 X111.521 Y87.763 E30.20589
M204 S2000
G0 F7500 X110.902 Y87.992
M204 S500
G1 F1500 X116.864 Y93.953 E30.62651
M204 S2000
G0 F7500 X116.525 Y94.494
G0 X115.315 Y94.006
G0 X115.444 Y93.383
