;FLAVOR:Marlin
;TIME:3228
;Filament used: 3.36901m
;Layer height: 0.2
;MINX:83.193
;MINY:75.948
;MINZ:0.2
;MAXX:136.807
;MAXY:144.055
;MAXZ:15.8
;TARGET_MACHINE.NAME:Creality Ender-3 S1
;Generated with Cura_SteamEngine 5.9.0
M82 ;absolute extrusion mode
; Ender 3 S1 Start G-code
; M413 S0 ; Disable power loss recovery
M201 X500.00 Y500.00 Z100.00 E5000.00 ;Setup machine max acceleration
M203 X500.00 Y500.00 Z20.00 E50.00 ;Setup machine max feedrate
M204 P500.00 R1000.00 T500.00 ;Setup Print/Retract/Travel acceleration
M205 X8.00 Y8.00 Z0.40 E5.00 ;Setup Jerk
M220 S100 ;Reset Feedrate
M221 S100 ;Reset Flowrate
G92 E0 ; Reset Extruder

; Prep surfaces before auto home for better accuracy
M140 S60
M104 S200
G92 E0 ; Reset Extruder
G28 ; Home all axes
M420 S1 Z10; Use Level Mesh up to 2mm;
G1 Z10.0 F3000 ; Move Z Axis up little to prevent scratching of Heat Bed
G1 X0 Y0

M190 S60
M109 S200

G1 X0.1 Y20 Z0.3 F5000.0 ; Move to start position
G1 X0.1 Y200.0 Z0.3 F1500.0 E15 ; Draw the first line
G1 X0.4 Y200.0 Z0.3 F5000.0 ; Move to side a little
G1 X0.4 Y20 Z0.3 F1500.0 E30 ; Draw the second line
G92 E0 ; Reset Extruder
G1 Z2.0 F3000 ; Move Z Axis up little to prevent scratching of Heat Bed
G1 X5 Y20 Z0.3 F5000.0 ; Move over to prevent blob squish
G92 E0
G92 E0
G1 F2400 E-0.8
;LAYER_COUNT:79
;LAYER:0
M107
M204 S2000
;MESH:JanSpiesZA-56-ORP_Arduino_UNO_holder-Body.stl
G0 F7500 X109.991 Y91.768 Z0.2
M204 S500
;TYPE:WALL-INNER
G1 F2400 E0
G1 F1500 X109.712 Y91.751 E0.01395
G1 X109.184 Y91.618 E0.04111
G1 X108.56 Y91.382 E0.07439
G1 X108.32 Y91.238 E0.08836
G1 X107.74 Y90.756 E0.12598
G1 X107.548 Y90.546 E0.14018
G1 X107.197 Y90.006 E0.17231
G1 X106.963 Y89.356 E0.20677
G1 X106.844 Y88.749 E0.23763
G1 X106.844 Y88.463 E0.2519
G1 X106.884 Y88.012 E0.27449
G1 X107.03 Y87.38 E0.30685
G1 X107.158 Y87.094 E0.32249
G1 X107.451 Y86.603 E0.35101
G1 X107.916 Y86.057 E0.38679
G1 X108.47 Y85.679 E0.42025
G1 X108.97 Y85.439 E0.44792
G1 X109.282 Y85.322 E0.46455
G1 X110.006 Y85.247 E0.50086
G1 X110.278 Y85.239 E0.51444
G1 X111.081 Y85.381 E0.55512
G1 X111.573 Y85.59 E0.58179
G1 X111.815 Y85.713 E0.59533
G1 X112.265 Y86.068 E0.62393
G1 X112.676 Y86.488 E0.65324
G1 X112.817 Y86.707 E0.66624
G1 X113.07 Y87.173 E0.69269
G1 X113.249 Y87.683 E0.71966
G1 X113.333 Y88.168 E0.74422
G1 X113.347 Y88.739 E0.77271
G1 X113.312 Y88.998 E0.78575
G1 X113.167 Y89.628 E0.818
G1 X112.845 Y90.254 E0.85312
G1 X112.681 Y90.481 E0.8671
G1 X112.26 Y90.955 E0.89872
G1 X111.727 Y91.315 E0.93081
G1 X111.173 Y91.581 E0.96147
G1 X110.851 Y91.679 E0.97827
G1 X109.991 Y91.768 E1.0214
M204 S2000
G0 F7500 X109.895 Y91.177
M204 S500
G1 F1500 X109.362 Y91.044 E1.04881
G1 X108.858 Y90.858 E1.07561
G1 X108.652 Y90.737 E1.08753
G1 X108.072 Y90.249 E1.12534
G1 X107.736 Y89.737 E1.1559
G1 X107.539 Y89.188 E1.185
G1 X107.434 Y88.615 E1.21406
G1 X107.475 Y88.1 E1.23984
G1 X107.616 Y87.5 E1.27058
G1 X107.939 Y86.952 E1.30232
G1 X108.303 Y86.53 E1.33012
G1 X108.763 Y86.204 E1.35825
G1 X109.366 Y85.915 E1.39161
G1 X110.194 Y85.831 E1.43313
G1 X110.905 Y85.965 E1.46923
G1 X111.455 Y86.191 E1.4989
G1 X111.898 Y86.552 E1.52741
G1 X112.238 Y86.897 E1.55157
G1 X112.521 Y87.414 E1.58098
G1 X112.664 Y87.839 E1.60335
G1 X112.736 Y88.228 E1.62309
G1 X112.749 Y88.768 E1.65003
G1 X112.599 Y89.423 E1.68356
G1 X112.299 Y90.006 E1.71627
G1 X111.863 Y90.501 E1.74918
G1 X111.427 Y90.796 E1.77544
G1 X110.818 Y91.085 E1.80907
G1 X109.895 Y91.177 E1.85535
M204 S2000
G1 F2400 E1.05535
G0 F7500 X109.799 Y91.574
G0 X109.739 Y92.045
G0 X110.077 Y104.957
G0 X108.095 Y106.246
G0 X107.656 Y106.746
G0 X107.283 Y107.387
G0 X107.132 Y108.048
G0 X107.084 Y108.646
G0 X107.192 Y109.248
G0 X107.397 Y109.857
G0 X107.809 Y110.488
G0 X108.506 Y111.068
G0 X110 Y111.767
M204 S500
G1 F2400 E1.85535
G1 F1500 X109.991 Y111.768 E1.8558
G1 X109.712 Y111.751 E1.86975
G1 X109.184 Y111.618 E1.89691
G1 X108.56 Y111.382 E1.93019
G1 X108.32 Y111.238 E1.94416
G1 X107.614 Y110.647 E1.99009
G1 X107.2 Y110.014 E2.02783
G1 X106.955 Y109.344 E2.06342
G1 X106.834 Y108.646 E2.09876
G1 X106.88 Y108.044 E2.12888
G1 X107.006 Y107.462 E2.15859
G1 X107.105 Y107.184 E2.17331
G1 X107.454 Y106.589 E2.20773
G1 X107.925 Y106.055 E2.24325
G1 X108.465 Y105.687 E2.27585
G1 X109.103 Y105.375 E2.31129
G1 X109.396 Y105.308 E2.32628
G1 X110.237 Y105.231 E2.36842
G1 X111.082 Y105.384 E2.41126
G1 X111.69 Y105.641 E2.44419
G1 X111.919 Y105.795 E2.45796
G1 X112.262 Y106.07 E2.47989
G1 X112.717 Y106.532 E2.51224
G1 X113.066 Y107.164 E2.54826
G1 X113.232 Y107.641 E2.57346
G1 X113.337 Y108.169 E2.60032
G1 X113.352 Y108.812 E2.6324
G1 X113.166 Y109.638 E2.67464
G1 X112.795 Y110.351 E2.71474
G1 X112.367 Y110.838 E2.74709
G1 X112.16 Y111.023 E2.76094
G1 X111.727 Y111.315 E2.787
G1 X111.173 Y111.581 E2.81766
G1 X110.851 Y111.679 E2.83445
G1 X110 Y111.767 E2.87713
M204 S2000
G0 F7500 X110 Y111.167
M204 S500
G1 F1502.5 X109.895 Y111.177 E2.88238
G1 F1500 X109.362 Y111.044 E2.90979
G1 X108.858 Y110.858 E2.93659
G1 X108.652 Y110.737 E2.94851
G1 X108.085 Y110.263 E2.98538
G1 X107.735 Y109.734 E3.01703
G1 X107.542 Y109.198 E3.04545
G1 X107.433 Y108.607 E3.07543
G1 X107.481 Y108.079 E3.10188
G1 X107.614 Y107.515 E3.13079
G1 X107.939 Y106.946 E3.16349
G1 X108.33 Y106.502 E3.193
G1 X108.767 Y106.206 E3.21933
G1 X109.373 Y105.912 E3.25294
G1 X110.207 Y105.834 E3.29473
G1 X110.907 Y105.961 E3.33022
G1 X111.445 Y106.188 E3.35935
G1 X111.86 Y106.516 E3.38574
G1 X112.234 Y106.896 E3.41234
G1 X112.518 Y107.409 E3.4416
G1 X112.665 Y107.842 E3.46441
G1 X112.732 Y108.195 E3.48234
G1 X112.746 Y108.78 E3.51153
G1 X112.594 Y109.435 E3.54508
G1 X112.299 Y109.996 E3.5767
G1 X111.865 Y110.5 E3.60988
G1 X111.427 Y110.796 E3.63626
G1 X110.818 Y111.085 E3.66989
G1 F1502.5 X110 Y111.167 E3.71083
M204 S2000
G1 F2400 E2.91083
G0 F7500 X110.041 Y111.577
G0 X109.264 Y111.383
G0 X108.712 Y111.18
G0 X106.969 Y110.173
G0 X93.135 Y110.309
G0 X91.345 Y111.213
G0 X90.027 Y111.771
M204 S500
G1 F2400 E3.71083
G1 F1500 X89.732 Y111.756 E3.72557
G1 X89.183 Y111.62 E3.75379
G1 X88.531 Y111.378 E3.78848
G1 X88.246 Y111.18 E3.8058
G1 X87.786 Y110.796 E3.83569
G1 X87.49 Y110.461 E3.858
G1 X87.289 Y110.154 E3.8763
G1 X87.136 Y109.845 E3.8935
G1 X86.951 Y109.328 E3.9209
G1 X86.862 Y108.843 E3.9455
G1 X86.84 Y108.584 E3.95847
G1 X86.88 Y108.014 E3.98698
G1 X86.993 Y107.516 E4.01245
G1 X87.158 Y107.094 E4.03506
G1 X87.374 Y106.722 E4.05652
G1 X87.544 Y106.486 E4.07103
G1 X87.799 Y106.195 E4.09033
G1 X88.08 Y105.946 E4.10906
G1 X88.47 Y105.679 E4.13264
G1 X88.971 Y105.439 E4.16036
G1 X89.303 Y105.316 E4.17802
G1 X90.006 Y105.247 E4.21326
G1 X90.287 Y105.239 E4.22729
G1 X91.102 Y105.39 E4.26864
G1 X91.739 Y105.663 E4.30322
G1 X92.267 Y106.07 E4.33648
G1 X92.718 Y106.534 E4.36876
G1 X93.066 Y107.164 E4.40467
G1 X93.232 Y107.641 E4.42986
G1 X93.337 Y108.169 E4.45672
G1 X93.352 Y108.812 E4.48881
G1 X93.166 Y109.638 E4.53105
G1 X92.795 Y110.351 E4.57115
G1 X92.367 Y110.838 E4.6035
G1 X92.16 Y111.023 E4.61735
G1 X91.727 Y111.315 E4.6434
G1 X91.173 Y111.581 E4.67406
G1 X90.835 Y111.682 E4.69166
G1 X90.027 Y111.771 E4.73222
M204 S2000
G0 F7500 X89.903 Y111.181
M204 S500
G1 F1500 X89.314 Y111.028 E4.76258
G1 X88.75 Y110.818 E4.7926
G1 X88.171 Y110.335 E4.83022
G1 X87.993 Y110.135 E4.84358
G1 X87.737 Y109.741 E4.86702
G1 X87.531 Y109.169 E4.89735
G1 X87.436 Y108.644 E4.92397
G1 X87.476 Y108.099 E4.95123
G1 X87.578 Y107.648 E4.9743
G1 X87.677 Y107.395 E4.98786
G1 X87.937 Y106.948 E5.01366
G1 X88.325 Y106.505 E5.04304
G1 X88.769 Y106.201 E5.06988
G1 X89.373 Y105.912 E5.10329
G1 X90.193 Y105.832 E5.14439
G1 X90.909 Y105.963 E5.18071
G1 X91.447 Y106.19 E5.20984
G1 X91.834 Y106.493 E5.23436
G1 X92.233 Y106.895 E5.26262
G1 X92.518 Y107.409 E5.29194
G1 X92.665 Y107.842 E5.31475
G1 X92.732 Y108.195 E5.33268
G1 X92.746 Y108.78 E5.36187
G1 X92.594 Y109.435 E5.39542
G1 X92.299 Y109.996 E5.42704
G1 X91.865 Y110.5 E5.46022
G1 X91.427 Y110.796 E5.4866
G1 X90.829 Y111.08 E5.51962
G1 X89.903 Y111.181 E5.5661
M204 S2000
G1 F2400 E4.7661
G0 F7500 X89.808 Y111.576
G0 X90.043 Y112.053
G0 X90.32 Y124.959
G0 X92.098 Y126.261
G0 X92.511 Y126.682
G0 X92.844 Y127.263
G0 X93.087 Y128.193
G0 X93.102 Y128.794
G0 X92.933 Y129.544
G0 X92.594 Y130.198
G0 X92.103 Y130.756
G0 X91.603 Y131.1
G0 X90.004 Y131.773
M204 S500
G1 F2400 E5.5661
G1 F1500 X89.752 Y131.753 E5.57871
G1 X89.193 Y131.624 E5.60733
G1 X88.531 Y131.378 E5.64256
G1 X88.246 Y131.18 E5.65988
G1 X87.786 Y130.796 E5.68977
G1 X87.49 Y130.461 E5.71207
G1 X87.289 Y130.154 E5.73038
G1 X87.136 Y129.845 E5.74758
G1 X86.951 Y129.328 E5.77498
G1 X86.862 Y128.843 E5.79958
G1 X86.84 Y128.584 E5.81255
G1 X86.88 Y128.014 E5.84106
G1 X86.993 Y127.516 E5.86653
G1 X87.158 Y127.094 E5.88914
G1 X87.374 Y126.722 E5.9106
G1 X87.544 Y126.486 E5.92511
G1 X87.799 Y126.195 E5.94441
G1 X88.08 Y125.946 E5.96314
G1 X88.47 Y125.679 E5.98672
G1 X88.971 Y125.439 E6.01444
G1 X89.303 Y125.316 E6.0321
G1 X90.006 Y125.247 E6.06734
G1 X90.285 Y125.239 E6.08127
G1 X91.082 Y125.385 E6.12169
G1 X91.69 Y125.641 E6.15461
G1 X91.919 Y125.795 E6.16837
G1 X92.262 Y126.07 E6.19031
G1 X92.717 Y126.532 E6.22266
G1 X93.066 Y127.164 E6.25868
G1 X93.232 Y127.641 E6.28387
G1 X93.337 Y128.169 E6.31073
G1 X93.352 Y128.812 E6.34282
G1 X93.17 Y129.622 E6.38424
G1 X92.802 Y130.338 E6.4244
G1 X92.29 Y130.924 E6.46322
G1 X91.735 Y131.317 E6.49715
G1 X91.215 Y131.562 E6.52583
G1 X90.836 Y131.682 E6.54566
G1 X90.004 Y131.773 E6.58742
M204 S2000
G0 F7500 X89.897 Y131.173
M204 S500
G1 F1500 X89.412 Y131.058 E6.61229
G1 X88.754 Y130.822 E6.64716
G1 X88.171 Y130.335 E6.68506
G1 X87.993 Y130.135 E6.69842
G1 X87.737 Y129.741 E6.72186
G1 X87.531 Y129.169 E6.75219
G1 X87.436 Y128.644 E6.77881
G1 X87.476 Y128.099 E6.80607
G1 X87.578 Y127.648 E6.82914
G1 X87.677 Y127.395 E6.8427
G1 X87.937 Y126.948 E6.8685
G1 X88.325 Y126.505 E6.89788
G1 X88.769 Y126.201 E6.92472
G1 X89.372 Y125.912 E6.95808
G1 X90.192 Y125.832 E6.99919
G1 X90.907 Y125.961 E7.03543
G1 X91.445 Y126.188 E7.06457
G1 X91.86 Y126.516 E7.09096
G1 X92.234 Y126.896 E7.11756
G1 X92.518 Y127.409 E7.14681
G1 X92.665 Y127.842 E7.16962
G1 X92.732 Y128.195 E7.18755
G1 X92.746 Y128.78 E7.21674
G1 X92.592 Y129.442 E7.25065
G1 X92.302 Y129.999 E7.28198
G1 X91.881 Y130.481 E7.31391
G1 X91.43 Y130.798 E7.34141
G1 X90.816 Y131.086 E7.37525
G1 X89.897 Y131.173 E7.4213
M204 S2000
G1 F2400 E6.6213
G0 F7500 X89.8 Y131.574
G0 X90.812 Y131.441
G0 X93.038 Y130.491
G0 X107 Y130.226
G0 X108.282 Y130.96
G0 X110.011 Y131.772
M204 S500
G1 F2400 E7.4213
G1 F1500 X110 Y131.771 E7.42185
G1 X109.717 Y131.752 E7.436
G1 X109.183 Y131.62 E7.46345
G1 X108.579 Y131.396 E7.49559
G1 X108.325 Y131.247 E7.51028
G1 X107.618 Y130.648 E7.55651
G1 X107.192 Y129.994 E7.59545
G1 X106.947 Y129.297 E7.63231
G1 X106.834 Y128.646 E7.66527
G1 X106.88 Y128.044 E7.69539
G1 X107.006 Y127.462 E7.7251
G1 X107.105 Y127.184 E7.73982
G1 X107.454 Y126.589 E7.77424
G1 X107.925 Y126.055 E7.80976
G1 X108.465 Y125.687 E7.84236
G1 X109.103 Y125.375 E7.8778
G1 X109.396 Y125.308 E7.89279
G1 X110.237 Y125.231 E7.93492
G1 X111.082 Y125.384 E7.97777
G1 X111.69 Y125.641 E8.0107
G1 X111.919 Y125.795 E8.02447
G1 X112.262 Y126.07 E8.0464
G1 X112.717 Y126.532 E8.07875
G1 X113.066 Y127.164 E8.11477
G1 X113.232 Y127.641 E8.13997
G1 X113.337 Y128.169 E8.16683
G1 X113.352 Y128.812 E8.19891
G1 X113.166 Y129.64 E8.24125
G1 X112.849 Y130.247 E8.27542
G1 X112.68 Y130.481 E8.28982
G1 X112.268 Y130.943 E8.3207
G1 X111.723 Y131.318 E8.3537
G1 X111.116 Y131.609 E8.38729
G1 X110.848 Y131.684 E8.40117
G1 X110.011 Y131.772 E8.44316
M204 S2000
G0 F7500 X110 Y131.171
M204 S500
G1 F1500 X109.929 Y131.179 E8.44673
G1 X109.412 Y131.058 E8.47322
G1 X108.752 Y130.813 E8.50834
G1 X108.069 Y130.247 E8.55259
G1 X107.736 Y129.733 E8.58315
G1 X107.542 Y129.198 E8.61154
G1 X107.433 Y128.607 E8.64152
G1 X107.481 Y128.079 E8.66797
G1 X107.614 Y127.515 E8.69688
G1 X107.939 Y126.946 E8.72957
G1 X108.33 Y126.502 E8.75909
G1 X108.767 Y126.206 E8.78542
G1 X109.373 Y125.912 E8.81903
G1 X110.207 Y125.834 E8.86082
G1 X110.907 Y125.961 E8.89631
G1 X111.445 Y126.188 E8.92544
G1 X111.86 Y126.516 E8.95183
G1 X112.234 Y126.896 E8.97843
G1 X112.518 Y127.409 E9.00769
G1 X112.665 Y127.842 E9.0305
G1 X112.732 Y128.195 E9.04843
G1 X112.746 Y128.78 E9.07762
G1 X112.594 Y129.434 E9.11112
G1 X112.296 Y130.01 E9.14347
G1 X111.867 Y130.494 E9.17574
G1 X111.424 Y130.801 E9.20263
G1 X110.81 Y131.082 E9.23632
G1 X110 Y131.171 E9.27697
M204 S2000
G1 F2400 E8.47697
G0 F7500 X110.04 Y131.577
G0 X110.022 Y132.054
G0 X110.022 Y142.548
G0 X110 Y142.848
M204 S500
G1 F2400 E9.27697
G1 F1500 X130.897 Y142.848 E10.31953
G1 X133.021 Y140.298 E10.4851
G1 X133.403 Y140.019 E10.5087
G1 X133.686 Y139.905 E10.52392
G1 X134.1 Y139.848 E10.54477
G1 X135.1 Y139.848 E10.59466
G1 X135.103 Y90.807 E13.04133
G1 X135.142 Y90.552 E13.0542
G1 X135.235 Y90.284 E13.06835
G1 X135.432 Y89.931 E13.08852
G1 X135.57 Y89.529 E13.10972
G1 X135.608 Y89.13 E13.12972
G1 X135.484 Y88.655 E13.15421
G1 X135.235 Y88.216 E13.17939
G1 X135.142 Y87.948 E13.19354
G1 X135.1 Y87.646 E13.20875
G1 X135.1 Y77.148 E13.7325
G1 X85.1 Y77.148 E16.22701
G1 X85.095 Y88.749 E16.80579
G1 X85.025 Y89.092 E16.82325
G1 X84.903 Y89.365 E16.83817
G1 X84.586 Y89.809 E16.86539
G1 X84.439 Y90.161 E16.88442
G1 X84.4 Y90.583 E16.90556
G1 X84.448 Y90.92 E16.92255
G1 X84.588 Y91.292 E16.94238
G1 X84.903 Y91.731 E16.96933
G1 X85.025 Y92.004 E16.98425
G1 X85.098 Y92.398 E17.00424
G1 X85.1 Y139.848 E19.37153
G1 X96.265 Y139.849 E19.92856
G1 X96.738 Y139.929 E19.95249
G1 X97.103 Y140.149 E19.97375
G1 X97.34 Y140.372 E19.98999
G1 X99.322 Y142.848 E20.14822
G1 X110 Y142.848 E20.68094
M204 S2000
G0 F7500 X110 Y143.448
M204 S500
G1 F1500 X131.178 Y143.448 E21.73752
G1 X133.478 Y140.696 E21.91645
G1 X133.759 Y140.495 E21.93369
G1 X134.1 Y140.448 E21.95086
G1 X135.7 Y140.448 E22.03069
G1 X135.702 Y90.751 E24.51008
G1 X135.822 Y90.453 E24.52611
G1 X135.971 Y90.198 E24.54084
G1 X136.095 Y89.899 E24.55699
G1 X136.16 Y89.647 E24.56998
G1 X136.198 Y89.25 E24.58987
G1 X136.168 Y88.856 E24.60959
G1 X136.031 Y88.398 E24.63344
G1 X135.774 Y87.967 E24.65847
G1 X135.701 Y87.65 E24.6747
G1 X135.7 Y76.548 E25.22858
G1 X84.5 Y76.548 E27.78296
G1 X84.497 Y88.698 E28.38913
G1 X84.382 Y89.067 E28.40841
G1 X84.163 Y89.37 E28.42706
G1 X84.024 Y89.599 E28.44043
G1 X83.911 Y89.867 E28.45494
G1 X83.819 Y90.223 E28.47328
G1 X83.799 Y90.596 E28.49192
G1 X83.824 Y90.857 E28.505
G1 X83.883 Y91.157 E28.52025
G1 X84.03 Y91.51 E28.53933
G1 X84.159 Y91.725 E28.55184
G1 X84.382 Y92.029 E28.57065
G1 X84.496 Y92.382 E28.58915
G1 X84.5 Y140.448 E30.98718
G1 X96.294 Y140.452 E31.57558
G1 X96.581 Y140.532 E31.59045
G1 X96.884 Y140.762 E31.60943
G1 X99.033 Y143.448 E31.78104
G1 X110 Y143.448 E32.32819
M204 S2000
G1 F2400 E31.52819
G0 F7500 X110 Y143.04
G0 X130.086 Y142.548
G0 X130.11 Y132.044
G0 X130.086 Y131.764
M204 S500
G1 F2400 E32.32819
G1 F1500 X129.725 Y131.749 E32.34621
G1 X129.19 Y131.623 E32.37363
G1 X128.578 Y131.395 E32.40622
G1 X128.329 Y131.249 E32.42062
G1 X127.707 Y130.73 E32.46103
G1 X127.535 Y130.534 E32.47404
G1 X127.192 Y129.993 E32.506
G1 X126.955 Y129.344 E32.54047
G1 X126.834 Y128.646 E32.57581
G1 X126.88 Y128.044 E32.60594
G1 X127.006 Y127.462 E32.63564
G1 X127.105 Y127.184 E32.65037
G1 X127.454 Y126.589 E32.68478
G1 X127.925 Y126.055 E32.72031
G1 X128.465 Y125.687 E32.75291
G1 X128.999 Y125.426 E32.78256
G1 X129.372 Y125.308 E32.80208
G1 X130.14 Y125.234 E32.84057
G1 X130.415 Y125.262 E32.85436
G1 X130.91 Y125.351 E32.87945
G1 X131.234 Y125.446 E32.8963
G1 X131.574 Y125.59 E32.91472
G1 X131.919 Y125.795 E32.93474
G1 X132.264 Y126.068 E32.95669
G1 X132.578 Y126.387 E32.97902
G1 X132.818 Y126.707 E32.99898
G1 X133.005 Y127.043 E33.01816
G1 X133.119 Y127.301 E33.03224
G1 X133.248 Y127.685 E33.05245
G1 X133.338 Y128.171 E33.0771
G1 X133.348 Y128.668 E33.1019
G1 X133.327 Y128.927 E33.11487
G1 X133.212 Y129.442 E33.14119
G1 X133.082 Y129.8 E33.1602
G1 X132.885 Y130.18 E33.18155
G1 X132.681 Y130.481 E33.19969
G1 X132.397 Y130.805 E33.22119
G1 X132.116 Y131.054 E33.23992
G1 X131.726 Y131.321 E33.2635
