;FLAVOR:Marlin
;TIME:6255
;Filament used: 7.47819m
;Layer height: 0.2
;MINX:79.8
;MINY:97.8
;MINZ:0.2
;MAXX:140.2
;MAXY:122.2
;MAXZ:32.8
;TARGET_MACHINE.NAME:Creality Ender-3 S1
;Generated with Cura_SteamEngine 5.9.0
M82 ;absolute extrusion mode
; Ender 3 S1 Start G-code
; M413 S0 ; Disable power loss recovery
M201 X500.00 Y500.00 Z100.00 E5000.00 ;Setup machine max acceleration
M203 X500.00 Y500.00 Z20.00 E50.00 ;Setup machine max feedrate
M204 P500.00 R1000.00 T500.00 ;Setup Print/Retract/Travel acceleration
M205 X8.00 Y8.00 Z0.40 E5.00 ;Setup Jerk
M220 S100 ;Reset Feedrate
M221 S100 ;Reset Flowrate
G92 E0 ; Reset Extruder

; Prep surfaces before auto home for better accuracy
M140 S60
M104 S200
G92 E0 ; Reset Extruder
G28 ; Home all axes
M420 S1 Z10; Use Level Mesh up to 2mm;
G1 Z10.0 F3000 ; Move Z Axis up little to prevent scratching of Heat Bed
G1 X0 Y0

M190 S60
M109 S200

G1 X0.1 Y20 Z0.3 F5000.0 ; Move to start position
G1 X0.1 Y200.0 Z0.3 F1500.0 E15 ; Draw the first line
G1 X0.4 Y200.0 Z0.3 F5000.0 ; Move to side a little
G1 X0.4 Y20 Z0.3 F1500.0 E30 ; Draw the second line
G92 E0 ; Reset Extruder
G1 Z2.0 F3000 ; Move Z Axis up little to prevent scratching of Heat Bed
G1 X5 Y20 Z0.3 F5000.0 ; Move over to prevent blob squish
G92 E0
G92 E0
G1 F2400 E-0.8
;LAYER_COUNT:164
;LAYER:0
M107
M204 S2000
;MESH:lipo_battery_holder.stl
G0 F7500 X90.196 Y113.388 Z0.2
M204 S500
;TYPE:WALL-INNER
G1 F2400 E0
G1 F1500 X89.8 Y113.388 E0.01976
G1 X89.487 Y113.356 E0.03545
G1 X88.847 Y113.22 E0.0681
G1 X88.565 Y113.086 E0.08367
G1 X87.971 Y112.742 E0.11792
G1 X87.765 Y112.586 E0.13081
G1 X87.341 Y112.112 E0.16254
G1 X87.162 Y111.865 E0.17776
G1 X86.835 Y111.3 E0.21033
G1 X86.745 Y110.997 E0.2261
G1 X86.63 Y110.456 E0.25369
G1 X86.608 Y110.196 E0.26671
G1 X86.608 Y109.7 E0.29145
G1 X86.658 Y109.313 E0.31092
G1 X86.786 Y108.833 E0.3357
G1 X86.893 Y108.534 E0.35155
G1 X87.254 Y107.977 E0.38466
G1 X87.414 Y107.765 E0.39791
G1 X87.98 Y107.254 E0.43596
G1 X88.694 Y106.836 E0.47723
G1 X88.999 Y106.744 E0.49313
G1 X89.54 Y106.63 E0.52071
G1 X89.8 Y106.608 E0.53373
G1 X90.196 Y106.608 E0.55349
G1 X90.507 Y106.64 E0.56908
G1 X91.157 Y106.777 E0.60222
G1 X91.447 Y106.917 E0.61829
G1 X91.959 Y107.217 E0.6479
G1 X92.213 Y107.395 E0.66337
G1 X92.758 Y107.996 E0.70385
G1 X93.199 Y108.774 E0.74846
G1 X93.39 Y109.637 E0.79256
G1 X93.38 Y110.512 E0.83622
G1 X93.139 Y111.411 E0.88265
G1 X92.677 Y112.126 E0.92512
G1 X92.488 Y112.319 E0.9386
G1 X91.995 Y112.75 E0.97127
G1 X91.306 Y113.159 E1.01124
G1 X90.997 Y113.252 E1.02734
G1 X90.455 Y113.366 E1.05497
G1 X90.196 Y113.388 E1.06794
M204 S2000
G0 F7500 X90.291 Y112.788
M204 S500
G1 F1500 X89.701 Y112.788 E1.09738
G1 X88.987 Y112.636 E1.1338
G1 X88.217 Y112.191 E1.17817
G1 X87.728 Y111.645 E1.21474
G1 X87.36 Y111.01 E1.25135
G1 X87.208 Y110.291 E1.28801
G1 X87.208 Y109.58 E1.32349
G1 X87.404 Y108.848 E1.36129
G1 X87.803 Y108.233 E1.39787
G1 X88.338 Y107.738 E1.43423
G1 X88.984 Y107.361 E1.47155
G1 X89.705 Y107.208 E1.50832
G1 X90.293 Y107.208 E1.53765
G1 X91.015 Y107.361 E1.57447
G1 X91.778 Y107.806 E1.61854
G1 X92.265 Y108.355 E1.65515
G1 X92.639 Y108.998 E1.69227
G1 X92.783 Y109.699 E1.72797
G1 X92.786 Y110.416 E1.76374
G1 X92.594 Y111.137 E1.80097
G1 X92.181 Y111.79 E1.83951
G1 X91.642 Y112.264 E1.87532
G1 X91.014 Y112.635 E1.91171
G1 X90.291 Y112.788 E1.94858
M204 S2000
G1 F2400 E1.14858
G0 F7500 X90.291 Y113.2
G0 X92.675 Y112.529
G0 X107.467 Y112.675
G0 X110 Y113.388
M204 S500
G1 F2400 E1.94858
G1 F1500 X109.8 Y113.388 E1.95856
G1 X109.487 Y113.356 E1.97426
G1 X108.847 Y113.22 E2.0069
G1 X108.565 Y113.086 E2.02248
G1 X108.049 Y112.79 E2.05215
G1 X107.783 Y112.606 E2.06829
G1 X107.236 Y111.994 E2.10924
G1 X106.853 Y111.322 E2.14783
G1 X106.766 Y111.085 E2.16043
G1 X106.615 Y110.393 E2.19576
G1 X106.606 Y109.519 E2.23937
G1 X106.859 Y108.583 E2.28774
G1 X107.322 Y107.872 E2.33007
G1 X107.506 Y107.682 E2.34327
G1 X107.994 Y107.241 E2.37608
G1 X108.698 Y106.834 E2.41665
G1 X108.999 Y106.744 E2.43233
G1 X109.54 Y106.63 E2.45991
G1 X109.8 Y106.608 E2.47293
G1 X110.196 Y106.608 E2.49268
G1 X110.507 Y106.64 E2.50828
G1 X111.157 Y106.777 E2.54142
G1 X111.447 Y106.917 E2.55749
G1 X111.959 Y107.217 E2.58709
G1 X112.213 Y107.395 E2.60257
G1 X112.758 Y107.996 E2.64304
G1 X113.199 Y108.774 E2.68766
G1 X113.39 Y109.637 E2.73176
G1 X113.38 Y110.512 E2.77542
G1 X113.139 Y111.411 E2.82185
G1 X112.677 Y112.126 E2.86432
G1 X112.488 Y112.319 E2.8778
G1 X111.995 Y112.75 E2.91047
G1 X111.306 Y113.159 E2.95044
G1 X110.997 Y113.252 E2.96654
G1 X110.455 Y113.366 E2.99417
G1 X110.196 Y113.388 E3.00714
G1 X110 Y113.388 E3.01692
M204 S2000
G0 F7500 X110 Y112.788
M204 S500
G1 F1500 X109.701 Y112.788 E3.03184
G1 X108.986 Y112.636 E3.06831
G1 X108.217 Y112.193 E3.11258
G1 X107.729 Y111.639 E3.14941
G1 X107.36 Y111.004 E3.18606
G1 X107.211 Y110.28 E3.22293
G1 X107.212 Y109.571 E3.25831
G1 X107.404 Y108.86 E3.29505
G1 X107.818 Y108.208 E3.33358
G1 X108.352 Y107.733 E3.36924
G1 X108.982 Y107.361 E3.40574
G1 X109.705 Y107.208 E3.44261
G1 X110.293 Y107.208 E3.47194
G1 X111.015 Y107.361 E3.50876
G1 X111.778 Y107.806 E3.55283
G1 X112.265 Y108.355 E3.58944
G1 X112.639 Y108.998 E3.62655
G1 X112.783 Y109.699 E3.66226
G1 X112.786 Y110.416 E3.69803
G1 X112.594 Y111.137 E3.73525
G1 X112.181 Y111.79 E3.7738
G1 X111.642 Y112.264 E3.80961
G1 X111.014 Y112.635 E3.846
G1 X110.291 Y112.788 E3.88287
G1 X110 Y112.788 E3.89739
M204 S2000
G1 F2400 E3.09739
G0 F7500 X110 Y113.2
G0 X110 Y113.668
G0 X110 Y120.7
G0 X110 Y121
M204 S500
G1 F2400 E3.89739
G1 F1500 X139 Y121 E5.3442
G1 X139 Y99 E6.44179
G1 X81 Y99 E9.33542
G1 X81 Y121 E10.433
G1 X110 Y121 E11.87982
M204 S2000
G0 F7500 X110 Y121.6
M204 S500
G1 F1500 X139.6 Y121.6 E13.35657
G1 X139.6 Y98.4 E14.51402
G1 X80.4 Y98.4 E17.46752
G1 X80.4 Y121.6 E18.62498
G1 X110 Y121.6 E20.10173
M204 S2000
G1 F2400 E19.30173
G0 F7500 X110 Y121.19
G0 X129.8 Y120.7
G0 X129.801 Y113.669
G0 X129.8 Y113.388
M204 S500
G1 F2400 E20.10173
G1 F1500 X129.487 Y113.356 E20.11742
G1 X128.847 Y113.22 E20.15007
G1 X128.565 Y113.086 E20.16564
G1 X128.049 Y112.79 E20.19532
G1 X127.783 Y112.606 E20.21146
G1 X127.236 Y111.994 E20.25241
G1 X126.853 Y111.322 E20.291
G1 X126.766 Y111.085 E20.30359
G1 X126.615 Y110.393 E20.33893
G1 X126.606 Y109.519 E20.38254
G1 X126.859 Y108.583 E20.43091
G1 X127.322 Y107.872 E20.47324
G1 X127.506 Y107.682 E20.48643
G1 X127.994 Y107.241 E20.51925
G1 X128.698 Y106.834 E20.55982
G1 X128.999 Y106.744 E20.57549
G1 X129.54 Y106.63 E20.60308
G1 X129.8 Y106.608 E20.61609
G1 X130.196 Y106.608 E20.63585
G1 X130.507 Y106.64 E20.65145
G1 X131.157 Y106.777 E20.68459
G1 X131.447 Y106.917 E20.70065
G1 X132.025 Y107.259 E20.73416
G1 X132.226 Y107.409 E20.74667
G1 X132.649 Y107.878 E20.77818
G1 X132.834 Y108.132 E20.79386
G1 X133.161 Y108.694 E20.8263
G1 X133.252 Y108.999 E20.84218
G1 X133.355 Y109.487 E20.86706
G1 X133.388 Y109.8 E20.88276
G1 X133.388 Y110.196 E20.90252
G1 X133.366 Y110.455 E20.91549
G1 X133.252 Y110.999 E20.94322
G1 X133.171 Y111.279 E20.95776
G1 X132.92 Y111.738 E20.98386
G1 X132.687 Y112.115 E21.00597
G1 X132.488 Y112.319 E21.02019
G1 X132.012 Y112.744 E21.05202
G1 X131.302 Y113.16 E21.09308
G1 X130.997 Y113.252 E21.10897
G1 X130.455 Y113.366 E21.13661
G1 X130.196 Y113.388 E21.14957
G1 X129.8 Y113.388 E21.16933
M204 S2000
G0 F7500 X129.701 Y112.788
M204 S500
G1 F1500 X128.986 Y112.636 E21.2058
G1 X128.217 Y112.193 E21.25007
G1 X127.729 Y111.639 E21.28691
G1 X127.36 Y111.004 E21.32355
G1 X127.211 Y110.28 E21.36043
G1 X127.212 Y109.571 E21.3958
G1 X127.404 Y108.86 E21.43254
G1 X127.818 Y108.208 E21.47107
G1 X128.352 Y107.733 E21.50673
G1 X128.982 Y107.361 E21.54323
G1 X129.705 Y107.208 E21.5801
G1 X130.293 Y107.208 E21.60943
G1 X131.017 Y107.361 E21.64635
G1 X131.782 Y107.811 E21.69063
G1 X132.269 Y108.352 E21.72695
G1 X132.635 Y108.985 E21.76343
G1 X132.788 Y109.701 E21.79996
G1 X132.788 Y110.29 E21.82934
G1 X132.638 Y111.002 E21.86564
G1 X132.41 Y111.422 E21.88948
G1 X132.186 Y111.785 E21.91077
G1 X131.653 Y112.261 E21.94642
G1 X131.012 Y112.635 E21.98344
G1 X130.291 Y112.788 E22.02021
G1 X129.701 Y112.788 E22.04965
M204 S2000
G0 F7500 X129.737 Y112.182
M204 S500
;TYPE:WALL-OUTER
G1 F1500 X129.202 Y112.068 E22.07694
G1 X128.606 Y111.726 E22.11122
G1 X128.216 Y111.288 E22.14048
G1 X127.928 Y110.794 E22.16901
G1 X127.809 Y110.224 E22.19806
G1 X127.809 Y109.67 E22.2257
G1 X127.966 Y109.087 E22.25582
G1 X128.282 Y108.598 E22.28487
G1 X128.706 Y108.217 E22.31331
G1 X129.203 Y107.932 E22.34189
G1 X129.748 Y107.812 E22.36973
G1 X130.259 Y107.814 E22.39523
G1 X130.797 Y107.932 E22.4227
G1 X131.395 Y108.279 E22.4572
G1 X131.796 Y108.733 E22.48742
G1 X132.064 Y109.203 E22.51441
G1 X132.182 Y109.737 E22.54169
G1 X132.184 Y110.248 E22.56719
G1 X132.069 Y110.794 E22.59503
G1 X131.9 Y111.106 E22.61273
G1 X131.718 Y111.394 E22.62973
G1 X131.282 Y111.784 E22.65891
G1 X130.793 Y112.064 E22.68702
G1 X130.248 Y112.184 E22.71486
G1 X129.737 Y112.182 E22.74036
M204 S2000
G1 F2400 E21.94036
G0 F7500 X129.525 Y113.169
G0 X127.467 Y112.675
G0 X112.675 Y112.529
G0 X111.805 Y112.777
G0 X110 Y113.2
G0 X110 Y112.183
M204 S500
G1 F2400 E22.74036
G1 F1500 X109.737 Y112.182 E22.75348
G1 X109.202 Y112.068 E22.78077
G1 X108.606 Y111.726 E22.81505
G1 X108.216 Y111.288 E22.84431
G1 X107.93 Y110.789 E22.87301
G1 X107.809 Y110.224 E22.90183
G1 X107.809 Y109.67 E22.92947
G1 X107.966 Y109.087 E22.95959
G1 X108.282 Y108.598 E22.98864
G1 X108.706 Y108.217 E23.01708
G1 X109.203 Y107.932 E23.04566
G1 X109.748 Y107.812 E23.0735
G1 X110.259 Y107.814 E23.099
G1 X110.797 Y107.932 E23.12648
G1 X111.391 Y108.28 E23.16082
G1 X111.779 Y108.707 E23.18961
G1 X112.066 Y109.207 E23.21837
G1 X112.187 Y109.766 E23.24691
G1 X112.188 Y110.321 E23.27459
G1 X112.03 Y110.913 E23.30516
G1 X111.717 Y111.395 E23.33384
G1 X111.289 Y111.779 E23.36252
G1 X110.793 Y112.064 E23.39106
G1 X110.248 Y112.184 E23.4189
G1 X110 Y112.183 E23.43128
M204 S2000
G1 F2400 E22.63128
G0 F7500 X110 Y113.2
G0 X110 Y113.668
G0 X110 Y120.7
G0 X110 Y121.19
G0 X110 Y122.2
M204 S500
G1 F2400 E23.43128
G1 F1500 X140.2 Y122.2 E24.93796
G1 X140.2 Y97.8 E26.15528
G1 X79.8 Y97.8 E29.16865
G1 X79.8 Y122.2 E30.38597
G1 X110 Y122.2 E31.89266
M204 S2000
G1 F2400 E31.09266
G0 F7500 X110 Y121.19
G0 X90.458 Y120.7
G0 X90.196 Y113.669
G0 X90.458 Y113.174
G0 X90.248 Y112.184
M204 S500
G1 F2400 E31.89266
G1 F1500 X89.737 Y112.182 E31.91815
G1 X89.201 Y112.068 E31.94549
G1 X88.6 Y111.716 E31.98024
G1 X88.2 Y111.263 E32.01039
G1 X87.932 Y110.793 E32.03738
G1 X87.812 Y110.248 E32.06522
G1 X87.808 Y109.66 E32.09456
G1 X87.962 Y109.097 E32.12368
G1 X88.284 Y108.6 E32.15322
G1 X88.714 Y108.212 E32.18212
G1 X89.203 Y107.932 E32.21023
G1 X89.748 Y107.812 E32.23807
G1 X90.259 Y107.814 E32.26357
G1 X90.797 Y107.932 E32.29104
G1 X91.391 Y108.28 E32.32539
G1 X91.779 Y108.707 E32.35417
G1 X92.066 Y109.207 E32.38294
G1 X92.187 Y109.766 E32.41147
G1 X92.188 Y110.321 E32.43916
G1 X92.03 Y110.913 E32.46973
G1 X91.717 Y111.395 E32.4984
G1 X91.289 Y111.779 E32.52709
G1 X90.793 Y112.064 E32.55563
G1 X90.248 Y112.184 E32.58347
M204 S2000
G1 F2400 E31.78347
G0 F7500 X90.458 Y113.174
G0 X92.675 Y112.529
G0 X127.467 Y112.675
G0 X129.806 Y113.588
G0 X129.771 Y113.927
M204 S500
;TYPE:SKIN
G1 F2400 E32.58347
G1 F1500 X130.225 Y113.927 E32.60612
G1 X130.544 Y113.896 E32.62211
G1 X131.11 Y113.778 E32.65096
G1 X131.395 Y113.697 E32.66574
G1 X131.683 Y113.563 E32.68158
G1 X132.313 Y113.191 E32.71809
G1 X132.969 Y112.612 E32.76174
G1 X133.232 Y112.26 E32.78366
G1 X133.556 Y111.704 E32.81577
G1 X133.69 Y111.413 E32.83175
G1 X133.777 Y111.124 E32.84681
G1 X133.896 Y110.548 E32.87615
G1 X133.928 Y110.184 E32.89438
G1 X133.927 Y109.767 E32.91518
G1 X133.887 Y109.399 E32.93365
G1 X133.772 Y108.853 E32.96149
G1 X133.696 Y108.601 E32.97462
G1 X133.544 Y108.276 E32.99252
G1 X133.304 Y107.865 E33.01627
G1 X133.066 Y107.538 E33.03644
G1 X132.568 Y106.991 E33.07335
G1 X132.318 Y106.805 E33.0889
G1 X131.717 Y106.449 E33.12374
G1 X131.408 Y106.305 E33.14075
G1 X131.107 Y106.214 E33.15644
G1 X130.619 Y106.11 E33.18133
G1 X130.222 Y106.069 E33.20125
G1 X129.771 Y106.069 E33.22375
G1 X129.448 Y106.096 E33.23992
G1 X128.882 Y106.214 E33.26876
G1 X128.551 Y106.314 E33.28601
G1 X128.299 Y106.438 E33.30002
G1 X127.654 Y106.817 E33.33735
G1 X127.138 Y107.285 E33.3721
G1 X126.913 Y107.513 E33.38808
G1 X126.429 Y108.25 E33.43207
G1 X126.285 Y108.611 E33.45146
G1 X126.065 Y109.456 E33.49503
G1 X126.077 Y110.445 E33.54437
G1 X126.248 Y111.255 E33.58567
G1 X126.357 Y111.531 E33.60048
G1 X126.791 Y112.307 E33.64484
G1 X127.276 Y112.849 E33.68112
G1 X127.488 Y113.053 E33.6958
G1 X127.774 Y113.253 E33.71321
G1 X128.298 Y113.553 E33.74333
G1 X128.557 Y113.679 E33.7577
G1 X128.841 Y113.768 E33.77255
G1 X129.373 Y113.882 E33.7997
G1 X129.771 Y113.927 E33.81968
M204 S2000
G1 F2400 E33.01968
G0 F7500 X129.806 Y113.588
G0 X127.91 Y113.034
G0 X127.91 Y120.7
G0 X110 Y120.8
G0 X110 Y120.46
M204 S500
G1 F2400 E33.81968
G1 F1500 X81.54 Y120.46 E35.23955
G1 X81.54 Y99.54 E36.28326
G1 X138.46 Y99.54 E39.12301
G1 X138.46 Y120.46 E40.16671
G1 X110 Y120.46 E41.58659
M204 S2000
G1 F2400 E40.78659
G0 F7500 X110 Y120.8
G0 X110 Y113.668
G0 X110 Y113.927
M204 S500
G1 F2400 E41.58659
G1 F1500 X110.225 Y113.927 E41.59781
G1 X110.544 Y113.896 E41.6138
G1 X111.11 Y113.778 E41.64265
G1 X111.395 Y113.697 E41.65743
G1 X111.708 Y113.551 E41.67466
G1 X112.345 Y113.172 E41.71164
G1 X112.845 Y112.724 E41.74513
G1 X113.079 Y112.487 E41.76175
G1 X113.549 Y111.767 E41.80465
G1 X113.679 Y111.474 E41.82064
G1 X113.915 Y110.59 E41.86629
G1 X113.927 Y109.582 E41.91658
G1 X113.745 Y108.749 E41.95912
G1 X113.622 Y108.428 E41.97627
G1 X113.202 Y107.683 E42.01894
G1 X112.707 Y107.138 E42.05567
G1 X112.514 Y106.949 E42.06914
G1 X112.237 Y106.753 E42.08607
G1 X111.712 Y106.445 E42.11644
G1 X111.447 Y106.32 E42.13106
G1 X111.107 Y106.214 E42.14883
G1 X110.619 Y106.11 E42.17372
G1 X110.222 Y106.069 E42.19363
G1 X109.771 Y106.069 E42.21613
G1 X109.448 Y106.096 E42.2323
G1 X108.882 Y106.214 E42.26115
G1 X108.551 Y106.314 E42.2784
G1 X108.299 Y106.438 E42.29241
G1 X107.654 Y106.817 E42.32973
G1 X107.138 Y107.285 E42.36449
G1 X106.913 Y107.513 E42.38047
G1 X106.429 Y108.25 E42.42446
G1 X106.285 Y108.611 E42.44385
G1 X106.065 Y109.456 E42.48741
G1 X106.077 Y110.445 E42.53676
G1 X106.248 Y111.255 E42.57806
G1 X106.357 Y111.531 E42.59286
G1 X106.791 Y112.307 E42.63722
G1 X107.276 Y112.849 E42.67351
G1 X107.488 Y113.053 E42.68818
G1 X107.774 Y113.253 E42.7056
G1 X108.298 Y113.553 E42.73572
G1 X108.557 Y113.679 E42.75009
G1 X108.841 Y113.768 E42.76494
G1 X109.373 Y113.882 E42.79208
G1 X109.771 Y113.927 E42.81206
G1 X110 Y113.927 E42.82349
M204 S2000
G1 F2400 E42.02349
G0 F7500 X110 Y113.588
G0 X107.467 Y112.675
G0 X92.675 Y112.529
G0 X90.193 Y113.588
G0 X90.225 Y113.927
M204 S500
G1 F2400 E42.82349
G1 F1500 X90.544 Y113.896 E42.83948
G1 X91.11 Y113.778 E42.86832
G1 X91.395 Y113.697 E42.88311
G1 X91.708 Y113.551 E42.90034
G1 X92.345 Y113.172 E42.93732
G1 X92.845 Y112.724 E42.97081
G1 X93.079 Y112.487 E42.98743
G1 X93.549 Y111.767 E43.03032
G1 X93.679 Y111.474 E43.04631
G1 X93.915 Y110.59 E43.09196
G1 X93.927 Y109.582 E43.14226
G1 X93.745 Y108.749 E43.18479
G1 X93.622 Y108.428 E43.20194
G1 X93.202 Y107.683 E43.24461
G1 X92.707 Y107.138 E43.28134
G1 X92.514 Y106.949 E43.29482
G1 X92.237 Y106.753 E43.31175
G1 X91.712 Y106.445 E43.34212
G1 X91.447 Y106.32 E43.35673
G1 X91.107 Y106.214 E43.3745
G1 X90.619 Y106.11 E43.3994
G1 X90.222 Y106.069 E43.41931
G1 X89.771 Y106.069 E43.44181
G1 X89.448 Y106.096 E43.45798
G1 X88.882 Y106.214 E43.48682
G1 X88.599 Y106.296 E43.50152
G1 X88.313 Y106.429 E43.51726
G1 X87.679 Y106.801 E43.55393
G1 X87.03 Y107.381 E43.59736
G1 X86.807 Y107.673 E43.61569
G1 X86.529 Y108.095 E43.6409
G1 X86.365 Y108.401 E43.65822
G1 X86.265 Y108.677 E43.67286
G1 X86.137 Y109.164 E43.69799
G1 X86.07 Y109.669 E43.7234
G1 X86.069 Y110.225 E43.75114
G1 X86.096 Y110.54 E43.76691
G1 X86.22 Y111.134 E43.79719
G1 X86.296 Y111.39 E43.81051
G1 X86.432 Y111.688 E43.82685
