;FLAVOR:Marlin
;TIME:1951
;Filament used: 1.57934m
;Layer height: 0.2
;MINX:92.3
;MINY:95.3
;MINZ:0.2
;MAXX:127.7
;MAXY:124.7
;MAXZ:4.8
;TARGET_MACHINE.NAME:Creality Ender-3 S1
;Generated with Cura_SteamEngine 5.9.0
M82 ;absolute extrusion mode
; Ender 3 S1 Start G-code
; M413 S0 ; Disable power loss recovery
M201 X500.00 Y500.00 Z100.00 E5000.00 ;Setup machine max acceleration
M203 X500.00 Y500.00 Z20.00 E50.00 ;Setup machine max feedrate
M204 P500.00 R1000.00 T500.00 ;Setup Print/Retract/Travel acceleration
M205 X8.00 Y8.00 Z0.40 E5.00 ;Setup Jerk
M220 S100 ;Reset Feedrate
M221 S100 ;Reset Flowrate
G92 E0 ; Reset Extruder

; Prep surfaces before auto home for better accuracy
M140 S60
M104 S200
G92 E0 ; Reset Extruder
G28 ; Home all axes
M420 S1 Z10; Use Level Mesh up to 2mm;
G1 Z10.0 F3000 ; Move Z Axis up little to prevent scratching of Heat Bed
G1 X0 Y0

M190 S60
M109 S200

G1 X0.1 Y20 Z0.3 F5000.0 ; Move to start position
G1 X0.1 Y200.0 Z0.3 F1500.0 E15 ; Draw the first line
G1 X0.4 Y200.0 Z0.3 F5000.0 ; Move to side a little
G1 X0.4 Y20 Z0.3 F1500.0 E30 ; Draw the second line
G92 E0 ; Reset Extruder
G1 Z2.0 F3000 ; Move Z Axis up little to prevent scratching of Heat Bed
G1 X5 Y20 Z0.3 F5000.0 ; Move over to prevent blob squish
G92 E0
G92 E0
G1 F2400 E-0.8
;LAYER_COUNT:24
;LAYER:0
M107
M204 S2000
;MESH:m-screw_tester.stl
G0 F7500 X98.243 Y103.481 Z0.2
M204 S500
;TYPE:WALL-INNER
G1 F2400 E0
G1 F1139.2 X97.951 Y103.481 E0.01918
G1 F1236.3 X97.574 Y103.382 E0.04278
G1 F1421.8 X97.15 Y103.251 E0.06613
G1 F1500 X96.681 Y103.009 E0.09246
G1 X96.374 Y102.752 E0.11244
G1 X96.105 Y102.452 E0.13254
G1 X95.793 Y101.913 E0.16361
G1 X95.632 Y101.418 E0.18958
G1 X95.6 Y101.042 E0.20841
G1 X95.652 Y100.561 E0.23254
G1 X95.802 Y100.053 E0.25897
G1 X95.93 Y99.796 E0.27329
G1 X96.211 Y99.407 E0.29724
G1 X96.407 Y99.211 E0.31106
G1 X96.777 Y98.922 E0.33449
G1 X97.249 Y98.724 E0.36002
G1 X97.645 Y98.626 E0.38038
G1 X97.952 Y98.6 E0.39575
G1 X98.437 Y98.652 E0.42008
G1 X98.939 Y98.798 E0.44617
G1 X99.191 Y98.921 E0.46016
G1 X99.643 Y99.264 E0.48846
G1 X100.004 Y99.668 E0.51549
G1 X100.173 Y99.976 E0.53302
G1 X100.323 Y100.454 E0.55802
G1 F1384.6 X100.408 Y100.587 E0.56655
G1 F1134.9 X100.535 Y100.87 E0.587
G1 F1014.7 X100.524 Y101.115 E0.60509
G1 F1102.9 X100.423 Y101.428 E0.6274
G1 F1337.3 X100.317 Y101.616 E0.63948
G1 F1500 X100.241 Y101.871 E0.65276
G1 X99.988 Y102.336 E0.67917
G1 X99.758 Y102.62 E0.6974
G1 X99.454 Y102.911 E0.71839
G1 X99.027 Y103.176 E0.74347
G1 X98.752 Y103.27 E0.75797
G1 F1296.8 X98.243 Y103.481 E0.78976
M204 S2000
G0 F7500 X98.176 Y102.803
M204 S500
G1 F1500 X97.452 Y102.735 E0.82604
G1 X96.898 Y102.437 E0.85743
G1 X96.551 Y102.05 E0.88336
G1 X96.364 Y101.727 E0.90198
G1 X96.193 Y101.203 E0.92948
G1 X96.249 Y100.626 E0.9584
G1 X96.338 Y100.321 E0.97425
G1 X96.467 Y100.065 E0.98855
G1 X96.635 Y99.831 E1.00292
G1 X96.831 Y99.635 E1.01675
G1 X97.164 Y99.404 E1.03697
G1 X97.4 Y99.305 E1.04974
G1 X97.828 Y99.197 E1.07176
G1 X98.373 Y99.249 E1.09908
G1 X98.674 Y99.336 E1.11471
G1 X98.926 Y99.46 E1.12872
G1 X99.197 Y99.665 E1.14567
G1 X99.517 Y100.022 E1.16959
G1 X99.602 Y100.18 E1.17854
G1 X99.799 Y100.801 E1.21104
G1 X99.746 Y101.444 E1.24323
G1 X99.654 Y101.694 E1.25652
G1 X99.457 Y102.062 E1.27735
G1 X99.071 Y102.452 E1.30472
G1 X98.69 Y102.666 E1.32653
G1 X98.176 Y102.803 E1.35306
M204 S2000
G0 F7500 X98.284 Y103.202
G0 X100.208 Y102.476
G0 X100.574 Y101.665
G0 X100.966 Y101.116
G0 X101.992 Y102.431
G0 X104.208 Y103.511
M204 S500
G1 F1274.8 X103.829 Y103.497 E1.37533
G1 F1267.6 X103.552 Y103.434 E1.3921
G1 F1410.7 X103.109 Y103.28 E1.41698
G1 F1500 X102.712 Y103.094 E1.43885
G1 X102.292 Y102.751 E1.46591
G1 X102.056 Y102.495 E1.48328
G1 X101.761 Y101.978 E1.51297
G1 X101.632 Y101.621 E1.53191
G1 F1337.3 X101.504 Y101.381 E1.54713
G1 F1102.9 X101.409 Y101.143 E1.56452
G1 F1014.7 X101.419 Y100.91 E1.58172
G1 F1134.9 X101.557 Y100.533 E1.60819
G1 F1384.6 X101.629 Y100.393 E1.6167
G1 F1500 X101.732 Y100.055 E1.63433
G1 X101.931 Y99.675 E1.65573
G1 X102.233 Y99.306 E1.67952
G1 X102.603 Y98.998 E1.70354
G1 X102.943 Y98.799 E1.72319
G1 X103.498 Y98.586 E1.75285
G1 X103.952 Y98.548 E1.77558
G1 X104.458 Y98.605 E1.80098
G1 X104.962 Y98.735 E1.82695
G1 X105.429 Y99.016 E1.85414
G1 X105.778 Y99.315 E1.87707
G1 X105.948 Y99.525 E1.89055
G1 X106.25 Y100.038 E1.92025
G1 F1246.5 X106.566 Y100.742 E1.96658
G1 F1066.4 X106.544 Y101.208 E1.99932
G1 F1133.5 X106.466 Y101.452 E2.01623
G1 F1341.3 X106.33 Y101.756 E2.03481
G1 F1500 X106.286 Y101.877 E2.04123
G1 X106.038 Y102.352 E2.06797
G1 X105.744 Y102.717 E2.09135
G1 X105.489 Y102.939 E2.10822
G1 F1461 X104.921 Y103.278 E2.1421
G1 F1384.6 X104.208 Y103.511 E2.18264
M204 S2000
G0 F7500 X104.152 Y102.855
M204 S500
G1 F1500 X103.47 Y102.785 E2.21684
G1 X103.034 Y102.586 E2.24075
G1 X102.582 Y102.205 E2.27025
G1 X102.261 Y101.645 E2.30245
G1 X102.138 Y101.148 E2.32799
G1 X102.225 Y100.448 E2.36318
G1 X102.412 Y100.048 E2.38521
G1 X102.685 Y99.7 E2.40728
G1 X102.907 Y99.516 E2.42167
G1 X103.247 Y99.316 E2.44135
G1 X103.524 Y99.21 E2.45614
G1 X103.9 Y99.152 E2.47512
G1 X104.39 Y99.201 E2.49969
G1 X104.733 Y99.29 E2.51737
G1 X105.046 Y99.478 E2.53559
G1 X105.41 Y99.787 E2.55941
G1 X105.757 Y100.397 E2.59442
G1 X105.853 Y100.871 E2.61855
G1 X105.792 Y101.444 E2.6473
G1 X105.733 Y101.643 E2.65765
G1 X105.529 Y102.035 E2.6797
G1 X105.226 Y102.404 E2.70352
G1 X104.628 Y102.748 E2.73794
G1 X104.152 Y102.855 E2.76228
M204 S2000
G0 F7500 X104.11 Y103.261
G0 X104.158 Y103.876
G0 X106.767 Y105.96
G0 X106.223 Y108.967
G0 X104.819 Y109.868
G0 X106.971 Y111.743
G0 X108.991 Y109.866
G0 X107.012 Y107.112
G0 X108.723 Y104.259
G0 X109.833 Y103.874
G0 X110 Y103.532
M204 S500
G1 F1401.9 X109.739 Y103.532 E2.77621
G1 F1449.3 X108.94 Y103.272 E2.8196
G1 F1500 X108.4 Y102.93 E2.85149
G1 X108.191 Y102.719 E2.8663
G1 X107.75 Y102.114 E2.90365
G1 X107.634 Y101.791 E2.92078
G1 F1401.9 X107.515 Y101.501 E2.93751
G1 F1178 X107.385 Y101.221 E2.95712
G1 F1066.4 X107.392 Y100.714 E2.99271
G1 F1246.5 X107.634 Y100.205 E3.02654
G1 F1500 X107.685 Y100.049 E3.03473
G1 X107.827 Y99.773 E3.05021
G1 X108.084 Y99.391 E3.07318
G1 X108.316 Y99.158 E3.08959
G1 X108.601 Y98.93 E3.1078
G1 X109.145 Y98.652 E3.13828
G1 X109.633 Y98.526 E3.16342
G1 X110.02 Y98.493 E3.1828
G1 X110.491 Y98.554 E3.20649
G1 X110.791 Y98.634 E3.22198
G1 X111.223 Y98.826 E3.24557
G1 X111.487 Y98.999 E3.26132
G1 X111.802 Y99.264 E3.28185
G1 X112.126 Y99.71 E3.30936
G1 X112.308 Y100.039 E3.32811
G1 X112.362 Y100.205 E3.33682
G1 F1289.4 X112.582 Y100.725 E3.36959
G1 F1187.3 X112.581 Y101.224 E3.40104
G1 F1310 X112.462 Y101.515 E3.419
G1 F1406.2 X112.279 Y102.043 E3.44874
G1 F1465.8 X111.999 Y102.487 E3.47554
G1 F1500 X111.779 Y102.761 E3.49307
G1 X111.204 Y103.182 E3.52863
G1 X110.96 Y103.305 E3.54226
G1 F1446.9 X110.276 Y103.532 E3.57953
G1 F1399.7 X110 Y103.532 E3.59429
M204 S2000
G0 F7500 X109.777 Y102.891
M204 S500
G1 F1500 X109.22 Y102.746 E3.623
G1 X108.704 Y102.408 E3.65378
G1 X108.261 Y101.8 E3.69131
G1 X108.106 Y101.225 E3.72102
G1 X108.109 Y100.755 E3.74447
G1 X108.256 Y100.224 E3.77196
G1 X108.574 Y99.721 E3.80165
G1 X108.976 Y99.398 E3.82737
G1 X109.303 Y99.231 E3.84569
G1 X109.736 Y99.117 E3.86803
G1 X110.21 Y99.1 E3.89169
G1 X110.636 Y99.214 E3.91369
G1 X110.896 Y99.329 E3.92788
G1 X111.284 Y99.583 E3.95101
G1 X111.727 Y100.179 E3.98806
G1 X111.888 Y100.753 E4.01781
G1 X111.887 Y101.247 E4.04245
G1 X111.739 Y101.78 E4.07005
G1 X111.409 Y102.296 E4.10061
G1 X110.809 Y102.728 E4.13749
G1 X110.229 Y102.89 E4.16754
G1 X109.777 Y102.891 E4.19009
M204 S2000
G0 F7500 X109.67 Y103.29
G0 X109.833 Y103.874
G0 X108.323 Y105.139
G0 X107.882 Y105.629
G0 X107.576 Y106.32
G0 X107.484 Y106.898
G0 X107.545 Y107.513
G0 X107.753 Y108.149
G0 X108.139 Y108.677
G0 X108.629 Y109.119
G0 X109.222 Y109.38
G0 X109.964 Y109.561
G0 X110.004 Y109.148
M204 S500
G1 F1500 X109.447 Y109.101 E4.21797
G1 X108.822 Y108.82 E4.25216
G1 X108.409 Y108.452 E4.27976
G1 X108.077 Y108.002 E4.30766
G1 X107.889 Y107.446 E4.33694
G1 X107.83 Y106.883 E4.36518
G1 X107.918 Y106.429 E4.38825
G1 X108.166 Y105.832 E4.42051
G1 X108.573 Y105.389 E4.45052
G1 X108.994 Y105.073 E4.47678
G1 X109.527 Y104.894 E4.50483
G1 X109.993 Y104.844 E4.52822
G1 X110.536 Y104.897 E4.55543
G1 X111.178 Y105.181 E4.59046
G1 X111.592 Y105.555 E4.61829
G1 X111.933 Y106.014 E4.64682
G1 X112.111 Y106.559 E4.67542
G1 X112.163 Y107.085 E4.70179
G1 X112.073 Y107.612 E4.72847
G1 X111.827 Y108.155 E4.75821
G1 X111.462 Y108.582 E4.78623
G1 X110.984 Y108.932 E4.81579
G1 X110.448 Y109.107 E4.84392
G1 X110.004 Y109.148 E4.86617
M204 S2000
G0 F7500 X110.179 Y109.873
M204 S500
G1 F1040.5 X110.004 Y109.878 E4.87876
G1 F1029.7 X109.715 Y109.869 E4.89977
M204 S2000
G0 F7500 X108.479 Y110.679
G0 X107.81 Y111.285
G0 X106.981 Y112.844
M204 S500
G1 F1345.3 X106.969 Y113.254 E4.92259
M204 S2000
G0 F7500 X106.514 Y114.12
G0 X105.927 Y114.927
G0 X105.203 Y115.453
G0 X104.319 Y115.745
G0 X104.249 Y115.409
M204 S500
G1 F1304.3 X103.594 Y115.379 E4.96021
G1 F1349.3 X103.062 Y115.156 E4.9922
G1 F1500 X102.818 Y115.035 E5.00579
G1 X102.326 Y114.684 E5.03594
G1 X101.962 Y114.179 E5.067
G1 X101.759 Y113.728 E5.09167
G1 X101.629 Y113.12 E5.12269
G1 X101.699 Y112.482 E5.15471
G1 X101.886 Y111.919 E5.18431
G1 X102.317 Y111.326 E5.22088
G1 X102.932 Y110.885 E5.25864
G1 X103.76 Y110.618 E5.30204
G1 X104.489 Y110.694 E5.33861
G1 X105.077 Y110.892 E5.36956
G1 X105.675 Y111.32 E5.40625
G1 X106.032 Y111.821 E5.43694
G1 X106.237 Y112.267 E5.46143
G1 X106.367 Y112.88 E5.49269
G1 X106.297 Y113.517 E5.52467
G1 X106.112 Y114.071 E5.5538
G1 X105.679 Y114.67 E5.59068
G1 X105.091 Y115.103 E5.62711
G1 X104.726 Y115.224 E5.64629
G1 F1446.9 X104.249 Y115.409 E5.67276
M204 S2000
G0 F7500 X104.319 Y115.745
G0 X104.99 Y115.95
G0 X105.597 Y116.221
G0 X106.971 Y117.233
M204 S500
G1 F1500 X107.146 Y116.955 E5.68914
G1 X107.51 Y116.528 E5.71714
G1 X107.936 Y116.162 E5.74516
G1 X108.155 Y116.002 E5.75869
G1 X108.743 Y115.734 E5.79093
G1 X108.272 Y115.471 E5.81784
G1 X107.64 Y114.895 E5.8605
G1 X107.443 Y114.6 E5.8782
G1 X107.206 Y114.084 E5.90653
G1 F1490.1 X107.1 Y113.77 E5.92317
G1 F1461 X106.974 Y113.325 E5.94686
G1 X106.851 Y113.759 E5.96997
G1 F1490.1 X106.723 Y114.134 E5.98987
G1 F1500 X106.569 Y114.459 E6.00781
G1 X106.112 Y115.092 E6.04676
G1 X105.549 Y115.511 E6.08177
G1 X105.127 Y115.741 E6.10575
G1 X105.683 Y115.983 E6.136
G1 X105.96 Y116.139 E6.15186
G1 X106.426 Y116.54 E6.18254
G1 X106.865 Y117.047 E6.216
G1 X106.971 Y117.233 E6.22668
M204 S2000
G0 F7500 X106.973 Y117.833
G0 X106.97 Y118.792
M204 S500
G1 F1044.1 X106.984 Y119.1 E6.24877
G1 F1055.1 X106.98 Y119.242 E6.25885
M204 S2000
G0 F7500 X107 Y120.198
G0 X110 Y115.802
G0 X110 Y115.42
M204 S500
G1 F1415.1 X109.763 Y115.421 E6.27138
G1 F1465.8 X109.245 Y115.276 E6.29885
G1 F1500 X108.681 Y115.031 E6.32953
G1 X108.093 Y114.497 E6.36915
G1 X107.973 Y114.319 E6.37986
G1 X107.71 Y113.743 E6.41145
G1 X107.609 Y113.214 E6.43832
G1 X107.608 Y112.756 E6.46117
G1 X107.709 Y112.251 E6.48687
G1 X107.992 Y111.644 E6.52028
G1 X108.124 Y111.47 E6.53117
G1 X108.662 Y110.987 E6.56724
G1 X109.241 Y110.719 E6.59908
G1 X109.729 Y110.61 E6.62402
G1 X110.251 Y110.608 E6.65006
G1 X110.741 Y110.709 E6.67503
G1 X111.308 Y110.964 E6.70604
G1 X111.794 Y111.394 E6.73842
G1 X112.085 Y111.805 E6.76354
G1 X112.285 Y112.252 E6.78797
G1 X112.391 Y112.74 E6.81289
G1 X112.389 Y113.275 E6.83958
G1 X112.284 Y113.745 E6.8636
G1 X112.015 Y114.347 E6.8965
G1 X111.867 Y114.532 E6.90832
G1 X111.327 Y115.027 E6.94487
G1 F1495 X110.736 Y115.29 E6.97725
G1 F1426.3 X110.195 Y115.42 E7.00644
G1 F1384.6 X110 Y115.42 E7.01698
M204 S2000
G0 F7500 X110 Y115.802
G0 X110.339 Y115.762
G0 X111.14 Y115.932
G0 X111.792 Y116.261
G0 X112.985 Y117.113
M204 S500
G1 F1500 X113.101 Y116.934 E7.02762
G1 X113.578 Y116.398 E7.06342
G1 X113.917 Y116.12 E7.08529
G1 X114.15 Y115.964 E7.09928
G1 X114.586 Y115.735 E7.12385
G1 X114.207 Y115.476 E7.14675
G1 X113.738 Y115.056 E7.17816
G1 X113.363 Y114.551 E7.20954
G1 X113.151 Y114.08 E7.23531
G1 F1505 X113.059 Y113.792 E7.25034
G1 F1517.7 X112.974 Y113.35 E7.27254
G1 X112.887 Y113.791 E7.2947
G1 F1505 X112.792 Y114.079 E7.30978
G1 F1500 X112.535 Y114.651 E7.34107
G1 X112.29 Y114.959 E7.3607
G1 X111.793 Y115.414 E7.39432
G1 X111.29 Y115.726 E7.42385
G1 X111.925 Y116.046 E7.45932
G1 X112.234 Y116.276 E7.47854
G1 X112.566 Y116.62 E7.50239
G1 X112.985 Y117.113 E7.53467
M204 S2000
G0 F7500 X112.961 Y117.679
G0 X112.974 Y118.784
M204 S500
G1 F1159.8 X112.974 Y119.296 E7.56771
M204 S2000
G1 F2400 E6.76771
G0 F7500 X112.96 Y120.325
G0 X113.398 Y121.068
G0 X113.932 Y121.602
G0 X114.787 Y122.097
G0 X115.491 Y122.271
G0 X116.205 Y122.319
G0 X117.175 Y122.111
G0 X117.698 Y121.831
G0 X119.093 Y120.677
G0 X119.592 Y121.363
G0 X120.194 Y121.85
G0 X120.965 Y122.193
G0 X121.831 Y122.374
G0 X122.873 Y122.264
G0 X123.677 Y121.907
G0 X124.245 Y121.494
G0 X124.836 Y120.837
G0 X125.251 Y119.903
G0 X125.37 Y119.142
G0 X125.265 Y118.128
G0 X124.907 Y117.322
G0 X124.408 Y116.637
G0 X123.314 Y115.558
G0 X124.035 Y115.032
G0 X124.474 Y114.426
G0 X124.777 Y113.744
G0 X124.857 Y113
G0 X124.794 Y112.406
G0 X124.563 Y111.695
G0 X124.032 Y110.964
G0 X123.426 Y110.526
G0 X122.771 Y110.234
G0 X122.113 Y110.132
G0 X121.397 Y110.207
G0 X120.686 Y110.442
G0 X119.965 Y110.968
G0 X119.526 Y111.574
G0 X119.223 Y112.256
G0 X119.143 Y113
G0 X119.206 Y113.594
G0 X119.437 Y114.305
G0 X119.968 Y115.036
G0 X120.323 Y116.093
G0 X118.602 Y116.932
G0 X118.068 Y116.398
G0 X117.213 Y115.903
G0 X116.642 Y115.762
G0 X116.353 Y115.756
G0 X116.251 Y115.443
M204 S500
G1 F2400 E7.56771
G1 F1480.3 X115.598 Y115.435 E7.60072
G1 F1495 X114.843 Y115.19 E7.64046
G1 F1500 X114.607 Y115.029 E7.65471
G1 X114.161 Y114.621 E7.68487
G1 X113.879 Y114.24 E7.70852
G1 X113.661 Y113.752 E7.73518
G1 X113.559 Y113.237 E7.76137
G1 X113.555 Y112.613 E7.79251
G1 X113.758 Y111.998 E7.82482
G1 X114.009 Y111.561 E7.84996
G1 X114.359 Y111.172 E7.87607
G1 X114.751 Y110.891 E7.90013
G1 X115.213 Y110.68 E7.92547
G1 X115.726 Y110.558 E7.95177
G1 X116.386 Y110.556 E7.9847
G1 X116.995 Y110.757 E8.0167
G1 X117.465 Y111.036 E8.04397
G1 X117.929 Y111.455 E8.07516
G1 X118.057 Y111.622 E8.08565
G1 X118.313 Y112.198 E8.1171
G1 X118.353 Y112.33 E8.12398
G1 F1255.2 X118.558 Y112.836 E8.15653
G1 F1071.4 X118.561 Y113.318 E8.1902
G1 F1246.5 X118.397 Y113.514 E8.20554
G1 F1500 X118.238 Y114.007 E8.23138
G1 X117.977 Y114.451 E8.25708
G1 X117.605 Y114.847 E8.28419
G1 X117.207 Y115.127 E8.30846
G1 X116.759 Y115.333 E8.33306
G1 F1480.3 X116.251 Y115.443 E8.35934
M204 S2000
G0 F7500 X116.353 Y115.756
G0 X117.213 Y115.903
G0 X117.698 Y116.184
G0 X118.949 Y117.033
M204 S500
G1 F1500 X119.577 Y116.322 E8.40667
G1 X120.065 Y115.966 E8.43681
G1 X120.481 Y115.719 E8.46094
G1 X119.852 Y115.263 E8.4997
G1 X119.686 Y115.075 E8.51221
G1 X119.363 Y114.629 E8.53969
G1 X119.189 Y114.348 E8.55618
G1 X118.973 Y113.698 E8.59035
G1 X118.784 Y114.262 E8.62003
G1 X118.547 Y114.667 E8.64344
G1 X118.367 Y114.913 E8.65864
G1 X118.03 Y115.278 E8.68343
G1 X117.557 Y115.624 E8.71267
G1 X117.371 Y115.713 E8.72295
G1 X118.23 Y116.205 E8.77234
G1 X118.776 Y116.749 E8.81079
G1 X118.949 Y117.033 E8.82738
M204 S2000
G0 F7500 X118.978 Y117.568
G0 X118.967 Y118.744
M204 S500
G1 F1367.8 X118.962 Y118.888 E8.83527
G1 F1341.3 X118.979 Y119.278 E8.85705
M204 S2000
G1 F2400 E8.05705
G0 F7500 X118.98 Y120.432
G0 X119.093 Y120.677
G0 X119.592 Y121.363
G0 X120.194 Y121.85
G0 X120.965 Y122.193
G0 X121.831 Y122.374
G0 X122.873 Y122.264
G0 X123.677 Y121.907
G0 X124.245 Y121.494
G0 X124.836 Y120.837
G0 X125.251 Y119.903
G0 X125.37 Y119.142
G0 X125.265 Y118.128
G0 X124.907 Y117.322
G0 X124.408 Y116.637
G0 X123.314 Y115.558
G0 X124.035 Y115.032
G0 X124.474 Y114.426
G0 X124.777 Y113.744
G0 X124.857 Y113
G0 X124.794 Y112.406
G0 X124.563 Y111.695
G0 X124.032 Y110.964
G0 X123.426 Y110.526
G0 X122.771 Y110.234
G0 X122.113 Y110.132
G0 X121.397 Y110.207
G0 X120.686 Y110.442
G0 X119.965 Y110.968
G0 X119.526 Y111.574
G0 X119.223 Y112.256
G0 X119.143 Y113
