;FLAVOR:Marlin
;TIME:1721
;Filament used: 2.73533m
;Layer height: 0.32
;MINX:42.827
;MINY:83.6
;MINZ:0.32
;MAXX:148.4
;MAXY:136.4
;MAXZ:13.12
;TARGET_MACHINE.NAME:Creality Ender-3 S1
;Generated with Cura_SteamEngine 5.9.0
M82 ;absolute extrusion mode
; Ender 3 S1 Start G-code
; M413 S0 ; Disable power loss recovery
M201 X500.00 Y500.00 Z100.00 E5000.00 ;Setup machine max acceleration
M203 X500.00 Y500.00 Z20.00 E50.00 ;Setup machine max feedrate
M204 P500.00 R1000.00 T500.00 ;Setup Print/Retract/Travel acceleration
M205 X8.00 Y8.00 Z0.40 E5.00 ;Setup Jerk
M220 S100 ;Reset Feedrate
M221 S100 ;Reset Flowrate
G92 E0 ; Reset Extruder

; Prep surfaces before auto home for better accuracy
M140 S60
M104 S200
G92 E0 ; Reset Extruder
G28 ; Home all axes
M420 S1 Z10; Use Level Mesh up to 2mm;
G1 Z10.0 F3000 ; Move Z Axis up little to prevent scratching of Heat Bed
G1 X0 Y0

M190 S60
M109 S200

G1 X0.1 Y20 Z0.3 F5000.0 ; Move to start position
G1 X0.1 Y200.0 Z0.3 F1500.0 E15 ; Draw the first line
G1 X0.4 Y200.0 Z0.3 F5000.0 ; Move to side a little
G1 X0.4 Y20 Z0.3 F1500.0 E30 ; Draw the second line
G92 E0 ; Reset Extruder
G1 Z2.0 F3000 ; Move Z Axis up little to prevent scratching of Heat Bed
G1 X5 Y20 Z0.3 F5000.0 ; Move over to prevent blob squish
G92 E0
G92 E0
G1 F2400 E-0.8
;LAYER_COUNT:41
;LAYER:0
M107
M204 S2000
G0 F7500 X44.675 Y120.996 Z0.32
M204 S500
;TYPE:SKIRT
G1 F2400 E0
G1 F1500 X43.777 Y119.633 E0.13029
G1 X43.388 Y118.883 E0.19773
G1 X42.827 Y116.796 E0.37024
G1 X42.827 Y90.981 E2.43091
G1 X43.113 Y89.533 E2.54872
G1 X43.406 Y88.578 E2.62846
G1 X44.282 Y87.06 E2.76837
G1 X44.823 Y86.315 E2.84186
G1 X46.158 Y85.125 E2.98462
G1 X47.373 Y84.417 E3.09687
G1 X48.363 Y83.975 E3.18341
G1 X50.207 Y83.6 E3.33362
G1 X74.146 Y83.6 E5.24454
G1 X75.594 Y83.886 E5.36236
G1 X76.549 Y84.179 E5.4421
G1 X78.067 Y85.055 E5.582
G1 X78.812 Y85.596 E5.65549
G1 X80.002 Y86.931 E5.79825
G1 X80.71 Y88.146 E5.9105
G1 X81.152 Y89.136 E5.99705
G1 X81.527 Y90.98 E6.14725
G1 X81.527 Y129.019 E9.18369
G1 X81.241 Y130.469 E9.30167
G1 X80.944 Y131.434 E9.38226
G1 X80.048 Y132.952 E9.52297
G1 X79.393 Y133.828 E9.61028
G1 X77.846 Y135.151 E9.77277
G1 X76.424 Y135.814 E9.89801
G1 X74.91 Y136.31 E10.02519
G1 X74.433 Y136.4 E10.06393
G1 X62.715 Y136.4 E10.99932
G1 X61.168 Y136.082 E11.12539
G1 X60.228 Y135.784 E11.2041
G1 X58.431 Y134.752 E11.36952
G1 X44.675 Y120.996 E12.92241
M204 S2000
G0 F7500 X45.142 Y120.615
M204 S500
G1 F1500 X44.31 Y119.357 E13.04281
G1 X43.95 Y118.662 E13.10529
G1 X43.427 Y116.718 E13.26598
G1 X43.427 Y91.041 E15.31563
G1 X43.702 Y89.649 E15.42889
G1 X43.96 Y88.818 E15.49835
G1 X44.768 Y87.412 E15.6278
G1 X45.271 Y86.719 E15.69615
G1 X46.511 Y85.614 E15.82873
G1 X47.618 Y84.965 E15.93117
G1 X48.549 Y84.549 E16.01256
G1 X50.267 Y84.2 E16.1525
G1 X74.086 Y84.2 E18.05384
G1 X75.478 Y84.475 E18.1671
G1 X76.309 Y84.733 E18.23656
G1 X77.715 Y85.541 E18.366
G1 X78.408 Y86.044 E18.43436
G1 X79.513 Y87.284 E18.56694
G1 X80.162 Y88.391 E18.66937
G1 X80.578 Y89.322 E18.75077
G1 X80.927 Y91.04 E18.89071
G1 X80.927 Y128.959 E21.91757
G1 X80.652 Y130.353 E22.03099
G1 X80.391 Y131.191 E22.10105
G1 X79.567 Y132.593 E22.23086
G1 X78.952 Y133.416 E22.31287
G1 X77.519 Y134.641 E22.46336
G1 X76.17 Y135.27 E22.58217
G1 X74.799 Y135.72 E22.69736
G1 X74.375 Y135.8 E22.7318
G1 X62.778 Y135.8 E23.65752
G1 X61.289 Y135.494 E23.77886
G1 X60.472 Y135.232 E23.84735
G1 X58.798 Y134.271 E24.00143
G1 X45.142 Y120.615 E25.54304
M204 S2000
G0 F7500 X45.611 Y120.236
M204 S500
G1 F1500 X44.843 Y119.081 E25.65376
G1 X44.512 Y118.441 E25.71127
G1 X44.027 Y116.64 E25.86016
G1 X44.027 Y91.101 E27.89879
G1 X44.291 Y89.765 E28.0075
G1 X44.512 Y89.062 E28.06632
G1 X45.254 Y87.764 E28.18567
G1 X45.719 Y87.123 E28.24888
G1 X46.863 Y86.104 E28.37118
G1 X47.922 Y85.483 E28.46917
G1 X48.731 Y85.124 E28.53982
G1 X50.327 Y84.8 E28.66982
G1 X74.026 Y84.8 E30.56158
G1 X75.362 Y85.064 E30.67029
G1 X76.065 Y85.285 E30.72911
G1 X77.363 Y86.027 E30.84846
G1 X78.004 Y86.492 E30.91167
G1 X79.023 Y87.636 E31.03396
G1 X79.644 Y88.695 E31.13196
G1 X80.003 Y89.504 E31.20261
G1 X80.327 Y91.1 E31.33261
G1 X80.327 Y128.899 E34.34989
G1 X80.063 Y130.237 E34.45875
G1 X79.84 Y130.945 E34.518
G1 X79.086 Y132.234 E34.63721
G1 X78.511 Y133.004 E34.71392
G1 X77.192 Y134.131 E34.85241
G1 X75.916 Y134.726 E34.96479
G1 X74.688 Y135.13 E35.06798
G1 X74.317 Y135.2 E35.09812
G1 X62.839 Y135.2 E36.01435
G1 X61.472 Y134.923 E36.12568
G1 X60.717 Y134.681 E36.18897
G1 X59.165 Y133.79 E36.33182
G1 X45.611 Y120.236 E37.86192
M204 S2000
G0 F7500 X46.079 Y119.856
M204 S500
G1 F1500 X45.343 Y118.749 E37.96803
G1 X45.074 Y118.222 E38.01526
G1 X44.627 Y116.562 E38.15249
G1 X44.627 Y91.161 E40.18011
G1 X44.88 Y89.881 E40.28426
G1 X45.064 Y89.306 E40.33245
G1 X45.74 Y88.116 E40.4417
G1 X46.167 Y87.527 E40.49977
G1 X47.217 Y86.592 E40.612
G1 X48.225 Y86.001 E40.70527
G1 X48.913 Y85.699 E40.76525
G1 X50.387 Y85.4 E40.88531
G1 X73.966 Y85.4 E42.76748
G1 X75.246 Y85.653 E42.87164
G1 X75.821 Y85.837 E42.91983
G1 X77.011 Y86.513 E43.02908
G1 X77.6 Y86.94 E43.08715
G1 X78.535 Y87.99 E43.19938
G1 X79.126 Y88.998 E43.29265
G1 X79.428 Y89.686 E43.35263
G1 X79.727 Y91.16 E43.47268
G1 X79.727 Y128.839 E46.48039
G1 X79.474 Y130.121 E46.58469
G1 X79.288 Y130.699 E46.63316
G1 X78.568 Y131.931 E46.74707
G1 X78.071 Y132.591 E46.81302
G1 X76.865 Y133.621 E46.93962
G1 X75.662 Y134.182 E47.04558
G1 X74.577 Y134.54 E47.13678
G1 X74.259 Y134.6 E47.16261
G1 X62.899 Y134.6 E48.06942
G1 X61.591 Y134.335 E48.17595
G1 X60.962 Y134.13 E48.22876
G1 X59.532 Y133.309 E48.36038
G1 X46.079 Y119.856 E49.87907
M204 S2000
G0 F7500 X46.547 Y119.476
M204 S500
G1 F1500 X45.843 Y118.417 E49.98058
G1 X45.636 Y118.003 E50.01753
G1 X45.227 Y116.484 E50.1431
G1 X45.227 Y91.221 E52.1597
G1 X45.469 Y89.997 E52.2593
G1 X45.615 Y89.551 E52.29676
G1 X46.262 Y88.413 E52.40125
G1 X46.616 Y87.931 E52.44899
G1 X47.569 Y87.082 E52.55087
G1 X48.529 Y86.519 E52.63971
G1 X49.094 Y86.274 E52.68887
G1 X50.447 Y86 E52.79906
G1 X73.906 Y86 E54.67166
G1 X75.13 Y86.242 E54.77126
G1 X75.576 Y86.388 E54.80872
G1 X76.714 Y87.035 E54.91321
G1 X77.196 Y87.389 E54.96095
G1 X78.045 Y88.342 E55.06283
G1 X78.608 Y89.302 E55.15167
G1 X78.853 Y89.867 E55.20083
G1 X79.127 Y91.22 E55.31102
G1 X79.127 Y128.779 E58.30915
G1 X78.885 Y130.005 E58.4089
G1 X78.737 Y130.453 E58.44656
G1 X78.05 Y131.628 E58.55521
G1 X77.633 Y132.176 E58.61018
G1 X76.537 Y133.112 E58.72523
G1 X75.474 Y133.612 E58.819
G1 X74.389 Y133.97 E58.9102
G1 X74.201 Y134 E58.9254
G1 X62.959 Y134 E59.82278
G1 X61.71 Y133.747 E59.92451
G1 X61.207 Y133.579 E59.96684
G1 X59.899 Y132.828 E60.08724
G1 X46.547 Y119.476 E61.59453
M204 S2000
G0 F7500 X47.015 Y119.096
M204 S500
G1 F1500 X60.266 Y132.347 E63.09041
G1 X61.454 Y133.029 E63.19976
G1 X61.9 Y133.178 E63.2373
G1 X63.017 Y133.4 E63.3282
G1 X74.201 Y133.4 E64.22096
G1 X75.286 Y133.042 E64.31216
G1 X76.208 Y132.604 E64.39364
G1 X77.194 Y131.762 E64.49714
G1 X77.572 Y131.265 E64.54699
G1 X78.188 Y130.203 E64.64499
G1 X78.296 Y129.889 E64.67149
G1 X78.527 Y128.719 E64.76669
G1 X78.527 Y91.28 E67.75523
G1 X78.277 Y90.046 E67.85574
G1 X78.09 Y89.605 E67.89397
G1 X77.557 Y88.696 E67.97809
G1 X76.789 Y87.834 E68.07025
G1 X76.417 Y87.557 E68.10727
G1 X75.329 Y86.938 E68.20719
G1 X75.014 Y86.831 E68.23374
G1 X73.846 Y86.6 E68.32879
G1 X50.507 Y86.6 E70.19181
G1 X49.273 Y86.85 E70.29231
G1 X48.832 Y87.037 E70.33055
G1 X47.923 Y87.57 E70.41466
G1 X47.061 Y88.338 E70.50682
G1 X46.784 Y88.71 E70.54384
G1 X46.165 Y89.798 E70.64376
G1 X46.058 Y90.113 E70.67032
G1 X45.827 Y91.281 E70.76536
G1 X45.827 Y116.406 E72.77094
G1 X46.199 Y117.786 E72.88503
G1 X46.343 Y118.085 E72.91153
G1 X47.015 Y119.096 E73.00843
M204 S2000
G0 F7500 X47.483 Y118.716
M204 S500
G1 F1500 X60.633 Y131.866 E74.49291
G1 X61.702 Y132.48 E74.59132
G1 X62.017 Y132.59 E74.61795
G1 X63.074 Y132.8 E74.70398
G1 X74.104 Y132.8 E75.58444
G1 X75.098 Y132.472 E75.66799
G1 X75.879 Y132.096 E75.73719
G1 X76.755 Y131.348 E75.82913
G1 X77.094 Y130.902 E75.87385
G1 X77.639 Y129.954 E75.96114
G1 X77.707 Y129.773 E75.97658
G1 X77.927 Y128.659 E76.06722
G1 X77.927 Y91.34 E79.04618
G1 X77.701 Y90.225 E79.13699
G1 X77.572 Y89.908 E79.16431
G1 X77.069 Y89.05 E79.24371
G1 X76.384 Y88.281 E79.32591
G1 X76.12 Y88.079 E79.35245
G1 X75.079 Y87.487 E79.44804
G1 X74.898 Y87.42 E79.46345
G1 X73.786 Y87.2 E79.55393
G1 X50.567 Y87.2 E81.40737
G1 X49.452 Y87.426 E81.49819
G1 X49.135 Y87.555 E81.52551
G1 X48.277 Y88.058 E81.6049
G1 X47.508 Y88.743 E81.6871
G1 X47.306 Y89.007 E81.71364
G1 X46.714 Y90.048 E81.80923
G1 X46.647 Y90.229 E81.82464
G1 X46.427 Y91.341 E81.91513
G1 X46.427 Y116.328 E83.9097
G1 X46.764 Y117.577 E84.01296
G1 X46.843 Y117.753 E84.02836
G1 X47.483 Y118.716 E84.12066
M204 S2000
G0 F7500 X47.951 Y118.336
M204 S500
G1 F1500 X61 Y131.385 E85.59374
G1 X61.952 Y131.932 E85.68139
G1 X62.134 Y132.001 E85.69692
G1 X63.136 Y132.2 E85.77847
G1 X74.007 Y132.2 E86.64624
G1 X74.91 Y131.902 E86.72215
G1 X75.549 Y131.589 E86.77894
G1 X76.316 Y130.934 E86.85946
G1 X76.616 Y130.539 E86.89905
G1 X77.118 Y129.657 E86.98006
G1 X77.327 Y128.599 E87.06615
G1 X77.327 Y91.4 E90.03553
G1 X77.124 Y90.397 E90.11722
G1 X77.054 Y90.212 E90.13301
G1 X76.579 Y89.402 E90.20796
G1 X75.974 Y88.723 E90.28056
G1 X75.823 Y88.601 E90.29605
G1 X74.782 Y88.009 E90.39165
G1 X73.726 Y87.8 E90.47758
G1 X50.627 Y87.8 E92.32144
G1 X49.624 Y88.003 E92.40313
G1 X49.439 Y88.073 E92.41892
G1 X48.629 Y88.548 E92.49387
G1 X47.95 Y89.153 E92.56647
G1 X47.828 Y89.304 E92.58196
G1 X47.236 Y90.345 E92.67756
G1 X47.027 Y91.401 E92.76349
G1 X47.027 Y116.25 E94.74704
G1 X47.343 Y117.421 E94.84386
G1 X47.951 Y118.336 E94.93155
M204 S2000
G0 F7500 X48.419 Y117.956
M204 S500
G1 F1500 X47.896 Y117.169 E95.00698
G1 X47.627 Y116.172 E95.08941
G1 X47.627 Y91.461 E97.06195
G1 X47.806 Y90.555 E97.13567
G1 X48.349 Y89.601 E97.22329
G1 X48.981 Y89.038 E97.29086
G1 X49.743 Y88.591 E97.36138
G1 X50.687 Y88.4 E97.43826
G1 X73.666 Y88.4 E99.27254
G1 X74.572 Y88.579 E99.34626
G1 X75.526 Y89.122 E99.43388
G1 X76.089 Y89.754 E99.50145
G1 X76.536 Y90.516 E99.57197
G1 X76.727 Y91.46 E99.64885
G1 X76.727 Y128.539 E102.60865
G1 X76.548 Y129.444 E102.68229
G1 X76.094 Y130.242 E102.75558
G1 X75.878 Y130.519 E102.78362
G1 X75.216 Y131.084 E102.85309
G1 X74.722 Y131.332 E102.89722
G1 X73.91 Y131.6 E102.96547
G1 X63.198 Y131.6 E103.82055
G1 X62.251 Y131.412 E103.89762
G1 X61.367 Y130.904 E103.97901
G1 X48.419 Y117.956 E105.44069
M204 S2000
G0 F7500 X48.887 Y117.576
M204 S500
G1 F1500 X48.449 Y116.917 E105.50385
G1 X48.227 Y116.094 E105.5719
G1 X48.227 Y91.521 E107.53342
G1 X48.376 Y90.768 E107.59469
G1 X48.823 Y89.982 E107.66687
G1 X49.333 Y89.528 E107.72137
G1 X49.962 Y89.159 E107.77959
G1 X50.747 Y89 E107.84352
G1 X73.606 Y89 E109.66822
G1 X74.359 Y89.149 E109.7295
G1 X75.145 Y89.596 E109.80168
G1 X75.599 Y90.106 E109.85618
G1 X75.968 Y90.735 E109.91439
G1 X76.127 Y91.52 E109.97833
G1 X76.127 Y128.479 E112.92855
G1 X75.978 Y129.234 E112.98998
G1 X75.573 Y129.945 E113.0553
G1 X75.441 Y130.104 E113.0718
G1 X74.883 Y130.58 E113.13034
G1 X74.534 Y130.762 E113.16176
G1 X73.813 Y131 E113.22237
G1 X63.255 Y131 E114.06516
G1 X62.465 Y130.843 E114.12945
G1 X61.734 Y130.423 E114.19675
G1 X48.887 Y117.576 E115.64703
M204 S2000
G0 F7500 X49.355 Y117.196
M204 S500
G1 F1500 X49.002 Y116.665 E115.69793
G1 X48.827 Y116.016 E115.75158
G1 X48.827 Y91.581 E117.70209
G1 X48.946 Y90.978 E117.75115
G1 X49.295 Y90.365 E117.80746
G1 X49.685 Y90.018 E117.84913
G1 X50.181 Y89.727 E117.89503
G1 X50.807 Y89.6 E117.94602
G1 X73.546 Y89.6 E119.76115
G1 X74.149 Y89.719 E119.81021
G1 X74.762 Y90.068 E119.86652
G1 X75.109 Y90.458 E119.90819
G1 X75.4 Y90.954 E119.95409
G1 X75.527 Y91.58 E120.00508
G1 X75.527 Y128.419 E122.94573
G1 X75.408 Y129.024 E122.99495
G1 X75.052 Y129.648 E123.05229
G1 X74.548 Y130.078 E123.10518
G1 X74.346 Y130.192 E123.12369
G1 X73.716 Y130.4 E123.17665
G1 X63.312 Y130.4 E124.00714
G1 X62.679 Y130.274 E124.05866
G1 X62.101 Y129.942 E124.11187
G1 X49.355 Y117.196 E125.55075
M204 S2000
G0 F7500 X49.823 Y116.816
M204 S500
G1 F1500 X49.555 Y116.413 E125.58938
G1 X49.427 Y115.938 E125.62865
G1 X49.427 Y91.641 E127.56814
G1 X49.516 Y91.188 E127.60499
G1 X49.766 Y90.75 E127.64525
G1 X50.044 Y90.503 E127.67494
G1 X50.398 Y90.295 E127.70771
G1 X50.867 Y90.2 E127.74591
G1 X73.486 Y90.2 E129.55146
G1 X73.939 Y90.289 E129.58831
G1 X74.377 Y90.539 E129.62857
G1 X74.624 Y90.817 E129.65825
G1 X74.832 Y91.171 E129.69102
G1 X74.927 Y91.64 E129.72922
G1 X74.927 Y128.359 E132.66029
G1 X74.838 Y128.812 E132.69714
G1 X74.582 Y129.26 E132.73833
G1 X74.158 Y129.622 E132.78284
G1 X73.619 Y129.8 E132.82815
G1 X63.369 Y129.8 E133.64635
G1 X62.893 Y129.705 E133.68509
G1 X62.468 Y129.461 E133.72421
G1 X49.823 Y116.816 E135.15169
M204 S2000
G0 F7500 X50.715 Y116.012
M204 S500
G1 F1500 X50.627 Y115.86 E135.16571
G1 X50.627 Y91.7 E137.09426
G1 X50.666 Y91.551 E137.10656
G1 X50.774 Y91.442 E137.11881
G1 X50.927 Y91.4 E137.13147
G1 X73.427 Y91.4 E138.92752
G1 X73.576 Y91.439 E138.93981
G1 X73.685 Y91.547 E138.95206
G1 X73.727 Y91.7 E138.96473
G1 X73.727 Y128.3 E141.8863
G1 X73.688 Y128.449 E141.89859
G1 X73.58 Y128.558 E141.91084
G1 X73.427 Y128.6 E141.9235
G1 X63.427 Y128.6 E142.72175
G1 X63.259 Y128.556 E142.73561
G1 X50.715 Y116.012 E144.15168
M204 S2000
G0 F7500 X50.291 Y116.436
M204 S500
G1 F1500 X50.108 Y116.161 E144.17805
G1 X50.027 Y115.86 E144.20293
G1 X50.027 Y91.7 E146.13149
G1 X50.086 Y91.399 E146.15597
G1 X50.24 Y91.129 E146.18079
G1 X50.348 Y91.02 E146.19304
G1 X50.615 Y90.863 E146.21776
G1 X50.927 Y90.8 E146.24317
G1 X73.427 Y90.8 E148.03922
G1 X73.728 Y90.859 E148.0637
G1 X73.998 Y91.013 E148.08851
G1 X74.107 Y91.121 E148.10076
G1 X74.264 Y91.388 E148.12548
G1 X74.327 Y91.7 E148.15089
G1 X74.327 Y128.3 E151.07246
G1 X74.268 Y128.601 E151.09695
G1 X74.114 Y128.871 E151.12176
G1 X73.859 Y129.089 E151.14854
G1 X73.522 Y129.2 E151.17686
G1 X63.427 Y129.2 E151.98269
G1 X63.107 Y129.136 E152.00874
G1 X62.835 Y128.98 E152.03377
G1 X50.291 Y116.436 E153.44984
M204 S2000
G1 F2400 E152.64984
G0 F7500 X63.153 Y128.961
G0 X102.915 Y129.35
M204 S500
G1 F2400 E153.44984
G1 F1500 X100.982 Y128.94 E153.60758
G1 X100.679 Y128.833 E153.63323
G1 X98.959 Y127.834 E153.792
G1 X98.329 Y127.369 E153.85451
G1 X97.125 Y126.02 E153.99884
G1 X96.417 Y124.804 E154.11116
G1 X95.975 Y123.814 E154.19771
G1 X95.6 Y121.97 E154.34791
G1 X95.6 Y98.031 E156.25883
G1 X95.886 Y96.583 E156.37665
G1 X96.179 Y95.628 E156.45639
G1 X97.055 Y94.11 E156.59629
G1 X97.596 Y93.365 E156.66978
G1 X98.931 Y92.175 E156.81254
G1 X100.146 Y91.467 E156.92479
G1 X101.136 Y91.025 E157.01134
G1 X102.98 Y90.65 E157.16155
G1 X128.512 Y90.65 E159.19962
G1 X130.059 Y90.968 E159.32569
G1 X130.999 Y91.266 E159.40441
G1 X132.796 Y92.298 E159.56982
G1 X146.552 Y106.054 E161.12272
G1 X147.45 Y107.417 E161.25301
G1 X147.839 Y108.167 E161.32045
G1 X148.4 Y110.254 E161.49296
G1 X148.4 Y121.968 E162.42802
G1 X148.058 Y123.633 E162.5637
G1 X147.818 Y124.375 E162.62595
G1 X146.885 Y125.989 E162.77477
G1 X146.42 Y126.625 E162.83766
G1 X145.045 Y127.847 E162.9845
G1 X143.095 Y128.929 E163.16251
G1 X141.027 Y129.35 E163.33098
G1 X102.915 Y129.35 E166.37324
M204 S2000
G0 F7500 X102.978 Y128.75
M204 S500
G1 F1500 X101.106 Y128.353 E166.52599
G1 X100.931 Y128.286 E166.54095
G1 X99.315 Y127.351 E166.68998
G1 X98.735 Y126.923 E166.74752
G1 X97.614 Y125.666 E166.88197
G1 X96.965 Y124.559 E166.9844
G1 X96.549 Y123.628 E167.0658
G1 X96.2 Y121.91 E167.20574
G1 X96.2 Y98.091 E169.10707
G1 X96.475 Y96.699 E169.22034
G1 X96.733 Y95.868 E169.28979
G1 X97.541 Y94.462 E169.41924
G1 X98.044 Y93.769 E169.48759
G1 X99.284 Y92.664 E169.62017
G1 X100.391 Y92.015 E169.72261
G1 X101.322 Y91.599 E169.804
G1 X103.04 Y91.25 E169.94394
G1 X128.449 Y91.25 E171.9722
G1 X129.938 Y91.556 E172.09354
G1 X130.755 Y91.818 E172.16203
G1 X132.429 Y92.779 E172.31611
G1 X146.085 Y106.435 E173.85772
G1 X146.917 Y107.693 E173.97811
G1 X147.277 Y108.388 E174.04059
G1 X147.8 Y110.332 E174.20129
G1 X147.8 Y121.907 E175.12525
