;FLAVOR:Marlin
;TIME:2846
;Filament used: 4.91607m
;Layer height: 0.32
;MINX:85.3
;MINY:80.3
;MINZ:0.32
;MAXX:134.7
;MAXY:139.7
;MAXZ:9.28
;TARGET_MACHINE.NAME:Creality Ender-3 S1
;Generated with Cura_SteamEngine 5.9.0
M82 ;absolute extrusion mode
; Ender 3 S1 Start G-code
; M413 S0 ; Disable power loss recovery
M201 X500.00 Y500.00 Z100.00 E5000.00 ;Setup machine max acceleration
M203 X500.00 Y500.00 Z20.00 E50.00 ;Setup machine max feedrate
M204 P500.00 R1000.00 T500.00 ;Setup Print/Retract/Travel acceleration
M205 X8.00 Y8.00 Z0.40 E5.00 ;Setup Jerk
M220 S100 ;Reset Feedrate
M221 S100 ;Reset Flowrate
G92 E0 ; Reset Extruder

; Prep surfaces before auto home for better accuracy
M140 S60
M104 S200
G92 E0 ; Reset Extruder
G28 ; Home all axes
M420 S1 Z10; Use Level Mesh up to 2mm;
G1 Z10.0 F3000 ; Move Z Axis up little to prevent scratching of Heat Bed
G1 X0 Y0

M190 S60
M109 S200

G1 X0.1 Y20 Z0.3 F5000.0 ; Move to start position
G1 X0.1 Y200.0 Z0.3 F1500.0 E15 ; Draw the first line
G1 X0.4 Y200.0 Z0.3 F5000.0 ; Move to side a little
G1 X0.4 Y20 Z0.3 F1500.0 E30 ; Draw the second line
G92 E0 ; Reset Extruder
G1 Z2.0 F3000 ; Move Z Axis up little to prevent scratching of Heat Bed
G1 X5 Y20 Z0.3 F5000.0 ; Move over to prevent blob squish
G92 E0
G92 E0
G1 F2400 E-0.8
;LAYER_COUNT:29
;LAYER:0
M107
M204 S2000
;MESH:motor_driver_holder.stl
G0 F7500 X86.81 Y81.688 Z0.32
M204 S500
;TYPE:WALL-INNER
G1 F2400 E0
G1 F920.2 X86.749 Y81.582 E0.01591
G1 X86.627 Y81.582 E0.03179
G1 X86.566 Y81.688 E0.0477
G1 X86.627 Y81.794 E0.06361
G1 X86.749 Y81.794 E0.07949
G1 X86.81 Y81.688 E0.0954
M204 S2000
G0 F7500 X86.233 Y83.076
G0 X86.038 Y84.21
M204 S500
G1 F1153.8 X86.236 Y83.83 E0.13986
G1 F1376.1 X86.291 Y83.746 E0.1486
G1 F1465.8 X86.457 Y83.368 E0.18232
G1 F1500 X86.601 Y83.084 E0.20774
G1 X86.872 Y82.668 E0.24737
G1 X87.135 Y82.355 E0.28001
G1 X87.42 Y82.076 E0.31184
G1 X87.668 Y81.872 E0.33748
G1 X88.002 Y81.647 E0.36962
G1 X88.373 Y81.455 E0.40297
G1 F1465.8 X88.746 Y81.292 E0.43622
G1 F1376.1 X88.83 Y81.237 E0.44496
G1 F1156.8 X89.212 Y81.038 E0.48954
G1 F1196.8 X88.676 Y80.913 E0.5446
G1 F1465.8 X88.354 Y80.9 E0.57093
G1 F1500 X85.9 Y80.9 E0.76682
G1 X85.9 Y83.354 E0.96271
G1 F1465.8 X85.914 Y83.676 E0.98903
G1 F1195.2 X86.038 Y84.21 E1.04395
G1 F1055.1 X86.014 Y84.518 E1.07901
G1 F1105.7 X86 Y85 E1.13123
G1 F1104.3 X86.014 Y85.472 E1.18243
G1 F1055.1 X86.038 Y85.784 E1.21794
M204 S2000
G0 F7500 X86.233 Y86.924
G0 X86.43 Y84.24
G0 X86.665 Y83.516
G0 X88.076 Y81.233
G0 X89.212 Y81.038
M204 S500
G1 F1056.3 X89.524 Y81.014 E1.25341
G1 F1105.7 X90 Y81 E1.30498
G1 X90.472 Y81.014 E1.35612
G1 F1056.3 X90.784 Y81.038 E1.39159
M204 S2000
G0 F7500 X91.924 Y81.233
G0 X108.076 Y81.233
G0 X109.212 Y81.038
M204 S500
G1 F1056.3 X109.524 Y81.014 E1.42706
G1 F1105.7 X110 Y81 E1.47863
G1 X110.472 Y81.014 E1.52977
G1 F1056.3 X110.784 Y81.038 E1.56524
M204 S2000
G0 F7500 X111.924 Y81.233
G0 X128.076 Y81.233
G0 X129.212 Y81.038
M204 S500
G1 F1056.3 X129.524 Y81.014 E1.60071
G1 F1105.7 X130 Y81 E1.65228
G1 X130.472 Y81.014 E1.70342
G1 F1056.3 X130.784 Y81.038 E1.73889
M204 S2000
G0 F7500 X131.924 Y81.233
G0 X133.434 Y81.688
M204 S500
G1 F922.1 X133.373 Y81.582 E1.75477
G1 X133.251 Y81.582 E1.77061
G1 X133.19 Y81.688 E1.78649
G1 X133.251 Y81.794 E1.80237
G1 X133.373 Y81.794 E1.81821
G1 X133.434 Y81.688 E1.83409
M204 S2000
G0 F7500 X133.767 Y83.076
G0 X133.959 Y84.196
M204 S500
G1 F1187.3 X134.083 Y83.676 E1.888
G1 F1456.3 X134.1 Y83.354 E1.91451
G1 F1500 X134.1 Y80.9 E2.1104
G1 X131.642 Y80.9 E2.30661
G1 F1465.8 X131.32 Y80.913 E2.33293
G1 F1196.8 X130.784 Y81.038 E2.388
G1 F1156.8 X131.166 Y81.237 E2.43258
G1 F1376.1 X131.25 Y81.292 E2.44132
G1 F1465.8 X131.618 Y81.452 E2.4741
G1 F1500 X132.004 Y81.651 E2.50876
G1 X132.323 Y81.868 E2.53956
G1 X132.645 Y82.135 E2.57295
G1 X132.924 Y82.42 E2.60479
G1 X133.193 Y82.757 E2.63921
G1 X133.391 Y83.075 E2.66911
G1 X133.538 Y83.359 E2.69464
G1 F1456.3 X133.712 Y83.745 E2.72945
G1 F1351.4 X133.774 Y83.84 E2.7395
G1 F1140.7 X133.959 Y84.196 E2.78161
G1 F1058.8 X133.991 Y84.626 E2.83037
G1 F1112.5 X134 Y85 E2.87064
G1 F1104.3 X133.985 Y85.485 E2.92325
G1 F1051.4 X133.959 Y85.804 E2.9597
M204 S2000
G0 F7500 X133.767 Y86.924
G0 X133.767 Y103.076
G0 X133.959 Y104.196
M204 S500
G1 F1058.8 X133.991 Y104.626 E3.00846
G1 F1112.5 X134 Y105 E3.04873
G1 F1104.3 X133.985 Y105.485 E3.10134
G1 F1051.4 X133.959 Y105.804 E3.13779
M204 S2000
G0 F7500 X133.767 Y106.924
G0 X133.767 Y123.076
G0 X133.959 Y124.196
M204 S500
G1 F1058.8 X133.991 Y124.626 E3.18655
G1 F1112.5 X134 Y125 E3.22681
G1 F1104.3 X133.985 Y125.485 E3.27943
G1 F1051.4 X133.959 Y125.804 E3.31588
M204 S2000
G1 F2400 E2.51588
G0 F7500 X133.767 Y126.924
G0 X131.484 Y128.335
G0 X130.76 Y128.57
G0 X130 Y128.651
G0 X129.24 Y128.57
G0 X128.516 Y128.335
G0 X127.855 Y127.953
G0 X127.288 Y127.442
G0 X126.92 Y126.942
G0 X125.612 Y126.945
G0 X113.554 Y128.201
G0 X110 Y129.496
M204 S500
G1 F2400 E3.31588
G1 F1500 X109.925 Y129.499 E3.32187
G1 X109.516 Y129.479 E3.35455
G1 X109.122 Y129.412 E3.38646
G1 X108.684 Y129.301 E3.42253
G1 X108.161 Y129.114 E3.46686
G1 X107.672 Y128.85 E3.51122
G1 X107.417 Y128.683 E3.53555
G1 X107.05 Y128.396 E3.57274
G1 X106.658 Y128.018 E3.61621
G1 X106.319 Y127.588 E3.65992
G1 X106.093 Y127.248 E3.69251
G1 X105.886 Y126.824 E3.73017
G1 X105.718 Y126.389 E3.7674
G1 X105.596 Y125.937 E3.80477
G1 X105.533 Y125.547 E3.8363
G1 X105.501 Y125.076 E3.87399
G1 X105.519 Y124.531 E3.91752
G1 X105.597 Y124.058 E3.95578
G1 X105.714 Y123.611 E3.99267
G1 X105.89 Y123.164 E4.03101
G1 X106.073 Y122.798 E4.06368
G1 X106.348 Y122.36 E4.10496
G1 X106.663 Y121.981 E4.1443
G1 X106.981 Y121.663 E4.1802
G1 X107.298 Y121.4 E4.21308
G1 X107.738 Y121.1 E4.25559
G1 X108.168 Y120.888 E4.29386
G1 X108.551 Y120.738 E4.32669
G1 X109.05 Y120.598 E4.36806
G1 X109.449 Y120.533 E4.40033
G1 X109.994 Y120.496 E4.44393
G1 X110.47 Y120.523 E4.48199
G1 X110.946 Y120.598 E4.52046
G1 X111.445 Y120.738 E4.56183
G1 X111.824 Y120.886 E4.59431
G1 X112.264 Y121.102 E4.63343
G1 X112.641 Y121.356 E4.66972
G1 X113.015 Y121.659 E4.70814
G1 X113.337 Y121.981 E4.74449
G1 X113.64 Y122.35 E4.7826
G1 X113.891 Y122.741 E4.81969
G1 X114.078 Y123.097 E4.85179
G1 X114.288 Y123.613 E4.89626
G1 X114.399 Y124.058 E4.93287
G1 X114.48 Y124.524 E4.97063
G1 X114.499 Y125.076 E5.01472
G1 X114.477 Y125.47 E5.04622
G1 X114.4 Y125.937 E5.084
G1 X114.282 Y126.389 E5.12129
G1 X114.114 Y126.824 E5.15851
G1 X113.897 Y127.257 E5.19717
G1 X113.69 Y127.575 E5.22746
G1 X113.394 Y127.952 E5.26572
G1 X113.013 Y128.347 E5.30953
G1 X112.588 Y128.677 E5.35248
G1 X112.252 Y128.901 E5.38472
G1 X111.745 Y129.146 E5.42967
G1 X111.312 Y129.301 E5.46638
G1 X110.874 Y129.412 E5.50245
G1 X110.469 Y129.48 E5.53523
G1 X110 Y129.496 E5.57269
M204 S2000
G0 F7500 X110 Y128.9
M204 S500
G1 F1500 X109.53 Y128.872 E5.61027
G1 X109.222 Y128.82 E5.6352
G1 X108.761 Y128.696 E5.67331
G1 X108.364 Y128.541 E5.70733
G1 X108.002 Y128.349 E5.74004
G1 X107.675 Y128.129 E5.7715
G1 X107.355 Y127.865 E5.80462
G1 X107.072 Y127.575 E5.83696
G1 X106.819 Y127.256 E5.86946
G1 X106.618 Y126.951 E5.89862
G1 X106.42 Y126.545 E5.93468
G1 X106.288 Y126.201 E5.96409
G1 X106.183 Y125.812 E5.99625
G1 X106.119 Y125.395 E6.02993
G1 X106.1 Y125.001 E6.06141
G1 X106.12 Y124.583 E6.09482
G1 X106.183 Y124.183 E6.12714
G1 X106.304 Y123.751 E6.16295
G1 X106.438 Y123.408 E6.19235
G1 X106.624 Y123.041 E6.22519
G1 X106.843 Y122.706 E6.25714
G1 X107.106 Y122.385 E6.29027
G1 X107.385 Y122.106 E6.32176
G1 X107.708 Y121.841 E6.35511
G1 X108.041 Y121.623 E6.38688
G1 X108.411 Y121.437 E6.41994
G1 X108.761 Y121.3 E6.44994
G1 X109.179 Y121.184 E6.48457
G1 X109.601 Y121.119 E6.51865
G1 X110.001 Y121.1 E6.55062
G1 X110.409 Y121.12 E6.58323
G1 X110.818 Y121.184 E6.61627
G1 X111.196 Y121.287 E6.64755
G1 X111.618 Y121.452 E6.68371
G1 X111.96 Y121.623 E6.71424
G1 X112.323 Y121.868 E6.7492
G1 X112.645 Y122.135 E6.78259
G1 X112.894 Y122.385 E6.81075
G1 X113.157 Y122.706 E6.84388
G1 X113.372 Y123.041 E6.87565
G1 X113.562 Y123.408 E6.90864
G1 X113.696 Y123.751 E6.93804
G1 X113.813 Y124.183 E6.97376
G1 X113.88 Y124.583 E7.00614
G1 X113.9 Y125.001 E7.03954
G1 X113.88 Y125.409 E7.07215
G1 X113.813 Y125.812 E7.10476
G1 X113.712 Y126.201 E7.13684
G1 X113.58 Y126.545 E7.16625
G1 X113.378 Y126.951 E7.20245
G1 X113.132 Y127.323 E7.23805
G1 X112.865 Y127.645 E7.27144
G1 X112.568 Y127.933 E7.30447
G1 X112.256 Y128.177 E7.33608
G1 X111.911 Y128.399 E7.36883
G1 X111.535 Y128.584 E7.40228
G1 X111.235 Y128.696 E7.42784
G1 X110.774 Y128.82 E7.46595
G1 X110.362 Y128.883 E7.49922
G1 X110 Y128.9 E7.52815
M204 S2000
G1 F2400 E6.72815
G0 F7500 X109.978 Y129.31
G0 X110 Y129.78
G0 X110 Y138.2
G0 X110 Y138.5
M204 S500
G1 F2400 E7.52815
G1 F1500 X133.5 Y138.5 E9.40402
G1 X133.5 Y127.82 E10.25654
G1 X133.289 Y128.069 E10.2826
G1 X133.01 Y128.348 E10.31409
G1 X132.689 Y128.604 E10.34687
G1 X132.266 Y128.892 E10.38771
G1 X131.821 Y129.119 E10.42759
G1 X131.312 Y129.301 E10.47074
G1 X130.874 Y129.412 E10.50681
G1 X130.468 Y129.479 E10.53966
G1 X129.925 Y129.499 E10.58303
G1 X129.503 Y129.474 E10.61678
G1 X129.122 Y129.412 E10.64759
G1 X128.684 Y129.301 E10.68366
G1 X128.161 Y129.114 E10.72799
G1 X127.672 Y128.85 E10.77235
G1 X127.417 Y128.683 E10.79668
G1 X127.05 Y128.396 E10.83387
G1 X126.658 Y128.018 E10.87734
G1 X126.319 Y127.588 E10.92105
G1 X126.093 Y127.248 E10.95364
G1 X125.886 Y126.824 E10.99131
G1 X125.718 Y126.389 E11.02853
G1 X125.596 Y125.937 E11.0659
G1 X125.533 Y125.547 E11.09744
G1 X125.501 Y125.076 E11.13512
G1 X125.519 Y124.531 E11.17865
G1 X125.597 Y124.058 E11.21691
G1 X125.714 Y123.611 E11.2538
G1 X125.89 Y123.164 E11.29215
G1 X126.073 Y122.798 E11.32481
G1 X126.348 Y122.36 E11.36609
G1 X126.663 Y121.981 E11.40543
G1 X126.981 Y121.663 E11.44133
G1 X127.298 Y121.4 E11.47421
G1 X127.738 Y121.1 E11.51672
G1 X128.168 Y120.888 E11.55499
G1 X128.551 Y120.738 E11.58782
G1 X129.036 Y120.602 E11.62803
G1 X129.449 Y120.533 E11.66145
G1 X130.001 Y120.496 E11.70562
G1 X130.547 Y120.533 E11.7493
G1 X130.856 Y120.581 E11.77426
G1 X131.312 Y120.695 E11.81178
G1 X131.762 Y120.86 E11.85004
G1 X132.25 Y121.093 E11.89321
G1 X132.7 Y121.401 E11.93674
G1 X133.069 Y121.711 E11.97521
G1 X133.5 Y122.154 E12.02454
G1 X133.5 Y107.82 E13.16875
G1 X133.289 Y108.069 E13.1948
G1 X133.01 Y108.348 E13.22629
G1 X132.689 Y108.604 E13.25907
G1 X132.266 Y108.892 E13.29992
G1 X131.821 Y109.119 E13.33979
G1 X131.312 Y109.301 E13.38294
G1 X130.874 Y109.412 E13.41901
G1 X130.468 Y109.479 E13.45186
G1 X129.925 Y109.499 E13.49523
G1 X129.52 Y109.479 E13.5276
G1 X129.036 Y109.394 E13.56683
G1 X128.551 Y109.258 E13.60704
G1 X128.168 Y109.112 E13.63976
G1 X127.739 Y108.896 E13.6781
G1 X127.354 Y108.639 E13.71505
G1 X126.981 Y108.337 E13.75336
G1 X126.659 Y108.015 E13.78971
G1 X126.361 Y107.647 E13.82751
G1 X126.101 Y107.256 E13.86499
G1 X125.886 Y106.824 E13.90351
G1 X125.718 Y106.389 E13.94073
G1 X125.596 Y105.937 E13.9781
G1 X125.533 Y105.547 E14.00964
G1 X125.501 Y105.076 E14.04732
G1 X125.519 Y104.531 E14.09085
G1 X125.597 Y104.058 E14.12911
G1 X125.714 Y103.611 E14.166
G1 X125.89 Y103.164 E14.20435
G1 X126.073 Y102.798 E14.23701
G1 X126.348 Y102.36 E14.27829
G1 X126.663 Y101.981 E14.31763
G1 X126.981 Y101.663 E14.35353
G1 X127.298 Y101.4 E14.38641
G1 X127.738 Y101.1 E14.42892
G1 X128.168 Y100.888 E14.46719
G1 X128.551 Y100.738 E14.50002
G1 X129.036 Y100.602 E14.54023
G1 X129.449 Y100.533 E14.57365
G1 X130.001 Y100.496 E14.61782
G1 X130.547 Y100.533 E14.6615
G1 X130.856 Y100.581 E14.68646
G1 X131.312 Y100.695 E14.72398
G1 X131.762 Y100.86 E14.76224
G1 X132.25 Y101.093 E14.80541
G1 X132.7 Y101.401 E14.84894
G1 X133.069 Y101.711 E14.88741
G1 X133.5 Y102.154 E14.93674
G1 X133.5 Y87.82 E16.08095
G1 X133.289 Y88.069 E16.107
G1 X133.01 Y88.348 E16.1385
G1 X132.689 Y88.604 E16.17127
G1 X132.266 Y88.892 E16.21212
G1 X131.821 Y89.119 E16.252
G1 X131.312 Y89.301 E16.29515
G1 X130.874 Y89.412 E16.33121
G1 X130.468 Y89.479 E16.36406
G1 X129.925 Y89.499 E16.40743
G1 X129.52 Y89.479 E16.4398
G1 X129.036 Y89.394 E16.47903
G1 X128.551 Y89.258 E16.51924
G1 X128.168 Y89.112 E16.55196
G1 X127.739 Y88.896 E16.5903
G1 X127.354 Y88.639 E16.62725
G1 X126.981 Y88.337 E16.66556
G1 X126.659 Y88.015 E16.70191
G1 X126.361 Y87.647 E16.73971
G1 X126.101 Y87.256 E16.77719
G1 X125.886 Y86.824 E16.81571
G1 X125.718 Y86.389 E16.85293
G1 X125.602 Y85.961 E16.88833
G1 X125.519 Y85.459 E16.92894
G1 X125.501 Y84.926 E16.97151
G1 X125.517 Y84.601 E16.99749
G1 X125.582 Y84.137 E17.03489
G1 X125.713 Y83.61 E17.07824
G1 X125.922 Y83.097 E17.12245
G1 X126.146 Y82.673 E17.16073
G1 X126.409 Y82.286 E17.19808
G1 X126.711 Y81.931 E17.23529
G1 X127.154 Y81.5 E17.28462
G1 X112.822 Y81.501 E18.42867
G1 X113.069 Y81.711 E18.45455
G1 X113.387 Y82.039 E18.49101
G1 X113.654 Y82.363 E18.52453
G1 X113.923 Y82.798 E18.56535
G1 X114.071 Y83.082 E18.59092
G1 X114.286 Y83.609 E18.63635
G1 X114.411 Y84.119 E18.67827
G1 X114.48 Y84.523 E18.71098
G1 X114.499 Y85.076 E18.75515
G1 X114.478 Y85.486 E18.78792
G1 X114.394 Y85.961 E18.82643
G1 X114.282 Y86.389 E18.86174
G1 X114.114 Y86.824 E18.89896
G1 X113.895 Y87.256 E18.93763
G1 X113.681 Y87.589 E18.96922
G1 X113.341 Y88.015 E19.01273
G1 X113.015 Y88.341 E19.04953
G1 X112.641 Y88.64 E19.08776
G1 X112.264 Y88.89 E19.12386
G1 X111.819 Y89.119 E19.16381
G1 X111.312 Y89.301 E19.20681
G1 X110.946 Y89.398 E19.23704
G1 X110.47 Y89.477 E19.27555
G1 X110.001 Y89.503 E19.31305
G1 X109.526 Y89.477 E19.35102
G1 X109.05 Y89.398 E19.38954
G1 X108.551 Y89.258 E19.43091
G1 X108.168 Y89.112 E19.46363
G1 X107.739 Y88.896 E19.50197
G1 X107.354 Y88.639 E19.53892
G1 X106.981 Y88.337 E19.57723
G1 X106.659 Y88.015 E19.61358
G1 X106.361 Y87.647 E19.65138
G1 X106.101 Y87.256 E19.68886
G1 X105.886 Y86.824 E19.72738
G1 X105.718 Y86.389 E19.7646
G1 X105.602 Y85.961 E19.8
G1 X105.519 Y85.459 E19.84061
G1 X105.501 Y84.926 E19.88319
G1 X105.517 Y84.601 E19.90916
G1 X105.582 Y84.137 E19.94656
G1 X105.713 Y83.61 E19.98991
G1 X105.922 Y83.097 E20.03413
G1 X106.146 Y82.673 E20.0724
G1 X106.409 Y82.286 E20.10975
G1 X106.711 Y81.931 E20.14696
G1 X107.154 Y81.5 E20.1963
G1 X92.822 Y81.501 E21.34034
G1 X93.069 Y81.711 E21.36622
G1 X93.387 Y82.039 E21.40268
G1 X93.654 Y82.363 E21.4362
G1 X93.923 Y82.798 E21.47702
G1 X94.071 Y83.082 E21.50259
G1 X94.286 Y83.609 E21.54802
G1 X94.411 Y84.119 E21.58994
G1 X94.48 Y84.523 E21.62265
G1 X94.499 Y85.076 E21.66682
G1 X94.478 Y85.486 E21.69959
G1 X94.394 Y85.961 E21.7381
G1 X94.282 Y86.389 E21.77341
G1 X94.114 Y86.824 E21.81064
G1 X93.895 Y87.256 E21.8493
G1 X93.681 Y87.589 E21.8809
G1 X93.341 Y88.015 E21.9244
G1 X93.015 Y88.341 E21.96121
G1 X92.641 Y88.64 E21.99943
G1 X92.264 Y88.89 E22.03554
G1 X91.819 Y89.119 E22.07549
G1 X91.312 Y89.301 E22.11849
G1 X90.961 Y89.394 E22.14747
G1 X90.475 Y89.48 E22.18687
G1 X89.925 Y89.499 E22.2308
G1 X89.43 Y89.464 E22.27041
G1 X88.98 Y89.381 E22.30694
G1 X88.551 Y89.258 E22.34256
G1 X88.16 Y89.112 E22.37588
G1 X87.672 Y88.851 E22.42005
G1 X87.416 Y88.683 E22.4445
G1 X87.05 Y88.396 E22.48162
G1 X86.711 Y88.069 E22.51922
G1 X86.501 Y87.822 E22.5451
G1 X86.5 Y102.177 E23.69098
G1 X86.711 Y101.931 E23.71685
G1 X87.039 Y101.613 E23.75332
G1 X87.416 Y101.313 E23.79177
G1 X87.748 Y101.095 E23.82348
G1 X88.234 Y100.861 E23.86654
G1 X88.684 Y100.695 E23.90482
G1 X89.141 Y100.581 E23.94242
G1 X89.449 Y100.533 E23.9673
G1 X89.925 Y100.501 E24.00539
G1 X90.468 Y100.52 E24.04876
G1 X90.961 Y100.602 E24.08865
G1 X91.445 Y100.738 E24.12878
G1 X91.824 Y100.886 E24.16126
G1 X92.264 Y101.102 E24.20039
G1 X92.641 Y101.356 E24.23667
G1 X93.015 Y101.659 E24.2751
G1 X93.337 Y101.981 E24.31145
G1 X93.64 Y102.35 E24.34956
G1 X93.891 Y102.741 E24.38665
G1 X94.078 Y103.097 E24.41875
G1 X94.288 Y103.613 E24.46322
G1 X94.399 Y104.058 E24.49983
G1 X94.48 Y104.524 E24.53758
G1 X94.499 Y105.076 E24.58167
G1 X94.477 Y105.47 E24.61317
G1 X94.4 Y105.937 E24.65095
G1 X94.282 Y106.389 E24.68824
G1 X94.114 Y106.824 E24.72547
G1 X93.895 Y107.256 E24.76413
G1 X93.681 Y107.589 E24.79573
G1 X93.341 Y108.015 E24.83923
