;FLAVOR:Marlin
;TIME:510
;Filament used: 0.497983m
;Layer height: 0.2
;MINX:100.299
;MINY:97.6
;MINZ:0.2
;MAXX:119.702
;MAXY:122.4
;MAXZ:3.8
;TARGET_MACHINE.NAME:Creality Ender-3 S1
;Generated with Cura_SteamEngine 5.9.0
M82 ;absolute extrusion mode
; Ender 3 S1 Start G-code
; M413 S0 ; Disable power loss recovery
M201 X500.00 Y500.00 Z100.00 E5000.00 ;Setup machine max acceleration
M203 X500.00 Y500.00 Z20.00 E50.00 ;Setup machine max feedrate
M204 P500.00 R1000.00 T500.00 ;Setup Print/Retract/Travel acceleration
M205 X8.00 Y8.00 Z0.40 E5.00 ;Setup Jerk
M220 S100 ;Reset Feedrate
M221 S100 ;Reset Flowrate
G92 E0 ; Reset Extruder

; Prep surfaces before auto home for better accuracy
M140 S60
M104 S200
G92 E0 ; Reset Extruder
G28 ; Home all axes
M420 S1 Z10; Use Level Mesh up to 2mm;
G1 Z10.0 F3000 ; Move Z Axis up little to prevent scratching of Heat Bed
G1 X0 Y0

M190 S60
M109 S200

G1 X0.1 Y20 Z0.3 F5000.0 ; Move to start position
G1 X0.1 Y200.0 Z0.3 F1500.0 E15 ; Draw the first line
G1 X0.4 Y200.0 Z0.3 F5000.0 ; Move to side a little
G1 X0.4 Y20 Z0.3 F1500.0 E30 ; Draw the second line
G92 E0 ; Reset Extruder
G1 Z2.0 F3000 ; Move Z Axis up little to prevent scratching of Heat Bed
G1 X5 Y20 Z0.3 F5000.0 ; Move over to prevent blob squish
G92 E0
G92 E0
G1 F2400 E-0.8
;LAYER_COUNT:19
;LAYER:0
M107
M204 S2000
;MESH:mpu_6050_holder_horiz.stl
G0 F7500 X110 Y116.612 Z0.2
M204 S500
;TYPE:WALL-INNER
G1 F2400 E0
G1 F1500 X110.377 Y116.613 E0.01881
G1 X111.138 Y116.777 E0.05765
G1 X111.369 Y116.875 E0.07017
G1 X111.959 Y117.217 E0.10419
G1 X112.219 Y117.41 E0.12034
G1 X112.743 Y117.981 E0.15901
G1 X113.082 Y118.56 E0.19248
G1 X113.219 Y118.872 E0.20948
G1 X113.38 Y119.596 E0.24648
G1 X113.388 Y120.296 E0.28141
G1 X113.337 Y120.685 E0.30098
G1 X113.2 Y121.2 E0.32757
G1 X118.5 Y121.2 E0.59199
G1 X118.5 Y118.252 E0.73906
G1 X118.017 Y118.355 E0.7637
G1 X117.704 Y118.388 E0.77941
G1 X117.116 Y118.383 E0.80874
G1 X116.499 Y118.252 E0.84021
G1 X116.065 Y118.086 E0.86339
G1 X115.549 Y117.789 E0.8931
G1 X115.273 Y117.586 E0.91019
G1 X114.753 Y117.014 E0.94876
G1 X114.414 Y116.436 E0.98219
G1 X114.276 Y116.121 E0.99934
G1 X114.11 Y115.368 E1.03781
G1 X114.111 Y114.603 E1.07598
G1 X114.15 Y114.345 E1.089
G1 X114.305 Y113.767 E1.11885
G1 X114.409 Y113.507 E1.13282
G1 X114.854 Y112.828 E1.17333
G1 X115.498 Y112.239 E1.21687
G1 X116.171 Y111.848 E1.2557
G1 X116.479 Y111.751 E1.27181
G1 X116.968 Y111.643 E1.29679
G1 X117.292 Y111.608 E1.31305
G1 X117.696 Y111.608 E1.33321
G1 X118.009 Y111.641 E1.34891
G1 X118.497 Y111.742 E1.37377
G1 X118.5 Y98.8 E2.01945
G1 X113.174 Y98.8 E2.28516
G1 X113.251 Y98.999 E2.29581
G1 X113.356 Y99.487 E2.32071
G1 X113.388 Y99.8 E2.33641
G1 X113.388 Y100.296 E2.36116
G1 X113.337 Y100.685 E2.38073
G1 X113.234 Y101.073 E2.40076
G1 X113.085 Y101.431 E2.4201
G1 X112.79 Y101.947 E2.44976
G1 X112.606 Y102.213 E2.46589
G1 X112.112 Y102.655 E2.49896
G1 X111.875 Y102.828 E2.5136
G1 X111.241 Y103.195 E2.55015
G1 X110.387 Y103.383 E2.59378
G1 X109.635 Y103.386 E2.63129
G1 X108.889 Y103.224 E2.66938
G1 X108.659 Y103.135 E2.68168
G1 X108.049 Y102.79 E2.71665
G1 X107.788 Y102.613 E2.73238
G1 X107.341 Y102.112 E2.76588
G1 X107.162 Y101.865 E2.7811
G1 X106.834 Y101.298 E2.81378
G1 X106.744 Y100.997 E2.82945
G1 X106.641 Y100.509 E2.85433
G1 X106.608 Y100.196 E2.87004
G1 X106.608 Y99.7 E2.89478
G1 X106.659 Y99.313 E2.91426
G1 X106.8 Y98.801 E2.94075
G1 X101.5 Y98.8 E3.20517
G1 X101.501 Y111.746 E3.85105
G1 X101.967 Y111.643 E3.87486
G1 X102.292 Y111.608 E3.89116
G1 X102.696 Y111.608 E3.91132
G1 X103.007 Y111.64 E3.92692
G1 X103.499 Y111.744 E3.95201
G1 X103.824 Y111.844 E3.96897
G1 X104.652 Y112.335 E4.017
G1 X105.208 Y112.946 E4.05821
G1 X105.354 Y113.164 E4.0713
G1 X105.626 Y113.641 E4.0987
G1 X105.72 Y113.876 E4.11132
G1 X105.885 Y114.638 E4.15022
G1 X105.889 Y115.473 E4.19188
G1 X105.734 Y116.073 E4.2228
G1 X105.646 Y116.314 E4.2356
G1 X105.245 Y117.018 E4.27602
G1 X105.096 Y117.222 E4.28862
G1 X104.522 Y117.736 E4.32706
G1 X103.955 Y118.076 E4.36005
G1 X103.505 Y118.251 E4.38413
G1 X102.875 Y118.385 E4.41627
G1 X102.3 Y118.388 E4.44495
G1 X101.987 Y118.355 E4.46066
G1 X101.499 Y118.251 E4.48555
G1 X101.501 Y121.199 E4.63263
G1 X106.823 Y121.2 E4.89814
G1 X106.745 Y120.997 E4.90899
G1 X106.641 Y120.509 E4.93389
G1 X106.608 Y120.196 E4.94959
G1 X106.611 Y119.505 E4.98406
G1 X106.786 Y118.833 E5.01871
G1 X106.908 Y118.521 E5.03542
G1 X107.255 Y117.977 E5.06761
G1 X107.412 Y117.775 E5.08037
G1 X107.965 Y117.265 E5.11791
G1 X108.586 Y116.898 E5.15389
G1 X108.885 Y116.775 E5.17002
G1 X109.625 Y116.611 E5.20784
G1 X110 Y116.612 E5.22655
M204 S2000
G0 F7500 X110 Y117.209
M204 S500
G1 F1500 X110.294 Y117.208 E5.24121
G1 X111.033 Y117.371 E5.27897
G1 X111.765 Y117.799 E5.32127
G1 X112.262 Y118.344 E5.35807
G1 X112.63 Y118.974 E5.39447
G1 X112.784 Y119.713 E5.43213
G1 X112.789 Y120.414 E5.46711
G1 X112.625 Y121.028 E5.49881
G1 X112.27 Y121.648 E5.53446
G1 X112.145 Y121.8 E5.54428
G1 X119.1 Y121.8 E5.89126
G1 X119.1 Y117.289 E6.11632
G1 X118.65 Y117.559 E6.1425
G1 X118.38 Y117.665 E6.15697
G1 X117.801 Y117.788 E6.1865
G1 X117.191 Y117.786 E6.21693
G1 X116.624 Y117.665 E6.24586
G1 X116.364 Y117.565 E6.25976
G1 X115.721 Y117.197 E6.29672
G1 X115.233 Y116.649 E6.33333
G1 X114.866 Y116.022 E6.36957
G1 X114.709 Y115.296 E6.40663
G1 X114.709 Y114.577 E6.4425
G1 X114.905 Y113.843 E6.4804
G1 X115.323 Y113.209 E6.51829
G1 X115.866 Y112.723 E6.55465
G1 X116.468 Y112.368 E6.58951
G1 X117.192 Y112.208 E6.62651
G1 X117.795 Y112.208 E6.65659
G1 X118.372 Y112.331 E6.68602
G1 X118.634 Y112.432 E6.70003
G1 X119.1 Y112.7 E6.72685
G1 X119.1 Y98.2 E7.45026
G1 X112.131 Y98.2 E7.79794
G1 X112.315 Y98.432 E7.81272
G1 X112.563 Y98.86 E7.8374
G1 X112.664 Y99.124 E7.8515
G1 X112.788 Y99.7 E7.88089
G1 X112.788 Y100.418 E7.91671
G1 X112.624 Y101.028 E7.94823
G1 X112.195 Y101.777 E7.99129
G1 X111.643 Y102.269 E8.02818
G1 X111.022 Y102.631 E8.06404
G1 X110.313 Y102.785 E8.10024
G1 X109.695 Y102.787 E8.13107
G1 X108.985 Y102.632 E8.16733
G1 X108.221 Y102.196 E8.21121
G1 X107.728 Y101.644 E8.24814
G1 X107.361 Y101.011 E8.28464
G1 X107.208 Y100.295 E8.32117
G1 X107.208 Y99.581 E8.35679
G1 X107.366 Y98.988 E8.38741
G1 X107.481 Y98.728 E8.40159
G1 X107.826 Y98.2 E8.43306
G1 X100.9 Y98.2 E8.7786
G1 X100.9 Y112.705 E9.50226
G1 X101.351 Y112.437 E9.52843
G1 X101.609 Y112.337 E9.54223
G1 X102.192 Y112.208 E9.57202
G1 X102.793 Y112.208 E9.60201
G1 X103.518 Y112.361 E9.63898
G1 X104.28 Y112.811 E9.68313
G1 X104.765 Y113.35 E9.7193
G1 X105.139 Y113.993 E9.75641
G1 X105.286 Y114.734 E9.7941
G1 X105.288 Y115.405 E9.82758
G1 X105.128 Y116.016 E9.85909
G1 X104.693 Y116.778 E9.90286
G1 X104.159 Y117.256 E9.93862
G1 X103.65 Y117.559 E9.96817
G1 X103.38 Y117.665 E9.98264
G1 X102.809 Y117.786 E10.01176
G1 X102.203 Y117.788 E10.042
G1 X101.624 Y117.665 E10.07153
G1 X101.364 Y117.565 E10.08542
G1 X100.9 Y117.298 E10.11213
G1 X100.901 Y121.799 E10.33669
G1 X107.867 Y121.8 E10.68422
G1 X107.68 Y121.564 E10.69925
G1 X107.433 Y121.136 E10.7239
G1 X107.331 Y120.872 E10.73802
G1 X107.208 Y120.294 E10.7675
G1 X107.209 Y119.587 E10.80277
G1 X107.402 Y118.851 E10.84073
G1 X107.811 Y118.22 E10.87825
G1 X108.33 Y117.744 E10.91338
G1 X108.967 Y117.37 E10.95024
G1 X109.688 Y117.21 E10.98708
G1 X110 Y117.209 E11.00265
M204 S2000
G0 F7500 X110 Y117.809
M204 S500
;TYPE:WALL-OUTER
G1 F1500 X110.222 Y117.809 E11.01372
G1 X110.786 Y117.928 E11.04248
G1 X111.389 Y118.274 E11.07717
G1 X111.785 Y118.715 E11.10674
G1 X112.062 Y119.198 E11.13452
G1 X112.187 Y119.771 E11.16377
G1 X112.188 Y120.336 E11.19196
G1 X112.063 Y120.802 E11.21603
G1 X111.725 Y121.391 E11.24991
G1 X111.265 Y121.795 E11.28046
G1 F1465.8 X110.758 Y122.092 E11.31046
G1 F1243.1 X110.274 Y122.291 E11.34196
G1 F1178 X110.865 Y122.4 E11.38014
G1 F1289.4 X112.632 Y122.4 E11.48269
G1 F1331.4 X114.399 Y122.4 E11.58201
G1 F1376.1 X116.166 Y122.4 E11.6781
G1 F1421.8 X117.933 Y122.4 E11.77111
G1 F1473 X119.7 Y122.4 E11.86088
G1 F1495 X119.699 Y115.778 E12.19236
G1 F1475.4 X119.692 Y115.349 E12.21412
G1 F1480.3 X119.566 Y115.797 E12.23765
G1 F1500 X119.224 Y116.393 E12.27193
G1 X118.765 Y116.795 E12.30237
G1 X118.303 Y117.068 E12.32914
G1 X117.767 Y117.182 E12.35648
G1 X117.278 Y117.188 E12.38088
G1 X116.703 Y117.068 E12.41018
G1 X116.108 Y116.727 E12.4444
G1 X115.711 Y116.281 E12.47419
G1 X115.429 Y115.795 E12.50222
G1 X115.308 Y115.214 E12.53183
G1 X115.308 Y114.68 E12.55847
G1 X115.453 Y114.117 E12.58747
G1 X115.775 Y113.611 E12.6174
G1 X116.211 Y113.214 E12.64681
G1 X116.69 Y112.938 E12.6744
G1 X117.259 Y112.808 E12.70351
G1 X117.759 Y112.814 E12.72846
G1 X118.291 Y112.927 E12.7556
G1 X118.889 Y113.271 E12.79001
G1 X119.225 Y113.607 E12.81372
G1 X119.569 Y114.205 E12.84814
G1 F1475.4 X119.691 Y114.736 E12.87577
G1 F1477.8 X119.7 Y114.12 E12.90697
G1 F1500 X119.7 Y97.6 E13.73116
G1 F1473 X117.934 Y97.6 E13.82088
G1 F1421.8 X116.168 Y97.6 E13.91383
G1 F1376.1 X114.402 Y97.601 E14.00987
G1 F1331.4 X112.636 Y97.601 E14.10913
G1 F1289.4 X110.87 Y97.601 E14.21163
G1 F1178 X110.28 Y97.708 E14.24972
G1 F1239.7 X110.754 Y97.901 E14.28062
G1 F1437.7 X111.395 Y98.278 E14.31932
G1 F1480.3 X111.796 Y98.733 E14.34999
G1 F1500 X112.068 Y99.203 E14.37708
G1 X112.182 Y99.737 E14.40432
G1 X112.188 Y100.335 E14.43415
G1 X112.063 Y100.802 E14.45827
G1 X111.725 Y101.391 E14.49215
G1 X111.265 Y101.795 E14.5227
G1 X110.802 Y102.067 E14.54949
G1 X110.23 Y102.187 E14.57865
G1 X109.782 Y102.188 E14.601
G1 X109.205 Y102.069 E14.63039
G1 X108.608 Y101.723 E14.66481
G1 X108.2 Y101.263 E14.69549
G1 X107.932 Y100.793 E14.72248
G1 X107.814 Y100.259 E14.74977
G1 X107.808 Y99.661 E14.7796
G1 X107.958 Y99.095 E14.80882
G1 X108.283 Y98.597 E14.83848
G1 X108.733 Y98.2 E14.86842
G1 F1465.8 X109.236 Y97.909 E14.89809
G1 F1248.3 X109.722 Y97.707 E14.92964
G1 F1184.2 X109.126 Y97.6 E14.96791
G1 F1293.1 X107.361 Y97.6 E15.07005
G1 F1333.3 X105.596 Y97.6 E15.16912
G1 F1376.1 X103.831 Y97.6 E15.2651
G1 F1424.1 X102.066 Y97.6 E15.35785
G1 F1473 X100.301 Y97.6 E15.44752
G1 F1500 X100.3 Y114.002 E16.26582
G1 F1475.4 X100.309 Y114.62 E16.29717
G1 F1463.4 X100.458 Y114.096 E16.32503
G1 F1487.6 X100.78 Y113.601 E16.35474
G1 F1500 X101.182 Y113.237 E16.38179
G1 X101.69 Y112.934 E16.4113
G1 X102.26 Y112.808 E16.44043
G1 X102.759 Y112.814 E16.46532
G1 X103.302 Y112.934 E16.49307
G1 X103.894 Y113.278 E16.52723
G1 X104.271 Y113.696 E16.55531
G1 X104.567 Y114.201 E16.58451
G1 X104.686 Y114.758 E16.61293
G1 X104.684 Y115.351 E16.64251
G1 X104.557 Y115.81 E16.66627
G1 X104.225 Y116.39 E16.69962
G1 X103.765 Y116.795 E16.73019
G1 X103.302 Y117.068 E16.75701
G1 X102.726 Y117.188 E16.78636
G1 X102.237 Y117.182 E16.81076
G1 X101.702 Y117.068 E16.83805
G1 X101.105 Y116.725 E16.8724
G1 X100.7 Y116.263 E16.90305
G1 X100.428 Y115.793 E16.93014
G1 F1485.1 X100.306 Y115.248 E16.95829
G1 X100.301 Y122.399 E17.31862
G1 F1473 X102.067 Y122.399 E17.40834
G1 F1421.8 X103.833 Y122.399 E17.50129
G1 F1374 X105.599 Y122.399 E17.59747
G1 F1329.4 X107.365 Y122.399 E17.69689
G1 F1287.6 X109.131 Y122.399 E17.79953
G1 F1176.5 X109.714 Y122.289 E17.83727
G1 F1236.3 X109.245 Y122.095 E17.86799
G1 F1437.7 X108.602 Y121.724 E17.90663
G1 F1480.3 X108.2 Y121.263 E17.93756
G1 F1500 X107.928 Y120.793 E17.96465
G1 X107.814 Y120.259 E17.99189
G1 X107.813 Y119.643 E18.02262
G1 X107.959 Y119.104 E18.05048
G1 X108.292 Y118.591 E18.081
G1 X108.682 Y118.237 E18.10727
G1 X109.192 Y117.933 E18.13689
G1 X109.771 Y117.808 E18.16645
G1 X110 Y117.809 E18.17787
M204 S2000
G1 F2400 E17.37787
G0 F7500 X109.999 Y116.8
G0 X108.498 Y117.936
G0 X108.015 Y118.373
G0 X107.641 Y118.949
G0 X107.461 Y119.619
G0 X107.461 Y120.267
G0 X107.601 Y120.923
G0 X107.935 Y121.501
G0 X108.298 Y121.903
G0 X108.525 Y122.065
G0 X109.714 Y122.289
M204 S500
G1 F2400 E18.17787
G1 F1098.9 X110.274 Y122.291 E18.21601
M204 S2000
G1 F2400 E17.41601
G0 F7500 X111.475 Y122.064
G0 X118.228 Y120.928
G0 X118.99 Y117.048
G0 X119.692 Y115.349
M204 S500
G1 F2400 E18.21601
G1 F1458.7 X119.691 Y114.736 E18.24746
M204 S2000
G1 F2400 E17.44746
G0 F7500 X100.309 Y114.62
M204 S500
G1 F2400 E18.24746
G1 F1461 X100.306 Y115.248 E18.27962
M204 S2000
G1 F2400 E17.47962
G0 F7500 X100.618 Y113.321
G0 X109.722 Y97.707
M204 S500
G1 F2400 E18.27962
G1 F1102.9 X110.28 Y97.708 E18.31748
M204 S2000
G1 F2400 E17.51748
G0 F7500 X111.475 Y97.935
G0 X118.624 Y98.676
G0 X118.602 Y111.805
G0 X113.897 Y114.282
G0 X116.447 Y118.507
G0 X118.602 Y118.192
G0 X118.624 Y121.324
G0 X113.158 Y121.294
G0 X112.565 Y118.244
G0 X109.999 Y116.412
G0 X110 Y116.075
M204 S500
;TYPE:SKIN
G1 F2400 E18.31748
G1 F1500 X109.569 Y116.073 E18.33899
G1 X108.669 Y116.268 E18.38493
G1 X108.318 Y116.427 E18.40415
G1 X107.698 Y116.795 E18.44012
G1 X107.431 Y117.02 E18.45754
G1 F1359.5 X107.126 Y117.217 E18.47753
G1 F1111.1 X106.879 Y117.338 E18.49606
G1 F1018.1 X106.707 Y117.576 E18.51764
G1 F1026.2 X106.339 Y118.14 E18.56675
G1 F1116.6 X106.263 Y118.459 E18.58873
G1 F1327.4 X106.284 Y118.547 E18.59383
G1 F1465.8 X106.2 Y118.934 E18.61405
G1 F1500 X106.072 Y119.441 E18.64013
G1 X106.069 Y120.222 E18.6791
G1 X106.12 Y120.66 E18.7011
G1 X102.04 Y120.656 E18.90465
G1 X102.04 Y118.902 E18.99216
G1 X102.272 Y118.927 E19.0038
G1 X102.952 Y118.916 E19.03773
G1 X103.614 Y118.778 E19.07147
G1 X104.189 Y118.56 E19.10214
G1 X104.832 Y118.177 E19.13948
G1 F1465.8 X105.18 Y117.885 E19.16268
G1 F1250 X105.53 Y117.693 E19.18658
G1 F1062.6 X105.601 Y117.667 E19.1919
G1 F1030.9 X105.79 Y117.409 E19.21512
G1 F1022.7 X106.14 Y116.84 E19.264
G1 F1204.8 X106.25 Y116.228 E19.30262
G1 F1500 X106.388 Y115.681 E19.33077
G1 X106.428 Y115.342 E19.3478
G1 X106.423 Y114.586 E19.38551
G1 X106.278 Y113.878 E19.42157
G1 X106.16 Y113.483 E19.44214
G1 X105.679 Y112.657 E19.48982
G1 X105.166 Y112.093 E19.52786
G1 X104.865 Y111.838 E19.54754
G1 X104.227 Y111.454 E19.58469
G1 X103.971 Y111.329 E19.59891
G1 X103.639 Y111.221 E19.61632
G1 X103.119 Y111.11 E19.64285
G1 X102.722 Y111.069 E19.66276
G1 X102.04 Y111.069 E19.69679
G1 X102.041 Y99.341 E20.2819
G1 X106.113 Y99.34 E20.48505
G1 X106.07 Y99.66 E20.50116
G1 X106.069 Y100.227 E20.52945
G1 X106.105 Y100.583 E20.5473
G1 X106.261 Y101.324 E20.58508
G1 X106.432 Y101.688 E20.60514
G1 X106.684 Y102.124 E20.63027
G1 X106.92 Y102.452 E20.65043
G1 X107.263 Y102.84 E20.67626
G1 X107.498 Y103.063 E20.69243
G1 X107.787 Y103.261 E20.7099
G1 X108.417 Y103.619 E20.74606
G1 X108.74 Y103.741 E20.76328
G1 X109.599 Y103.925 E20.80711
G1 X110.42 Y103.921 E20.84807
G1 X111.265 Y103.742 E20.89116
G1 X111.579 Y103.619 E20.90799
G1 X112.142 Y103.297 E20.94034
G1 X112.454 Y103.071 E20.95956
G1 X112.861 Y102.708 E20.98677
G1 X113.053 Y102.508 E21.0006
G1 X113.244 Y102.239 E21.01706
G1 X113.553 Y101.702 E21.04797
G1 X113.754 Y101.211 E21.07444
G1 X113.858 Y100.827 E21.09429
G1 X113.926 Y100.336 E21.11902
G1 X113.927 Y99.767 E21.14741
G1 X113.876 Y99.34 E21.16886
G1 X117.96 Y99.34 E21.37261
G1 X117.96 Y111.069 E21.95778
G1 X117.264 Y111.069 E21.9925
G1 X116.884 Y111.109 E22.01156
G1 X116.339 Y111.229 E22.0394
G1 X115.941 Y111.351 E22.06017
G1 X115.147 Y111.826 E22.10633
G1 X114.546 Y112.369 E22.14674
G1 X114.325 Y112.64 E22.16419
G1 X113.948 Y113.232 E22.1992
G1 X113.818 Y113.506 E22.21433
G1 X113.622 Y114.212 E22.25089
G1 X113.568 Y114.556 E22.26826
G1 X113.568 Y115.3 E22.30538
G1 X113.607 Y115.595 E22.32023
G1 X113.773 Y116.354 E22.35899
G1 F1363.6 X113.881 Y116.716 E22.37972
G1 F1222.8 X113.88 Y116.746 E22.38156
G1 F1102.9 X113.964 Y117.018 E22.40087
G1 F1020.4 X114.23 Y117.452 E22.4382
G1 F1190.5 X114.678 Y117.759 E22.47234
G1 F1461 X114.985 Y118.062 E22.49444
G1 F1500 X115.261 Y118.246 E22.51099
G1 X115.832 Y118.569 E22.54372
G1 X116.344 Y118.765 E22.57107
G1 X117.029 Y118.914 E22.60604
G1 X117.731 Y118.927 E22.64107
G1 X117.96 Y118.904 E22.65255
G1 X117.96 Y120.659 E22.74011
G1 X113.883 Y120.656 E22.94351
G1 X113.926 Y120.336 E22.95962
G1 X113.916 Y119.551 E22.99879
G1 F1461 X113.681 Y118.489 E23.0545
G1 F1190.5 X113.523 Y117.969 E23.08866
G1 F1020.4 X113.26 Y117.538 E23.12569
G1 F1123.6 X112.969 Y117.339 E23.14917
