;FLAVOR:Marlin
;TIME:485
;Filament used: 0.541571m
;Layer height: 0.2
;MINX:106.324
;MINY:82.799
;MINZ:0.2
;MAXX:114.64
;MAXY:138.153
;MAXZ:7
;TARGET_MACHINE.NAME:Creality Ender-3 S1
;Generated with Cura_SteamEngine 5.9.0
M82 ;absolute extrusion mode
; Ender 3 S1 Start G-code
; M413 S0 ; Disable power loss recovery
M201 X500.00 Y500.00 Z100.00 E5000.00 ;Setup machine max acceleration
M203 X500.00 Y500.00 Z20.00 E50.00 ;Setup machine max feedrate
M204 P500.00 R1000.00 T500.00 ;Setup Print/Retract/Travel acceleration
M205 X8.00 Y8.00 Z0.40 E5.00 ;Setup Jerk
M220 S100 ;Reset Feedrate
M221 S100 ;Reset Flowrate
G92 E0 ; Reset Extruder

; Prep surfaces before auto home for better accuracy
M140 S60
M104 S200
G92 E0 ; Reset Extruder
G28 ; Home all axes
M420 S1 Z10; Use Level Mesh up to 2mm;
G1 Z10.0 F3000 ; Move Z Axis up little to prevent scratching of Heat Bed
G1 X0 Y0

M190 S60
M109 S200

G1 X0.1 Y20 Z0.3 F5000.0 ; Move to start position
G1 X0.1 Y200.0 Z0.3 F1500.0 E15 ; Draw the first line
G1 X0.4 Y200.0 Z0.3 F5000.0 ; Move to side a little
G1 X0.4 Y20 Z0.3 F1500.0 E30 ; Draw the second line
G92 E0 ; Reset Extruder
G1 Z2.0 F3000 ; Move Z Axis up little to prevent scratching of Heat Bed
G1 X5 Y20 Z0.3 F5000.0 ; Move over to prevent blob squish
G92 E0
G92 E0
G1 F2400 E-0.8
;LAYER_COUNT:35
;LAYER:0
M107
M204 S2000
;MESH:nikodembartnik-98-distance_HS_55mm.stl
G0 F7500 X110 Y136 Z0.2
M204 S500
;TYPE:WALL-INNER
G1 F2400 E0
G1 F1500 X112.472 Y136 E0.12333
G1 X112.472 Y84 E2.71762
G1 X107.524 Y84 E2.96448
G1 X107.524 Y136 E5.55877
G1 X110 Y136 E5.68229
M204 S2000
G0 F7500 X110 Y136.6
M204 S500
G1 F1500 X113.072 Y136.6 E5.83556
G1 X113.072 Y83.4 E8.48972
G1 X106.924 Y83.4 E8.79644
G1 X106.924 Y136.6 E11.4506
G1 X110 Y136.6 E11.60406
M204 S2000
G0 F7500 X110 Y137.2
M204 S500
;TYPE:WALL-OUTER
G1 F1500 X113.672 Y137.2 E11.78726
G1 X113.672 Y82.8 E14.50129
G1 X106.324 Y82.8 E14.86788
G1 X106.324 Y137.2 E17.58191
G1 X110 Y137.2 E17.7653
M204 S2000
G0 F7500 X110 Y136.19
G0 X110 Y135.8
G0 X110 Y135.46
M204 S500
;TYPE:SKIN
G1 F1500 X108.064 Y135.46 E17.86189
G1 X108.064 Y84.54 E20.4023
G1 X111.932 Y84.54 E20.59527
G1 X111.932 Y135.46 E23.13568
G1 X110 Y135.46 E23.23207
M204 S2000
G0 F7500 X110 Y135.8
G0 X107.796 Y135.728
G0 X107.724 Y134.668
G0 X108.363 Y134.668
M204 S500
G1 F1500 X108.856 Y135.16 E23.26682
M204 S2000
G0 F7500 X109.704 Y135.16
M204 S500
G1 F1500 X108.363 Y133.819 E23.36143
M204 S2000
G0 F7500 X108.363 Y132.971
M204 S500
G1 F1500 X110.553 Y135.16 E23.51592
M204 S2000
G0 F7500 X111.401 Y135.16
M204 S500
G1 F1500 X108.363 Y132.122 E23.73026
M204 S2000
G0 F7500 X108.363 Y131.274
M204 S500
G1 F1500 X111.632 Y134.543 E23.96091
M204 S2000
G0 F7500 X111.632 Y133.694
M204 S500
G1 F1500 X108.363 Y130.425 E24.19155
M204 S2000
G0 F7500 X108.363 Y129.577
M204 S500
G1 F1500 X111.632 Y132.846 E24.4222
M204 S2000
G0 F7500 X111.632 Y131.997
M204 S500
G1 F1500 X108.363 Y128.728 E24.65285
M204 S2000
G0 F7500 X108.363 Y127.88
M204 S500
G1 F1500 X111.632 Y131.149 E24.88349
M204 S2000
G0 F7500 X111.632 Y130.3
M204 S500
G1 F1500 X108.363 Y127.031 E25.11414
M204 S2000
G0 F7500 X108.363 Y126.182
M204 S500
G1 F1500 X111.632 Y129.451 E25.34478
M204 S2000
G0 F7500 X111.632 Y128.603
M204 S500
G1 F1500 X108.363 Y125.334 E25.57543
M204 S2000
G0 F7500 X108.363 Y124.485
M204 S500
G1 F1500 X111.632 Y127.754 E25.80607
M204 S2000
G0 F7500 X111.632 Y126.906
M204 S500
G1 F1500 X108.363 Y123.637 E26.03672
M204 S2000
G0 F7500 X108.363 Y122.788
M204 S500
G1 F1500 X111.632 Y126.057 E26.26736
M204 S2000
G0 F7500 X111.632 Y125.209
M204 S500
G1 F1500 X108.363 Y121.94 E26.49801
M204 S2000
G0 F7500 X108.363 Y121.091
M204 S500
G1 F1500 X111.632 Y124.36 E26.72866
M204 S2000
G0 F7500 X111.632 Y123.512
M204 S500
G1 F1500 X108.363 Y120.243 E26.9593
M204 S2000
G0 F7500 X108.363 Y119.394
M204 S500
G1 F1500 X111.632 Y122.663 E27.18995
M204 S2000
G0 F7500 X111.632 Y121.815
M204 S500
G1 F1500 X108.363 Y118.546 E27.42059
M204 S2000
G0 F7500 X108.363 Y117.697
M204 S500
G1 F1500 X111.632 Y120.966 E27.65124
M204 S2000
G0 F7500 X111.632 Y120.118
M204 S500
G1 F1500 X108.363 Y116.849 E27.88188
M204 S2000
G0 F7500 X108.363 Y116
M204 S500
G1 F1500 X111.632 Y119.269 E28.11253
M204 S2000
G0 F7500 X111.632 Y118.421
M204 S500
G1 F1500 X108.363 Y115.152 E28.34318
M204 S2000
G0 F7500 X108.363 Y114.303
M204 S500
G1 F1500 X111.632 Y117.572 E28.57382
M204 S2000
G0 F7500 X111.632 Y116.724
M204 S500
G1 F1500 X108.363 Y113.455 E28.80447
M204 S2000
G0 F7500 X108.363 Y112.606
M204 S500
G1 F1500 X111.632 Y115.875 E29.03511
M204 S2000
G0 F7500 X111.632 Y115.026
M204 S500
G1 F1500 X108.363 Y111.758 E29.26572
M204 S2000
G0 F7500 X108.363 Y110.909
M204 S500
G1 F1500 X111.632 Y114.178 E29.49637
M204 S2000
G0 F7500 X111.632 Y113.329
M204 S500
G1 F1500 X108.363 Y110.06 E29.72701
M204 S2000
G0 F7500 X108.363 Y109.212
M204 S500
G1 F1500 X111.632 Y112.481 E29.95766
M204 S2000
G0 F7500 X111.632 Y111.632
M204 S500
G1 F1500 X108.363 Y108.363 E30.1883
M204 S2000
G0 F7500 X108.363 Y107.515
M204 S500
G1 F1500 X111.632 Y110.784 E30.41895
M204 S2000
G0 F7500 X111.632 Y109.935
M204 S500
G1 F1500 X108.363 Y106.666 E30.6496
M204 S2000
G0 F7500 X108.363 Y105.818
M204 S500
G1 F1500 X111.632 Y109.087 E30.88024
M204 S2000
G0 F7500 X111.632 Y108.238
M204 S500
G1 F1500 X108.363 Y104.969 E31.11089
M204 S2000
G0 F7500 X108.363 Y104.121
M204 S500
G1 F1500 X111.632 Y107.39 E31.34153
M204 S2000
G0 F7500 X111.632 Y106.541
M204 S500
G1 F1500 X108.363 Y103.272 E31.57218
M204 S2000
G0 F7500 X108.363 Y102.424
M204 S500
G1 F1500 X111.632 Y105.693 E31.80282
M204 S2000
G0 F7500 X111.632 Y104.844
M204 S500
G1 F1500 X108.363 Y101.575 E32.03347
M204 S2000
G0 F7500 X108.363 Y100.727
M204 S500
G1 F1500 X111.632 Y103.996 E32.26412
M204 S2000
G0 F7500 X111.632 Y103.147
M204 S500
G1 F1500 X108.363 Y99.878 E32.49476
M204 S2000
G0 F7500 X108.363 Y99.03
M204 S500
G1 F1500 X111.632 Y102.299 E32.72541
M204 S2000
G0 F7500 X111.632 Y101.45
M204 S500
G1 F1500 X108.363 Y98.181 E32.95605
M204 S2000
G0 F7500 X108.363 Y97.333
M204 S500
G1 F1500 X111.632 Y100.601 E33.18666
M204 S2000
G0 F7500 X111.632 Y99.753
M204 S500
G1 F1500 X108.363 Y96.484 E33.41731
M204 S2000
G0 F7500 X108.363 Y95.635
M204 S500
G1 F1500 X111.632 Y98.904 E33.64795
M204 S2000
G0 F7500 X111.632 Y98.056
M204 S500
G1 F1500 X108.363 Y94.787 E33.8786
M204 S2000
G0 F7500 X108.363 Y93.938
M204 S500
G1 F1500 X111.632 Y97.207 E34.10924
M204 S2000
G0 F7500 X111.632 Y96.359
M204 S500
G1 F1500 X108.363 Y93.09 E34.33989
M204 S2000
G0 F7500 X108.363 Y92.241
M204 S500
G1 F1500 X111.632 Y95.51 E34.57054
M204 S2000
G0 F7500 X111.632 Y94.662
M204 S500
G1 F1500 X108.363 Y91.393 E34.80118
M204 S2000
G0 F7500 X108.363 Y90.544
M204 S500
G1 F1500 X111.632 Y93.813 E35.03183
M204 S2000
G0 F7500 X111.632 Y92.965
M204 S500
G1 F1500 X108.363 Y89.696 E35.26247
M204 S2000
G0 F7500 X108.363 Y88.847
M204 S500
G1 F1500 X111.632 Y92.116 E35.49312
M204 S2000
G0 F7500 X111.632 Y91.268
M204 S500
G1 F1500 X108.363 Y87.999 E35.72376
M204 S2000
G0 F7500 X108.363 Y87.15
M204 S500
G1 F1500 X111.632 Y90.419 E35.95441
M204 S2000
G0 F7500 X111.632 Y89.571
M204 S500
G1 F1500 X108.363 Y86.302 E36.18506
M204 S2000
G0 F7500 X108.363 Y85.453
M204 S500
G1 F1500 X111.632 Y88.722 E36.4157
M204 S2000
G0 F7500 X111.632 Y87.874
M204 S500
G1 F1500 X108.599 Y84.84 E36.62973
M204 S2000
G0 F7500 X109.447 Y84.84
M204 S500
G1 F1500 X111.632 Y87.025 E36.78389
M204 S2000
G0 F7500 X111.632 Y86.177
M204 S500
G1 F1500 X110.296 Y84.84 E36.87819
M204 S2000
G0 F7500 X111.144 Y84.84
M204 S500
G1 F1500 X111.632 Y85.328 E36.91262
M104 S200
M204 S2000
G1 F2400 E36.11262
;MESH:NONMESH
G0 F300 X111.632 Y85.328 Z0.4
G0 F7500 X112.272 Y85.328
G0 X112.2 Y135.728
G0 X110 Y136
;TIME_ELAPSED:41.604221
;LAYER:1
M106 S85
M204 S500
;TYPE:WALL-INNER
;MESH:nikodembartnik-98-distance_HS_55mm.stl
G1 F2400 E36.91262
G1 F1650 X112.472 Y136 E37.03595
G1 X112.472 Y84 E39.63024
G1 X107.524 Y84 E39.8771
G1 X107.524 Y136 E42.47139
G1 X110 Y136 E42.59492
M204 S2000
G0 F8250 X110 Y136.6
M204 S500
G1 F1650 X113.072 Y136.6 E42.74818
G1 X113.072 Y83.4 E45.40234
G1 X106.924 Y83.4 E45.70906
G1 X106.924 Y136.6 E48.36322
G1 X110 Y136.6 E48.51668
M204 S2000
G0 F8250 X110 Y137.2
M204 S500
;TYPE:WALL-OUTER
G1 F1650 X113.672 Y137.2 E48.69988
G1 X113.672 Y82.8 E51.41391
G1 X106.324 Y82.8 E51.7805
G1 X106.324 Y137.2 E54.49453
G1 X110 Y137.2 E54.67792
M204 S2000
G0 F8250 X110 Y136.19
G0 X110 Y135.8
G0 X110 Y135.46
M204 S500
;TYPE:SKIN
G1 F1650 X108.064 Y135.46 E54.77451
G1 X108.064 Y84.54 E57.31492
G1 X111.932 Y84.54 E57.5079
G1 X111.932 Y135.46 E60.04831
G1 X110 Y135.46 E60.14469
M204 S2000
G0 F8250 X110 Y135.8
G0 X112.2 Y135.728
G0 X112.272 Y134.442
G0 X111.632 Y134.442
M204 S500
G1 F1650 X110.913 Y135.16 E60.19539
M204 S2000
G0 F8250 X110.065 Y135.16
M204 S500
G1 F1650 X111.632 Y133.593 E60.30595
M204 S2000
G0 F8250 X111.632 Y132.744
M204 S500
G1 F1650 X109.216 Y135.16 E60.47641
M204 S2000
G0 F8250 X108.368 Y135.16
M204 S500
G1 F1650 X111.632 Y131.896 E60.7067
M204 S2000
G0 F8250 X111.632 Y131.047
M204 S500
G1 F1650 X108.364 Y134.315 E60.93728
M204 S2000
G0 F8250 X108.364 Y133.466
M204 S500
G1 F1650 X111.632 Y130.199 E61.16782
M204 S2000
G0 F8250 X111.632 Y129.35
M204 S500
G1 F1650 X108.364 Y132.618 E61.39839
M204 S2000
G0 F8250 X108.364 Y131.769
M204 S500
G1 F1650 X111.632 Y128.502 E61.62893
M204 S2000
G0 F8250 X111.632 Y127.653
M204 S500
G1 F1650 X108.364 Y130.921 E61.85951
M204 S2000
G0 F8250 X108.364 Y130.072
M204 S500
G1 F1650 X111.632 Y126.805 E62.09005
M204 S2000
G0 F8250 X111.632 Y125.956
M204 S500
G1 F1650 X108.364 Y129.224 E62.32062
M204 S2000
G0 F8250 X108.364 Y128.375
M204 S500
G1 F1650 X111.632 Y125.108 E62.55116
M204 S2000
G0 F8250 X111.632 Y124.259
M204 S500
G1 F1650 X108.364 Y127.527 E62.78174
M204 S2000
G0 F8250 X108.364 Y126.678
M204 S500
G1 F1650 X111.632 Y123.411 E63.01228
M204 S2000
G0 F8250 X111.632 Y122.562
M204 S500
G1 F1650 X108.364 Y125.83 E63.24285
M204 S2000
G0 F8250 X108.364 Y124.981
M204 S500
G1 F1650 X111.632 Y121.714 E63.47339
M204 S2000
G0 F8250 X111.632 Y120.865
M204 S500
G1 F1650 X108.364 Y124.133 E63.70397
M204 S2000
G0 F8250 X108.364 Y123.284
M204 S500
G1 F1650 X111.632 Y120.017 E63.93451
M204 S2000
G0 F8250 X111.632 Y119.168
M204 S500
G1 F1650 X108.364 Y122.436 E64.16508
M204 S2000
G0 F8250 X108.364 Y121.587
M204 S500
G1 F1650 X111.632 Y118.319 E64.39566
M204 S2000
G0 F8250 X111.632 Y117.471
M204 S500
G1 F1650 X108.364 Y120.738 E64.6262
M204 S2000
G0 F8250 X108.364 Y119.89
M204 S500
G1 F1650 X111.632 Y116.622 E64.85677
M204 S2000
G0 F8250 X111.632 Y115.774
M204 S500
G1 F1650 X108.364 Y119.041 E65.08731
M204 S2000
G0 F8250 X108.364 Y118.193
M204 S500
G1 F1650 X111.632 Y114.925 E65.31789
M204 S2000
G0 F8250 X111.632 Y114.077
M204 S500
G1 F1650 X108.364 Y117.344 E65.54843
M204 S2000
G0 F8250 X108.364 Y116.496
M204 S500
G1 F1650 X111.632 Y113.228 E65.779
M204 S2000
G0 F8250 X111.632 Y112.38
M204 S500
G1 F1650 X108.364 Y115.647 E66.00954
M204 S2000
G0 F8250 X108.364 Y114.799
M204 S500
G1 F1650 X111.632 Y111.531 E66.24012
M204 S2000
G0 F8250 X111.632 Y110.683
M204 S500
G1 F1650 X108.364 Y113.95 E66.47066
M204 S2000
G0 F8250 X108.364 Y113.102
M204 S500
G1 F1650 X111.632 Y109.834 E66.70123
M204 S2000
G0 F8250 X111.632 Y108.986
M204 S500
G1 F1650 X108.364 Y112.253 E66.93177
M204 S2000
G0 F8250 X108.364 Y111.405
M204 S500
G1 F1650 X111.632 Y108.137 E67.16235
M204 S2000
G0 F8250 X111.632 Y107.289
M204 S500
G1 F1650 X108.364 Y110.556 E67.39289
M204 S2000
G0 F8250 X108.364 Y109.708
M204 S500
G1 F1650 X111.632 Y106.44 E67.62346
M204 S2000
G0 F8250 X111.632 Y105.592
M204 S500
G1 F1650 X108.364 Y108.859 E67.854
M204 S2000
G0 F8250 X108.364 Y108.011
M204 S500
G1 F1650 X111.632 Y104.743 E68.08458
M204 S2000
G0 F8250 X111.632 Y103.894
M204 S500
G1 F1650 X108.364 Y107.162 E68.31515
M204 S2000
G0 F8250 X108.364 Y106.314
M204 S500
G1 F1650 X111.632 Y103.046 E68.54573
M204 S2000
G0 F8250 X111.632 Y102.197
M204 S500
G1 F1650 X108.364 Y105.465 E68.7763
M204 S2000
G0 F8250 X108.364 Y104.616
M204 S500
G1 F1650 X111.632 Y101.349 E69.00684
M204 S2000
G0 F8250 X111.632 Y100.5
M204 S500
G1 F1650 X108.364 Y103.768 E69.23742
M204 S2000
G0 F8250 X108.364 Y102.919
M204 S500
G1 F1650 X111.632 Y99.652 E69.46796
M204 S2000
G0 F8250 X111.632 Y98.803
M204 S500
G1 F1650 X108.364 Y102.071 E69.69853
M204 S2000
G0 F8250 X108.364 Y101.222
M204 S500
G1 F1650 X111.632 Y97.955 E69.92907
M204 S2000
G0 F8250 X111.632 Y97.106
M204 S500
G1 F1650 X108.364 Y100.374 E70.15964
M204 S2000
G0 F8250 X108.364 Y99.525
M204 S500
G1 F1650 X111.632 Y96.258 E70.39018
M204 S2000
G0 F8250 X111.632 Y95.409
M204 S500
G1 F1650 X108.364 Y98.677 E70.62076
M204 S2000
G0 F8250 X108.364 Y97.828
M204 S500
G1 F1650 X111.632 Y94.561 E70.8513
M204 S2000
G0 F8250 X111.632 Y93.712
M204 S500
G1 F1650 X108.364 Y96.98 E71.08187
M204 S2000
G0 F8250 X108.364 Y96.131
M204 S500
G1 F1650 X111.632 Y92.864 E71.31241
M204 S2000
G0 F8250 X111.632 Y92.015
M204 S500
G1 F1650 X108.364 Y95.283 E71.54299
M204 S2000
G0 F8250 X108.364 Y94.434
M204 S500
G1 F1650 X111.632 Y91.167 E71.77353
M204 S2000
G0 F8250 X111.632 Y90.318
M204 S500
G1 F1650 X108.364 Y93.586 E72.0041
M204 S2000
G0 F8250 X108.364 Y92.737
M204 S500
G1 F1650 X111.632 Y89.47 E72.23464
M204 S2000
G0 F8250 X111.632 Y88.621
M204 S500
G1 F1650 X108.364 Y91.889 E72.46522
M204 S2000
G0 F8250 X108.364 Y91.04
M204 S500
G1 F1650 X111.632 Y87.772 E72.69579
M204 S2000
G0 F8250 X111.632 Y86.924
M204 S500
G1 F1650 X108.364 Y90.191 E72.92633
M204 S2000
G0 F8250 X108.364 Y89.343
M204 S500
G1 F1650 X111.632 Y86.075 E73.15691
M204 S2000
G0 F8250 X111.632 Y85.227
M204 S500
G1 F1650 X108.364 Y88.494 E73.38745
M204 S2000
G0 F8250 X108.364 Y87.646
M204 S500
G1 F1650 X111.17 Y84.84 E73.58543
M204 S2000
G0 F8250 X110.321 Y84.84
M204 S500
G1 F1650 X108.364 Y86.797 E73.7235
M204 S2000
G0 F8250 X108.364 Y85.949
M204 S500
G1 F1650 X109.473 Y84.84 E73.80175
M204 S2000
G0 F8250 X108.624 Y84.84
M204 S500
G1 F1650 X108.364 Y85.1 E73.82009
M204 S2000
G1 F2400 E73.02009
;MESH:NONMESH
G0 F300 X108.364 Y85.1 Z0.6
G0 F8250 X107.724 Y85.1
G0 X107.796 Y135.728
G0 X110 Y136
;TIME_ELAPSED:76.651615
;LAYER:2
M106 S170
M204 S500
;TYPE:WALL-INNER
;MESH:nikodembartnik-98-distance_HS_55mm.stl
G1 F2400 E73.82009
G1 F1800 X112.472 Y136 E73.94342
G1 X112.472 Y84 E76.53771
G1 X107.524 Y84 E76.78457
G1 X107.524 Y136 E79.37886
G1 X110 Y136 E79.50239
M204 S2000
G0 F9000 X110 Y136.6
M204 S500
G1 F1800 X113.072 Y136.6 E79.65565
G1 X113.072 Y83.4 E82.30981
G1 X106.924 Y83.4 E82.61654
G1 X106.924 Y136.6 E85.27069
G1 X110 Y136.6 E85.42416
M204 S2000
G0 F9000 X110 Y137.2
M204 S500
;TYPE:WALL-OUTER
G1 F1800 X113.672 Y137.2 E85.60735
G1 X113.672 Y82.8 E88.32138
G1 X106.324 Y82.8 E88.68797
G1 X106.324 Y137.2 E91.402
G1 X110 Y137.2 E91.5854
M204 S2000
G0 F9000 X110 Y136.19
G0 X110 Y135.8
G0 X110 Y135.46
M204 S500
;TYPE:SKIN
G1 F1800 X108.064 Y135.46 E91.68198
G1 X108.064 Y84.54 E94.22239
G1 X111.932 Y84.54 E94.41537
G1 X111.932 Y135.46 E96.95578
G1 X110 Y135.46 E97.05217
M204 S2000
G0 F9000 X110 Y135.8
G0 X107.796 Y135.728
G0 X107.724 Y134.668
G0 X108.363 Y134.668
M204 S500
G1 F1800 X108.856 Y135.16 E97.08691
M204 S2000
G0 F9000 X109.704 Y135.16
M204 S500
G1 F1800 X108.363 Y133.819 E97.18153
M204 S2000
G0 F9000 X108.363 Y132.971
M204 S500
G1 F1800 X110.553 Y135.16 E97.33601
M204 S2000
G0 F9000 X111.401 Y135.16
M204 S500
G1 F1800 X108.363 Y132.122 E97.55036
M204 S2000
G0 F9000 X108.363 Y131.274
M204 S500
G1 F1800 X111.632 Y134.543 E97.781
M204 S2000
G0 F9000 X111.632 Y133.694
M204 S500
G1 F1800 X108.363 Y130.425 E98.01165
M204 S2000
G0 F9000 X108.363 Y129.577
M204 S500
G1 F1800 X111.632 Y132.846 E98.24229
M204 S2000
G0 F9000 X111.632 Y131.997
M204 S500
G1 F1800 X108.363 Y128.728 E98.47294
M204 S2000
G0 F9000 X108.363 Y127.88
M204 S500
G1 F1800 X111.632 Y131.149 E98.70359
M204 S2000
G0 F9000 X111.632 Y130.3
M204 S500
G1 F1800 X108.363 Y127.031 E98.93423
M204 S2000
G0 F9000 X108.363 Y126.182
M204 S500
G1 F1800 X111.632 Y129.451 E99.16488
M204 S2000
G0 F9000 X111.632 Y128.603
M204 S500
G1 F1800 X108.363 Y125.334 E99.39552
