;FLAVOR:Marlin
;TIME:4377
;Filament used: 4.88406m
;Layer height: 0.2
;MINX:77.824
;MINY:73.324
;MINZ:0.2
;MAXX:142.172
;MAXY:147.64
;MAXZ:7
;TARGET_MACHINE.NAME:Creality Ender-3 S1
;Generated with Cura_SteamEngine 5.9.0
M82 ;absolute extrusion mode
; Ender 3 S1 Start G-code
; M413 S0 ; Disable power loss recovery
M201 X500.00 Y500.00 Z100.00 E5000.00 ;Setup machine max acceleration
M203 X500.00 Y500.00 Z20.00 E50.00 ;Setup machine max feedrate
M204 P500.00 R1000.00 T500.00 ;Setup Print/Retract/Travel acceleration
M205 X8.00 Y8.00 Z0.40 E5.00 ;Setup Jerk
M220 S100 ;Reset Feedrate
M221 S100 ;Reset Flowrate
G92 E0 ; Reset Extruder

; Prep surfaces before auto home for better accuracy
M140 S60
M104 S200
G92 E0 ; Reset Extruder
G28 ; Home all axes
M420 S1 Z10; Use Level Mesh up to 2mm;
G1 Z10.0 F3000 ; Move Z Axis up little to prevent scratching of Heat Bed
G1 X0 Y0

M190 S60
M109 S200

G1 X0.1 Y20 Z0.3 F5000.0 ; Move to start position
G1 X0.1 Y200.0 Z0.3 F1500.0 E15 ; Draw the first line
G1 X0.4 Y200.0 Z0.3 F5000.0 ; Move to side a little
G1 X0.4 Y20 Z0.3 F1500.0 E30 ; Draw the second line
G92 E0 ; Reset Extruder
G1 Z2.0 F3000 ; Move Z Axis up little to prevent scratching of Heat Bed
G1 X5 Y20 Z0.3 F5000.0 ; Move over to prevent blob squish
G92 E0
G92 E0
G1 F2400 E-0.8
;LAYER_COUNT:35
;LAYER:0
M107
M204 S2000
;MESH:nikodembartnik-98-distance_HS_55mm.stl(8)
G0 F7500 X109.999 Y79.472 Z0.2
M204 S500
;TYPE:WALL-INNER
G1 F2400 E0
G1 F1500 X135.996 Y79.472 E1.297
G1 X135.996 Y74.524 E1.54385
G1 X83.996 Y74.524 E4.13814
G1 X83.996 Y79.472 E4.385
G1 X109.999 Y79.472 E5.68229
M204 S2000
G0 F7500 X109.999 Y80.072
M204 S500
G1 F1500 X136.596 Y80.072 E7.00922
G1 X136.596 Y73.924 E7.31595
G1 X83.396 Y73.924 E9.97011
G1 X83.396 Y80.072 E10.27683
G1 X109.999 Y80.072 E11.60406
M204 S2000
G0 F7500 X109.999 Y80.672
M204 S500
;TYPE:WALL-OUTER
G1 F1500 X137.196 Y80.672 E12.96093
G1 X137.196 Y73.324 E13.32752
G1 X82.796 Y73.324 E16.04155
G1 X82.796 Y80.672 E16.40814
G1 X109.999 Y80.672 E17.7653
M204 S2000
G0 F7500 X109.999 Y79.665
G0 X109.999 Y79.272
G0 X109.999 Y78.932
M204 S500
;TYPE:SKIN
G1 F1500 X84.536 Y78.932 E19.03566
G1 X84.536 Y75.064 E19.22863
G1 X135.456 Y75.064 E21.76904
G1 X135.456 Y78.932 E21.96202
G1 X109.999 Y78.932 E23.23207
M204 S2000
G0 F7500 X109.999 Y79.272
G0 X84.268 Y79.2
G0 X84.196 Y78.048
G0 X84.836 Y78.048
M204 S500
G1 F1500 X85.42 Y78.632 E23.27328
M204 S2000
G0 F7500 X86.268 Y78.632
M204 S500
G1 F1500 X84.836 Y77.199 E23.37435
M204 S2000
G0 F7500 X84.836 Y76.351
M204 S500
G1 F1500 X87.117 Y78.632 E23.53528
M204 S2000
G0 F7500 X87.965 Y78.632
M204 S500
G1 F1500 X84.836 Y75.502 E23.75609
M204 S2000
G0 F7500 X85.546 Y75.364
M204 S500
G1 F1500 X88.814 Y78.632 E23.98666
M204 S2000
G0 F7500 X89.663 Y78.632
M204 S500
G1 F1500 X86.395 Y75.364 E24.21724
M204 S2000
G0 F7500 X87.244 Y75.364
M204 S500
G1 F1500 X90.511 Y78.632 E24.44778
M204 S2000
G0 F7500 X91.36 Y78.632
M204 S500
G1 F1500 X88.092 Y75.364 E24.67835
M204 S2000
G0 F7500 X88.941 Y75.364
M204 S500
G1 F1500 X92.208 Y78.632 E24.90889
M204 S2000
G0 F7500 X93.057 Y78.632
M204 S500
G1 F1500 X89.789 Y75.364 E25.13947
M204 S2000
G0 F7500 X90.638 Y75.364
M204 S500
G1 F1500 X93.905 Y78.632 E25.37001
M204 S2000
G0 F7500 X94.754 Y78.632
M204 S500
G1 F1500 X91.486 Y75.364 E25.60058
M204 S2000
G0 F7500 X92.335 Y75.364
M204 S500
G1 F1500 X95.602 Y78.632 E25.83112
M204 S2000
G0 F7500 X96.451 Y78.632
M204 S500
G1 F1500 X93.183 Y75.364 E26.0617
M204 S2000
G0 F7500 X94.032 Y75.364
M204 S500
G1 F1500 X97.299 Y78.632 E26.29224
M204 S2000
G0 F7500 X98.148 Y78.632
M204 S500
G1 F1500 X94.88 Y75.364 E26.52281
M204 S2000
G0 F7500 X95.729 Y75.364
M204 S500
G1 F1500 X98.996 Y78.632 E26.75335
M204 S2000
G0 F7500 X99.845 Y78.632
M204 S500
G1 F1500 X96.577 Y75.364 E26.98393
M204 S2000
G0 F7500 X97.426 Y75.364
M204 S500
G1 F1500 X100.693 Y78.632 E27.21447
M204 S2000
G0 F7500 X101.542 Y78.632
M204 S500
G1 F1500 X98.274 Y75.364 E27.44504
M204 S2000
G0 F7500 X99.123 Y75.364
M204 S500
G1 F1500 X102.39 Y78.632 E27.67558
M204 S2000
G0 F7500 X103.239 Y78.632
M204 S500
G1 F1500 X99.971 Y75.364 E27.90615
M204 S2000
G0 F7500 X100.82 Y75.364
M204 S500
G1 F1500 X104.088 Y78.632 E28.13673
M204 S2000
G0 F7500 X104.936 Y78.632
M204 S500
G1 F1500 X101.669 Y75.364 E28.36727
M204 S2000
G0 F7500 X102.517 Y75.364
M204 S500
G1 F1500 X105.785 Y78.632 E28.59784
M204 S2000
G0 F7500 X106.633 Y78.632
M204 S500
G1 F1500 X103.366 Y75.364 E28.82838
M204 S2000
G0 F7500 X104.214 Y75.364
M204 S500
G1 F1500 X107.482 Y78.632 E29.05896
M204 S2000
G0 F7500 X108.33 Y78.632
M204 S500
G1 F1500 X105.063 Y75.364 E29.2895
M204 S2000
G0 F7500 X105.911 Y75.364
M204 S500
G1 F1500 X109.179 Y78.632 E29.52007
M204 S2000
G0 F7500 X110.027 Y78.632
M204 S500
G1 F1500 X106.76 Y75.364 E29.75061
M204 S2000
G0 F7500 X107.608 Y75.364
M204 S500
G1 F1500 X110.876 Y78.632 E29.98119
M204 S2000
G0 F7500 X111.724 Y78.632
M204 S500
G1 F1500 X108.457 Y75.364 E30.21173
M204 S2000
G0 F7500 X109.305 Y75.364
M204 S500
G1 F1500 X112.573 Y78.632 E30.4423
M204 S2000
G0 F7500 X113.421 Y78.632
M204 S500
G1 F1500 X110.154 Y75.364 E30.67284
M204 S2000
G0 F7500 X111.002 Y75.364
M204 S500
G1 F1500 X114.27 Y78.632 E30.90342
M204 S2000
G0 F7500 X115.118 Y78.632
M204 S500
G1 F1500 X111.851 Y75.364 E31.13396
M204 S2000
G0 F7500 X112.699 Y75.364
M204 S500
G1 F1500 X115.967 Y78.632 E31.36453
M204 S2000
G0 F7500 X116.815 Y78.632
M204 S500
G1 F1500 X113.548 Y75.364 E31.59507
M204 S2000
G0 F7500 X114.396 Y75.364
M204 S500
G1 F1500 X117.664 Y78.632 E31.82565
M204 S2000
G0 F7500 X118.513 Y78.632
M204 S500
G1 F1500 X115.245 Y75.364 E32.05622
M204 S2000
G0 F7500 X116.093 Y75.364
M204 S500
G1 F1500 X119.361 Y78.632 E32.2868
M204 S2000
G0 F7500 X120.21 Y78.632
M204 S500
G1 F1500 X116.942 Y75.364 E32.51737
M204 S2000
G0 F7500 X117.791 Y75.364
M204 S500
G1 F1500 X121.058 Y78.632 E32.74791
M204 S2000
G0 F7500 X121.907 Y78.632
M204 S500
G1 F1500 X118.639 Y75.364 E32.97849
M204 S2000
G0 F7500 X119.488 Y75.364
M204 S500
G1 F1500 X122.755 Y78.632 E33.20903
M204 S2000
G0 F7500 X123.604 Y78.632
M204 S500
G1 F1500 X120.336 Y75.364 E33.4396
M204 S2000
G0 F7500 X121.185 Y75.364
M204 S500
G1 F1500 X124.452 Y78.632 E33.67014
M204 S2000
G0 F7500 X125.301 Y78.632
M204 S500
G1 F1500 X122.033 Y75.364 E33.90072
M204 S2000
G0 F7500 X122.882 Y75.364
M204 S500
G1 F1500 X126.149 Y78.632 E34.13126
M204 S2000
G0 F7500 X126.998 Y78.632
M204 S500
G1 F1500 X123.73 Y75.364 E34.36183
M204 S2000
G0 F7500 X124.579 Y75.364
M204 S500
G1 F1500 X127.846 Y78.632 E34.59237
M204 S2000
G0 F7500 X128.695 Y78.632
M204 S500
G1 F1500 X125.427 Y75.364 E34.82295
M204 S2000
G0 F7500 X126.276 Y75.364
M204 S500
G1 F1500 X129.543 Y78.632 E35.05349
M204 S2000
G0 F7500 X130.392 Y78.632
M204 S500
G1 F1500 X127.124 Y75.364 E35.28406
M204 S2000
G0 F7500 X127.973 Y75.364
M204 S500
G1 F1500 X131.24 Y78.632 E35.5146
M204 S2000
G0 F7500 X132.089 Y78.632
M204 S500
G1 F1500 X128.821 Y75.364 E35.74518
M204 S2000
G0 F7500 X129.67 Y75.364
M204 S500
G1 F1500 X132.937 Y78.632 E35.97572
M204 S2000
G0 F7500 X133.786 Y78.632
M204 S500
G1 F1500 X130.518 Y75.364 E36.20629
M204 S2000
G0 F7500 X131.367 Y75.364
M204 S500
G1 F1500 X134.635 Y78.632 E36.43687
M204 S2000
G0 F7500 X135.156 Y78.305
M204 S500
G1 F1500 X132.216 Y75.364 E36.64434
M204 S2000
G0 F7500 X133.064 Y75.364
M204 S500
G1 F1500 X135.156 Y77.456 E36.79194
M204 S2000
G0 F7500 X135.156 Y76.608
M204 S500
G1 F1500 X133.913 Y75.364 E36.87967
M204 S2000
G0 F7500 X134.761 Y75.364
M204 S500
G1 F1500 X135.156 Y75.759 E36.90754
M204 S2000
G1 F2400 E36.10754
;MESH:nikodembartnik-98-distance_HS_55mm.stl
G0 F7500 X135.796 Y75.759
G0 X135.724 Y79.2
G0 X110 Y80.345
G0 X110 Y81.64
G0 X110 Y84.3
G0 X112.2 Y84.272
G0 X112.2 Y135.728
G0 X110 Y136
M204 S500
;TYPE:WALL-INNER
G1 F2400 E36.90754
G1 F1500 X112.472 Y136 E37.03087
G1 X112.472 Y84 E39.62516
G1 X107.524 Y84 E39.87202
G1 X107.524 Y136 E42.46631
G1 X110 Y136 E42.58984
M204 S2000
G0 F7500 X110 Y136.6
M204 S500
G1 F1500 X113.072 Y136.6 E42.7431
G1 X113.072 Y83.4 E45.39726
G1 X106.924 Y83.4 E45.70398
G1 X106.924 Y136.6 E48.35814
G1 X110 Y136.6 E48.5116
M204 S2000
G0 F7500 X110 Y137.2
M204 S500
;TYPE:WALL-OUTER
G1 F1500 X113.672 Y137.2 E48.6948
G1 X113.672 Y82.8 E51.40883
G1 X106.324 Y82.8 E51.77542
G1 X106.324 Y137.2 E54.48945
G1 X110 Y137.2 E54.67284
M204 S2000
G0 F7500 X110 Y136.19
G0 X110 Y135.8
G0 X110 Y135.46
M204 S500
;TYPE:SKIN
G1 F1500 X108.064 Y135.46 E54.76943
G1 X108.064 Y84.54 E57.30984
G1 X111.932 Y84.54 E57.50282
G1 X111.932 Y135.46 E60.04323
G1 X110 Y135.46 E60.13961
M204 S2000
G0 F7500 X110 Y135.8
G0 X107.796 Y135.728
G0 X107.724 Y134.668
G0 X108.363 Y134.668
M204 S500
G1 F1500 X108.856 Y135.16 E60.17436
M204 S2000
G0 F7500 X109.704 Y135.16
M204 S500
G1 F1500 X108.363 Y133.819 E60.26898
M204 S2000
G0 F7500 X108.363 Y132.971
M204 S500
G1 F1500 X110.553 Y135.16 E60.42346
M204 S2000
G0 F7500 X111.401 Y135.16
M204 S500
G1 F1500 X108.363 Y132.122 E60.63781
M204 S2000
G0 F7500 X108.363 Y131.274
M204 S500
G1 F1500 X111.632 Y134.543 E60.86845
M204 S2000
G0 F7500 X111.632 Y133.694
M204 S500
G1 F1500 X108.363 Y130.425 E61.0991
M204 S2000
G0 F7500 X108.363 Y129.577
M204 S500
G1 F1500 X111.632 Y132.846 E61.32974
M204 S2000
G0 F7500 X111.632 Y131.997
M204 S500
G1 F1500 X108.363 Y128.728 E61.56039
M204 S2000
G0 F7500 X108.363 Y127.88
M204 S500
G1 F1500 X111.632 Y131.149 E61.79103
M204 S2000
G0 F7500 X111.632 Y130.3
M204 S500
G1 F1500 X108.363 Y127.031 E62.02168
M204 S2000
G0 F7500 X108.363 Y126.182
M204 S500
G1 F1500 X111.632 Y129.451 E62.25232
M204 S2000
G0 F7500 X111.632 Y128.603
M204 S500
G1 F1500 X108.363 Y125.334 E62.48297
M204 S2000
G0 F7500 X108.363 Y124.485
M204 S500
G1 F1500 X111.632 Y127.754 E62.71362
M204 S2000
G0 F7500 X111.632 Y126.906
M204 S500
G1 F1500 X108.363 Y123.637 E62.94426
M204 S2000
G0 F7500 X108.363 Y122.788
M204 S500
G1 F1500 X111.632 Y126.057 E63.17491
M204 S2000
G0 F7500 X111.632 Y125.209
M204 S500
G1 F1500 X108.363 Y121.94 E63.40555
M204 S2000
G0 F7500 X108.363 Y121.091
M204 S500
G1 F1500 X111.632 Y124.36 E63.6362
M204 S2000
G0 F7500 X111.632 Y123.512
M204 S500
G1 F1500 X108.363 Y120.243 E63.86684
M204 S2000
G0 F7500 X108.363 Y119.394
M204 S500
G1 F1500 X111.632 Y122.663 E64.09749
M204 S2000
G0 F7500 X111.632 Y121.815
M204 S500
G1 F1500 X108.363 Y118.546 E64.32814
M204 S2000
G0 F7500 X108.363 Y117.697
M204 S500
G1 F1500 X111.632 Y120.966 E64.55878
M204 S2000
G0 F7500 X111.632 Y120.118
M204 S500
G1 F1500 X108.363 Y116.849 E64.78943
M204 S2000
G0 F7500 X108.363 Y116
M204 S500
G1 F1500 X111.632 Y119.269 E65.02007
M204 S2000
G0 F7500 X111.632 Y118.421
M204 S500
G1 F1500 X108.363 Y115.152 E65.25072
M204 S2000
G0 F7500 X108.363 Y114.303
M204 S500
G1 F1500 X111.632 Y117.572 E65.48136
M204 S2000
G0 F7500 X111.632 Y116.724
M204 S500
G1 F1500 X108.363 Y113.455 E65.71201
M204 S2000
G0 F7500 X108.363 Y112.606
M204 S500
G1 F1500 X111.632 Y115.875 E65.94265
M204 S2000
G0 F7500 X111.632 Y115.026
M204 S500
G1 F1500 X108.363 Y111.758 E66.17326
M204 S2000
G0 F7500 X108.363 Y110.909
M204 S500
G1 F1500 X111.632 Y114.178 E66.40391
M204 S2000
G0 F7500 X111.632 Y113.329
M204 S500
G1 F1500 X108.363 Y110.06 E66.63456
M204 S2000
G0 F7500 X108.363 Y109.212
M204 S500
G1 F1500 X111.632 Y112.481 E66.8652
M204 S2000
G0 F7500 X111.632 Y111.632
M204 S500
G1 F1500 X108.363 Y108.363 E67.09585
M204 S2000
G0 F7500 X108.363 Y107.515
M204 S500
G1 F1500 X111.632 Y110.784 E67.32649
M204 S2000
G0 F7500 X111.632 Y109.935
M204 S500
G1 F1500 X108.363 Y106.666 E67.55714
M204 S2000
G0 F7500 X108.363 Y105.818
M204 S500
G1 F1500 X111.632 Y109.087 E67.78778
M204 S2000
G0 F7500 X111.632 Y108.238
M204 S500
G1 F1500 X108.363 Y104.969 E68.01843
M204 S2000
G0 F7500 X108.363 Y104.121
M204 S500
G1 F1500 X111.632 Y107.39 E68.24908
M204 S2000
G0 F7500 X111.632 Y106.541
M204 S500
G1 F1500 X108.363 Y103.272 E68.47972
M204 S2000
G0 F7500 X108.363 Y102.424
M204 S500
G1 F1500 X111.632 Y105.693 E68.71037
M204 S2000
G0 F7500 X111.632 Y104.844
M204 S500
G1 F1500 X108.363 Y101.575 E68.94101
M204 S2000
G0 F7500 X108.363 Y100.727
M204 S500
G1 F1500 X111.632 Y103.996 E69.17166
M204 S2000
G0 F7500 X111.632 Y103.147
M204 S500
G1 F1500 X108.363 Y99.878 E69.4023
M204 S2000
G0 F7500 X108.363 Y99.03
M204 S500
G1 F1500 X111.632 Y102.299 E69.63295
M204 S2000
G0 F7500 X111.632 Y101.45
M204 S500
G1 F1500 X108.363 Y98.181 E69.86359
M204 S2000
G0 F7500 X108.363 Y97.333
M204 S500
G1 F1500 X111.632 Y100.601 E70.0942
M204 S2000
G0 F7500 X111.632 Y99.753
M204 S500
G1 F1500 X108.363 Y96.484 E70.32485
M204 S2000
G0 F7500 X108.363 Y95.635
M204 S500
G1 F1500 X111.632 Y98.904 E70.5555
M204 S2000
G0 F7500 X111.632 Y98.056
M204 S500
G1 F1500 X108.363 Y94.787 E70.78614
M204 S2000
G0 F7500 X108.363 Y93.938
M204 S500
G1 F1500 X111.632 Y97.207 E71.01679
M204 S2000
G0 F7500 X111.632 Y96.359
M204 S500
G1 F1500 X108.363 Y93.09 E71.24743
M204 S2000
G0 F7500 X108.363 Y92.241
M204 S500
G1 F1500 X111.632 Y95.51 E71.47808
M204 S2000
G0 F7500 X111.632 Y94.662
M204 S500
G1 F1500 X108.363 Y91.393 E71.70872
M204 S2000
G0 F7500 X108.363 Y90.544
M204 S500
G1 F1500 X111.632 Y93.813 E71.93937
M204 S2000
G0 F7500 X111.632 Y92.965
M204 S500
G1 F1500 X108.363 Y89.696 E72.17002
M204 S2000
G0 F7500 X108.363 Y88.847
M204 S500
G1 F1500 X111.632 Y92.116 E72.40066
M204 S2000
G0 F7500 X111.632 Y91.268
M204 S500
G1 F1500 X108.363 Y87.999 E72.63131
M204 S2000
G0 F7500 X108.363 Y87.15
M204 S500
G1 F1500 X111.632 Y90.419 E72.86195
M204 S2000
G0 F7500 X111.632 Y89.571
M204 S500
G1 F1500 X108.363 Y86.302 E73.0926
M204 S2000
G0 F7500 X108.363 Y85.453
M204 S500
G1 F1500 X111.632 Y88.722 E73.32324
M204 S2000
G0 F7500 X111.632 Y87.874
M204 S500
G1 F1500 X108.599 Y84.84 E73.53727
M204 S2000
G0 F7500 X109.447 Y84.84
M204 S500
G1 F1500 X111.632 Y87.025 E73.69144
M204 S2000
G0 F7500 X111.632 Y86.177
M204 S500
G1 F1500 X110.296 Y84.84 E73.78573
M204 S2000
G0 F7500 X111.144 Y84.84
M204 S500
G1 F1500 X111.632 Y85.328 E73.82017
M204 S2000
G1 F2400 E73.02017
;MESH:nikodembartnik-98-distance_HS_55mm.stl(2)
G0 F7500 X112.272 Y85.328
G0 X113.345 Y136
G0 X116.154 Y136
G0 X117.254 Y136
M204 S500
;TYPE:WALL-INNER
G1 F2400 E73.82017
G1 F1500 X121.972 Y136 E74.05555
G1 X121.972 Y84 E76.64984
G1 X117.024 Y84 E76.89669
G1 X117.024 Y136 E79.49098
G1 X117.254 Y136 E79.50246
M204 S2000
G0 F7500 X117.202 Y136.6
M204 S500
G1 F1500 X122.572 Y136.6 E79.77037
G1 X122.572 Y83.4 E82.42453
G1 X116.424 Y83.4 E82.73125
G1 X116.424 Y136.6 E85.38541
G1 X117.202 Y136.6 E85.42423
M204 S2000
G0 F7500 X117.15 Y137.2
M204 S500
;TYPE:WALL-OUTER
G1 F1500 X123.172 Y137.2 E85.72467
G1 X123.172 Y82.8 E88.43869
G1 X115.824 Y82.8 E88.80529
G1 X115.824 Y137.2 E91.51931
G1 X117.15 Y137.2 E91.58547
M204 S2000
G0 F7500 X117.15 Y136.19
G0 X117.224 Y132.408
G0 X117.564 Y132.408
M204 S500
;TYPE:SKIN
G1 F1500 X117.564 Y84.54 E93.97361
G1 X121.432 Y84.54 E94.16659
G1 X121.432 Y135.46 E96.707
G1 X117.564 Y135.46 E96.89997
G1 X117.564 Y132.408 E97.05224
M204 S2000
G0 F7500 X117.224 Y132.408
G0 X117.296 Y135.728
G0 X118.189 Y135.8
G0 X118.189 Y135.16
M204 S500
G1 F1500 X117.863 Y134.834 E97.07524
M204 S2000
G0 F7500 X117.863 Y133.985
M204 S500
G1 F1500 X119.038 Y135.16 E97.15814
M204 S2000
G0 F7500 X119.886 Y135.16
M204 S500
G1 F1500 X117.863 Y133.137 E97.30087
M204 S2000
G0 F7500 X117.863 Y132.288
M204 S500
G1 F1500 X120.735 Y135.16 E97.50351
M204 S2000
G0 F7500 X121.132 Y134.709
M204 S500
G1 F1500 X117.863 Y131.44 E97.73415
M204 S2000
G0 F7500 X117.863 Y130.591
M204 S500
G1 F1500 X121.132 Y133.86 E97.9648
M204 S2000
G0 F7500 X121.132 Y133.012
M204 S500
G1 F1500 X117.863 Y129.743 E98.19545
M204 S2000
G0 F7500 X117.863 Y128.894
M204 S500
G1 F1500 X121.132 Y132.163 E98.42609
M204 S2000
G0 F7500 X121.132 Y131.315
M204 S500
G1 F1500 X117.863 Y128.046 E98.65674
M204 S2000
G0 F7500 X117.863 Y127.197
M204 S500
G1 F1500 X121.132 Y130.466 E98.88738
M204 S2000
G0 F7500 X121.132 Y129.618
M204 S500
G1 F1500 X117.863 Y126.349 E99.11803
M204 S2000
G0 F7500 X117.863 Y125.5
M204 S500
G1 F1500 X121.132 Y128.769 E99.34867
M204 S2000
G0 F7500 X121.132 Y127.921
M204 S500
G1 F1500 X117.863 Y124.652 E99.57932
