;FLAVOR:Marlin
;TIME:581
;Filament used: 0.679016m
;Layer height: 0.2
;MINX:106.004
;MINY:80.6
;MINZ:0.2
;MAXX:113.992
;MAXY:139.4
;MAXZ:7.6
;TARGET_MACHINE.NAME:Creality Ender-3 S1
;Generated with Cura_SteamEngine 5.9.0
M82 ;absolute extrusion mode
; Ender 3 S1 Start G-code
; M413 S0 ; Disable power loss recovery
M201 X500.00 Y500.00 Z100.00 E5000.00 ;Setup machine max acceleration
M203 X500.00 Y500.00 Z20.00 E50.00 ;Setup machine max feedrate
M204 P500.00 R1000.00 T500.00 ;Setup Print/Retract/Travel acceleration
M205 X8.00 Y8.00 Z0.40 E5.00 ;Setup Jerk
M220 S100 ;Reset Feedrate
M221 S100 ;Reset Flowrate
G92 E0 ; Reset Extruder

; Prep surfaces before auto home for better accuracy
M140 S60
M104 S200
G92 E0 ; Reset Extruder
G28 ; Home all axes
M420 S1 Z10; Use Level Mesh up to 2mm;
G1 Z10.0 F3000 ; Move Z Axis up little to prevent scratching of Heat Bed
G1 X0 Y0

M190 S60
M109 S200

G1 X0.1 Y20 Z0.3 F5000.0 ; Move to start position
G1 X0.1 Y200.0 Z0.3 F1500.0 E15 ; Draw the first line
G1 X0.4 Y200.0 Z0.3 F5000.0 ; Move to side a little
G1 X0.4 Y20 Z0.3 F1500.0 E30 ; Draw the second line
G92 E0 ; Reset Extruder
G1 Z2.0 F3000 ; Move Z Axis up little to prevent scratching of Heat Bed
G1 X5 Y20 Z0.3 F5000.0 ; Move over to prevent blob squish
G92 E0
G92 E0
G1 F2400 E-0.8
;LAYER_COUNT:38
;LAYER:0
M107
M204 S2000
;MESH:nikodembartnik-98-distance_HS_55mm.stl
G0 F7500 X110 Y138.2 Z0.2
M204 S500
;TYPE:WALL-INNER
G1 F2400 E0
G1 F1500 X112.792 Y138.2 E0.13929
G1 X112.792 Y81.8 E2.9531
G1 X107.204 Y81.8 E3.23189
G1 X107.204 Y138.2 E6.04569
G1 X110 Y138.2 E6.18519
M204 S2000
G0 F7500 X110 Y138.8
M204 S500
G1 F1500 X113.392 Y138.8 E6.35442
G1 X113.392 Y81.2 E9.22809
G1 X106.604 Y81.2 E9.56675
G1 X106.604 Y138.8 E12.44042
G1 X110 Y138.8 E12.60985
M204 S2000
G0 F7500 X110 Y139.4
M204 S500
;TYPE:WALL-OUTER
G1 F1500 X113.992 Y139.4 E12.80901
G1 X113.992 Y80.6 E15.74255
G1 X106.004 Y80.6 E16.14108
G1 X106.004 Y139.4 E19.07462
G1 X110 Y139.4 E19.27398
M204 S2000
G0 F7500 X110 Y138.39
G0 X110 Y138
G0 X110 Y137.66
M204 S500
;TYPE:SKIN
G1 F1500 X107.744 Y137.66 E19.38653
G1 X107.744 Y82.34 E22.14646
G1 X112.252 Y82.34 E22.37137
G1 X112.252 Y137.66 E25.13129
G1 X110 Y137.66 E25.24364
M204 S2000
G0 F7500 X110 Y138
G0 X107.476 Y137.928
G0 X107.404 Y136.894
G0 X108.044 Y136.894
M204 S500
G1 F1500 X108.51 Y137.36 E25.27652
M204 S2000
G0 F7500 X109.358 Y137.36
M204 S500
G1 F1500 X108.044 Y136.045 E25.36927
M204 S2000
G0 F7500 X108.044 Y135.197
M204 S500
G1 F1500 X110.207 Y137.36 E25.52188
M204 S2000
G0 F7500 X111.055 Y137.36
M204 S500
G1 F1500 X108.044 Y134.348 E25.73436
M204 S2000
G0 F7500 X108.044 Y133.5
M204 S500
G1 F1500 X111.904 Y137.36 E26.0067
M204 S2000
G0 F7500 X111.952 Y136.559
M204 S500
G1 F1500 X108.044 Y132.651 E26.28243
M204 S2000
G0 F7500 X108.044 Y131.803
M204 S500
G1 F1500 X111.952 Y135.711 E26.55816
M204 S2000
G0 F7500 X111.952 Y134.862
M204 S500
G1 F1500 X108.044 Y130.954 E26.83389
M204 S2000
G0 F7500 X108.044 Y130.106
M204 S500
G1 F1500 X111.952 Y134.014 E27.10962
M204 S2000
G0 F7500 X111.952 Y133.165
M204 S500
G1 F1500 X108.044 Y129.257 E27.38535
M204 S2000
G0 F7500 X108.044 Y128.408
M204 S500
G1 F1500 X111.952 Y132.317 E27.66112
M204 S2000
G0 F7500 X111.952 Y131.468
M204 S500
G1 F1500 X108.044 Y127.56 E27.93685
M204 S2000
G0 F7500 X108.044 Y126.711
M204 S500
G1 F1500 X111.952 Y130.62 E28.21262
M204 S2000
G0 F7500 X111.952 Y129.771
M204 S500
G1 F1500 X108.044 Y125.863 E28.48835
M204 S2000
G0 F7500 X108.044 Y125.014
M204 S500
G1 F1500 X111.952 Y128.923 E28.76411
M204 S2000
G0 F7500 X111.952 Y128.074
M204 S500
G1 F1500 X108.044 Y124.166 E29.03984
M204 S2000
G0 F7500 X108.044 Y123.317
M204 S500
G1 F1500 X111.952 Y127.225 E29.31557
M204 S2000
G0 F7500 X111.952 Y126.377
M204 S500
G1 F1500 X108.044 Y122.469 E29.5913
M204 S2000
G0 F7500 X108.044 Y121.62
M204 S500
G1 F1500 X111.952 Y125.528 E29.86703
M204 S2000
G0 F7500 X111.952 Y124.68
M204 S500
G1 F1500 X108.044 Y120.772 E30.14276
M204 S2000
G0 F7500 X108.044 Y119.923
M204 S500
G1 F1500 X111.952 Y123.831 E30.41849
M204 S2000
G0 F7500 X111.952 Y122.983
M204 S500
G1 F1500 X108.044 Y119.075 E30.69423
M204 S2000
G0 F7500 X108.044 Y118.226
M204 S500
G1 F1500 X111.952 Y122.134 E30.96996
M204 S2000
G0 F7500 X111.952 Y121.286
M204 S500
G1 F1500 X108.044 Y117.378 E31.24569
M204 S2000
G0 F7500 X108.044 Y116.529
M204 S500
G1 F1500 X111.952 Y120.437 E31.52142
M204 S2000
G0 F7500 X111.952 Y119.589
M204 S500
G1 F1500 X108.044 Y115.681 E31.79715
M204 S2000
G0 F7500 X108.044 Y114.832
M204 S500
G1 F1500 X111.952 Y118.74 E32.07288
M204 S2000
G0 F7500 X111.952 Y117.892
M204 S500
G1 F1500 X108.044 Y113.983 E32.34864
M204 S2000
G0 F7500 X108.044 Y113.135
M204 S500
G1 F1500 X111.952 Y117.043 E32.62437
M204 S2000
G0 F7500 X111.952 Y116.195
M204 S500
G1 F1500 X108.044 Y112.286 E32.90014
M204 S2000
G0 F7500 X108.044 Y111.438
M204 S500
G1 F1500 X111.952 Y115.346 E33.17587
M204 S2000
G0 F7500 X111.952 Y114.498
M204 S500
G1 F1500 X108.044 Y110.589 E33.45164
M204 S2000
G0 F7500 X108.044 Y109.741
M204 S500
G1 F1500 X111.952 Y113.649 E33.72737
M204 S2000
G0 F7500 X111.952 Y112.801
M204 S500
G1 F1500 X108.044 Y108.892 E34.00313
M204 S2000
G0 F7500 X108.044 Y108.044
M204 S500
G1 F1500 X111.952 Y111.952 E34.27886
M204 S2000
G0 F7500 X111.952 Y111.103
M204 S500
G1 F1500 X108.044 Y107.195 E34.55459
M204 S2000
G0 F7500 X108.044 Y106.347
M204 S500
G1 F1500 X111.952 Y110.255 E34.83032
M204 S2000
G0 F7500 X111.952 Y109.406
M204 S500
G1 F1500 X108.044 Y105.498 E35.10605
M204 S2000
G0 F7500 X108.044 Y104.65
M204 S500
G1 F1500 X111.952 Y108.558 E35.38179
M204 S2000
G0 F7500 X111.952 Y107.709
M204 S500
G1 F1500 X108.044 Y103.801 E35.65752
M204 S2000
G0 F7500 X108.044 Y102.953
M204 S500
G1 F1500 X111.952 Y106.861 E35.93325
M204 S2000
G0 F7500 X111.952 Y106.012
M204 S500
G1 F1500 X108.044 Y102.104 E36.20898
M204 S2000
G0 F7500 X108.044 Y101.256
M204 S500
G1 F1500 X111.952 Y105.164 E36.48471
M204 S2000
G0 F7500 X111.952 Y104.315
M204 S500
G1 F1500 X108.044 Y100.407 E36.76044
M204 S2000
G0 F7500 X108.044 Y99.559
M204 S500
G1 F1500 X111.952 Y103.467 E37.03617
M204 S2000
G0 F7500 X111.952 Y102.618
M204 S500
G1 F1500 X108.044 Y98.71 E37.3119
M204 S2000
G0 F7500 X108.044 Y97.861
M204 S500
G1 F1500 X111.952 Y101.77 E37.58766
M204 S2000
G0 F7500 X111.952 Y100.921
M204 S500
G1 F1500 X108.044 Y97.013 E37.86339
M204 S2000
G0 F7500 X108.044 Y96.164
M204 S500
G1 F1500 X111.952 Y100.073 E38.13916
M204 S2000
G0 F7500 X111.952 Y99.224
M204 S500
G1 F1500 X108.044 Y95.316 E38.41489
M204 S2000
G0 F7500 X108.044 Y94.467
M204 S500
G1 F1500 X111.952 Y98.376 E38.69066
M204 S2000
G0 F7500 X111.952 Y97.527
M204 S500
G1 F1500 X108.044 Y93.619 E38.96639
M204 S2000
G0 F7500 X108.044 Y92.77
M204 S500
G1 F1500 X111.952 Y96.678 E39.24212
M204 S2000
G0 F7500 X111.952 Y95.83
M204 S500
G1 F1500 X108.044 Y91.922 E39.51785
M204 S2000
G0 F7500 X108.044 Y91.073
M204 S500
G1 F1500 X111.952 Y94.981 E39.79358
M204 S2000
G0 F7500 X111.952 Y94.133
M204 S500
G1 F1500 X108.044 Y90.225 E40.06931
M204 S2000
G0 F7500 X108.044 Y89.376
M204 S500
G1 F1500 X111.952 Y93.284 E40.34504
M204 S2000
G0 F7500 X111.952 Y92.436
M204 S500
G1 F1500 X108.044 Y88.528 E40.62077
M204 S2000
G0 F7500 X108.044 Y87.679
M204 S500
G1 F1500 X111.952 Y91.587 E40.8965
M204 S2000
G0 F7500 X111.952 Y90.739
M204 S500
G1 F1500 X108.044 Y86.831 E41.17223
M204 S2000
G0 F7500 X108.044 Y85.982
M204 S500
G1 F1500 X111.952 Y89.89 E41.44796
M204 S2000
G0 F7500 X111.952 Y89.042
M204 S500
G1 F1500 X108.044 Y85.134 E41.72369
M204 S2000
G0 F7500 X108.044 Y84.285
M204 S500
G1 F1500 X111.952 Y88.193 E41.99942
M204 S2000
G0 F7500 X111.952 Y87.345
M204 S500
G1 F1500 X108.044 Y83.436 E42.27519
M204 S2000
G0 F7500 X108.096 Y82.64
M204 S500
G1 F1500 X111.952 Y86.496 E42.54725
M204 S2000
G0 F7500 X111.952 Y85.648
M204 S500
G1 F1500 X108.945 Y82.64 E42.75945
M204 S2000
G0 F7500 X109.793 Y82.64
M204 S500
G1 F1500 X111.952 Y84.799 E42.91178
M204 S2000
G0 F7500 X111.952 Y83.951
M204 S500
G1 F1500 X110.642 Y82.64 E43.00424
M204 S2000
G0 F7500 X111.49 Y82.64
M204 S500
G1 F1500 X111.952 Y83.102 E43.03683
M104 S200
M204 S2000
G1 F2400 E42.23683
;MESH:NONMESH
G0 F300 X111.952 Y83.102 Z0.4
G0 F7500 X112.592 Y83.102
G0 X112.52 Y137.928
G0 X110 Y138.2
;TIME_ELAPSED:47.123689
;LAYER:1
M106 S85
M204 S500
;TYPE:WALL-INNER
;MESH:nikodembartnik-98-distance_HS_55mm.stl
G1 F2400 E43.03683
G1 F1650 X112.792 Y138.2 E43.17613
G1 X112.792 Y81.8 E45.98994
G1 X107.204 Y81.8 E46.26872
G1 X107.204 Y138.2 E49.08253
G1 X110 Y138.2 E49.22202
M204 S2000
G0 F8250 X110 Y138.8
M204 S500
G1 F1650 X113.392 Y138.8 E49.39125
G1 X113.392 Y81.2 E52.26493
G1 X106.604 Y81.2 E52.60358
G1 X106.604 Y138.8 E55.47726
G1 X110 Y138.8 E55.64668
M204 S2000
G0 F8250 X110 Y139.4
M204 S500
;TYPE:WALL-OUTER
G1 F1650 X113.992 Y139.4 E55.84584
G1 X113.992 Y80.6 E58.77939
G1 X106.004 Y80.6 E59.17791
G1 X106.004 Y139.4 E62.11146
G1 X110 Y139.4 E62.31082
M204 S2000
G0 F8250 X110 Y138.39
G0 X110 Y138
G0 X110 Y137.66
M204 S500
;TYPE:SKIN
G1 F1650 X107.744 Y137.66 E62.42337
G1 X107.744 Y82.34 E65.18329
G1 X112.252 Y82.34 E65.4082
G1 X112.252 Y137.66 E68.16813
G1 X110 Y137.66 E68.28048
M204 S2000
G0 F8250 X110 Y138
G0 X112.52 Y137.928
G0 X112.592 Y136.667
G0 X111.952 Y136.667
M204 S500
G1 F1650 X111.258 Y137.36 E68.32941
M204 S2000
G0 F8250 X110.41 Y137.36
M204 S500
G1 F1650 X111.952 Y135.818 E68.43821
M204 S2000
G0 F8250 X111.952 Y134.97
M204 S500
G1 F1650 X109.561 Y137.36 E68.60687
M204 S2000
G0 F8250 X108.713 Y137.36
M204 S500
G1 F1650 X111.952 Y134.121 E68.8354
M204 S2000
G0 F8250 X111.952 Y133.273
M204 S500
G1 F1650 X108.044 Y137.181 E69.11113
M204 S2000
G0 F8250 X108.044 Y136.332
M204 S500
G1 F1650 X111.952 Y132.424 E69.38686
M204 S2000
G0 F8250 X111.952 Y131.576
M204 S500
G1 F1650 X108.044 Y135.484 E69.66259
M204 S2000
G0 F8250 X108.044 Y134.635
M204 S500
G1 F1650 X111.952 Y130.727 E69.93832
M204 S2000
G0 F8250 X111.952 Y129.879
M204 S500
G1 F1650 X108.044 Y133.787 E70.21405
M204 S2000
G0 F8250 X108.044 Y132.938
M204 S500
G1 F1650 X111.952 Y129.03 E70.48978
M204 S2000
G0 F8250 X111.952 Y128.181
M204 S500
G1 F1650 X108.044 Y132.09 E70.76555
M204 S2000
G0 F8250 X108.044 Y131.241
M204 S500
G1 F1650 X111.952 Y127.333 E71.04128
M204 S2000
G0 F8250 X111.952 Y126.484
M204 S500
G1 F1650 X108.044 Y130.393 E71.31704
M204 S2000
G0 F8250 X108.044 Y129.544
M204 S500
G1 F1650 X111.952 Y125.636 E71.59277
M204 S2000
G0 F8250 X111.952 Y124.787
M204 S500
G1 F1650 X108.044 Y128.696 E71.86854
M204 S2000
G0 F8250 X108.044 Y127.847
M204 S500
G1 F1650 X111.952 Y123.939 E72.14427
M204 S2000
G0 F8250 X111.952 Y123.09
M204 S500
G1 F1650 X108.044 Y126.998 E72.42
M204 S2000
G0 F8250 X108.044 Y126.15
M204 S500
G1 F1650 X111.952 Y122.242 E72.69573
M204 S2000
G0 F8250 X111.952 Y121.393
M204 S500
G1 F1650 X108.044 Y125.301 E72.97146
M204 S2000
G0 F8250 X108.044 Y124.453
M204 S500
G1 F1650 X111.952 Y120.545 E73.24719
M204 S2000
G0 F8250 X111.952 Y119.696
M204 S500
G1 F1650 X108.044 Y123.604 E73.52292
M204 S2000
G0 F8250 X108.044 Y122.756
M204 S500
G1 F1650 X111.952 Y118.848 E73.79865
M204 S2000
G0 F8250 X111.952 Y117.999
M204 S500
G1 F1650 X108.044 Y121.907 E74.07438
M204 S2000
G0 F8250 X108.044 Y121.059
M204 S500
G1 F1650 X111.952 Y117.151 E74.35011
M204 S2000
G0 F8250 X111.952 Y116.302
M204 S500
G1 F1650 X108.044 Y120.21 E74.62584
M204 S2000
G0 F8250 X108.044 Y119.362
M204 S500
G1 F1650 X111.952 Y115.454 E74.90157
M204 S2000
G0 F8250 X111.952 Y114.605
M204 S500
G1 F1650 X108.044 Y118.513 E75.1773
M204 S2000
G0 F8250 X108.044 Y117.665
M204 S500
G1 F1650 X111.952 Y113.757 E75.45304
M204 S2000
G0 F8250 X111.952 Y112.908
M204 S500
G1 F1650 X108.044 Y116.816 E75.72877
M204 S2000
G0 F8250 X108.044 Y115.968
M204 S500
G1 F1650 X111.952 Y112.059 E76.00453
M204 S2000
G0 F8250 X111.952 Y111.211
M204 S500
G1 F1650 X108.044 Y115.119 E76.28026
M204 S2000
G0 F8250 X108.044 Y114.271
M204 S500
G1 F1650 X111.952 Y110.362 E76.55603
M204 S2000
G0 F8250 X111.952 Y109.514
M204 S500
G1 F1650 X108.044 Y113.422 E76.83176
M204 S2000
G0 F8250 X108.044 Y112.574
M204 S500
G1 F1650 X111.952 Y108.665 E77.10752
M204 S2000
G0 F8250 X111.952 Y107.817
M204 S500
G1 F1650 X108.044 Y111.725 E77.38325
M204 S2000
G0 F8250 X108.044 Y110.876
M204 S500
G1 F1650 X111.952 Y106.968 E77.65898
M204 S2000
G0 F8250 X111.952 Y106.12
M204 S500
G1 F1650 X108.044 Y110.028 E77.93472
M204 S2000
G0 F8250 X108.044 Y109.179
M204 S500
G1 F1650 X111.952 Y105.271 E78.21045
M204 S2000
G0 F8250 X111.952 Y104.423
M204 S500
G1 F1650 X108.044 Y108.331 E78.48618
M204 S2000
G0 F8250 X108.044 Y107.482
M204 S500
G1 F1650 X111.952 Y103.574 E78.76191
M204 S2000
G0 F8250 X111.952 Y102.726
M204 S500
G1 F1650 X108.044 Y106.634 E79.03764
M204 S2000
G0 F8250 X108.044 Y105.785
M204 S500
G1 F1650 X111.952 Y101.877 E79.31337
M204 S2000
G0 F8250 X111.952 Y101.029
M204 S500
G1 F1650 X108.044 Y104.937 E79.5891
M204 S2000
G0 F8250 X108.044 Y104.088
M204 S500
G1 F1650 X111.952 Y100.18 E79.86483
M204 S2000
G0 F8250 X111.952 Y99.332
M204 S500
G1 F1650 X108.044 Y103.24 E80.14056
M204 S2000
G0 F8250 X108.044 Y102.391
M204 S500
G1 F1650 X111.952 Y98.483 E80.41629
M204 S2000
G0 F8250 X111.952 Y97.634
M204 S500
G1 F1650 X108.044 Y101.543 E80.69206
M204 S2000
G0 F8250 X108.044 Y100.694
M204 S500
G1 F1650 X111.952 Y96.786 E80.96779
M204 S2000
G0 F8250 X111.952 Y95.937
M204 S500
G1 F1650 X108.044 Y99.846 E81.24355
M204 S2000
G0 F8250 X108.044 Y98.997
M204 S500
G1 F1650 X111.952 Y95.089 E81.51928
M204 S2000
G0 F8250 X111.952 Y94.24
M204 S500
G1 F1650 X108.044 Y98.149 E81.79505
M204 S2000
G0 F8250 X108.044 Y97.3
M204 S500
G1 F1650 X111.952 Y93.392 E82.07078
M204 S2000
G0 F8250 X111.952 Y92.543
M204 S500
G1 F1650 X108.044 Y96.451 E82.34651
M204 S2000
G0 F8250 X108.044 Y95.603
M204 S500
G1 F1650 X111.952 Y91.695 E82.62224
M204 S2000
G0 F8250 X111.952 Y90.846
M204 S500
G1 F1650 X108.044 Y94.754 E82.89797
M204 S2000
G0 F8250 X108.044 Y93.906
M204 S500
G1 F1650 X111.952 Y89.998 E83.1737
M204 S2000
G0 F8250 X111.952 Y89.149
M204 S500
G1 F1650 X108.044 Y93.057 E83.44943
M204 S2000
G0 F8250 X108.044 Y92.209
M204 S500
G1 F1650 X111.952 Y88.301 E83.72516
M204 S2000
G0 F8250 X111.952 Y87.452
M204 S500
G1 F1650 X108.044 Y91.36 E84.00089
M204 S2000
G0 F8250 X108.044 Y90.512
M204 S500
G1 F1650 X111.952 Y86.604 E84.27662
M204 S2000
G0 F8250 X111.952 Y85.755
M204 S500
G1 F1650 X108.044 Y89.663 E84.55235
M204 S2000
G0 F8250 X108.044 Y88.815
M204 S500
G1 F1650 X111.952 Y84.907 E84.82808
M204 S2000
G0 F8250 X111.952 Y84.058
M204 S500
G1 F1650 X108.044 Y87.966 E85.10381
M204 S2000
G0 F8250 X108.044 Y87.118
M204 S500
G1 F1650 X111.952 Y83.209 E85.37958
M204 S2000
G0 F8250 X111.673 Y82.64
M204 S500
G1 F1650 X108.044 Y86.269 E85.63563
M204 S2000
G0 F8250 X108.044 Y85.421
M204 S500
G1 F1650 X110.825 Y82.64 E85.83184
M204 S2000
G0 F8250 X109.976 Y82.64
M204 S500
G1 F1650 X108.044 Y84.572 E85.96815
M204 S2000
G0 F8250 X108.044 Y83.724
M204 S500
G1 F1650 X109.128 Y82.64 E86.04464
M204 S2000
G0 F8250 X108.279 Y82.64
M204 S500
G1 F1650 X108.044 Y82.875 E86.06122
M204 S2000
G1 F2400 E85.26122
;MESH:NONMESH
G0 F300 X108.044 Y82.875 Z0.6
G0 F8250 X107.404 Y82.875
G0 X107.476 Y137.928
G0 X110 Y138.2
;TIME_ELAPSED:87.256609
;LAYER:2
M106 S170
M204 S500
;TYPE:WALL-INNER
;MESH:nikodembartnik-98-distance_HS_55mm.stl
G1 F2400 E86.06122
G1 F1800 X112.792 Y138.2 E86.20051
G1 X112.792 Y81.8 E89.01432
G1 X107.204 Y81.8 E89.2931
G1 X107.204 Y138.2 E92.10691
G1 X110 Y138.2 E92.2464
M204 S2000
G0 F9000 X110 Y138.8
M204 S500
G1 F1800 X113.392 Y138.8 E92.41563
G1 X113.392 Y81.2 E95.28931
G1 X106.604 Y81.2 E95.62796
G1 X106.604 Y138.8 E98.50164
G1 X110 Y138.8 E98.67106
M204 S2000
G0 F9000 X110 Y139.4
M204 S500
;TYPE:WALL-OUTER
G1 F1800 X113.992 Y139.4 E98.87023
G1 X113.992 Y80.6 E101.80377
G1 X106.004 Y80.6 E102.20229
G1 X106.004 Y139.4 E105.13584
G1 X110 Y139.4 E105.3352
M204 S2000
G0 F9000 X110 Y138.39
G0 X110 Y138
G0 X110 Y137.66
M204 S500
;TYPE:SKIN
G1 F1800 X107.744 Y137.66 E105.44775
G1 X107.744 Y82.34 E108.20768
G1 X112.252 Y82.34 E108.43258
G1 X112.252 Y137.66 E111.19251
G1 X110 Y137.66 E111.30486
M204 S2000
