;FLAVOR:Marlin
;TIME:622
;Filament used: 0.721381m
;Layer height: 0.2
;MINX:105.924
;MINY:80.048
;MINZ:0.2
;MAXX:114.072
;MAXY:139.948
;MAXZ:7.8
;TARGET_MACHINE.NAME:Creality Ender-3 S1
;Generated with Cura_SteamEngine 5.9.0
M82 ;absolute extrusion mode
; Ender 3 S1 Start G-code
; M413 S0 ; Disable power loss recovery
M201 X500.00 Y500.00 Z100.00 E5000.00 ;Setup machine max acceleration
M203 X500.00 Y500.00 Z20.00 E50.00 ;Setup machine max feedrate
M204 P500.00 R1000.00 T500.00 ;Setup Print/Retract/Travel acceleration
M205 X8.00 Y8.00 Z0.40 E5.00 ;Setup Jerk
M220 S100 ;Reset Feedrate
M221 S100 ;Reset Flowrate
G92 E0 ; Reset Extruder

; Prep surfaces before auto home for better accuracy
M140 S60
M104 S200
G92 E0 ; Reset Extruder
G28 ; Home all axes
M420 S1 Z10; Use Level Mesh up to 2mm;
G1 Z10.0 F3000 ; Move Z Axis up little to prevent scratching of Heat Bed
G1 X0 Y0

M190 S60
M109 S200

G1 X0.1 Y20 Z0.3 F5000.0 ; Move to start position
G1 X0.1 Y200.0 Z0.3 F1500.0 E15 ; Draw the first line
G1 X0.4 Y200.0 Z0.3 F5000.0 ; Move to side a little
G1 X0.4 Y20 Z0.3 F1500.0 E30 ; Draw the second line
G92 E0 ; Reset Extruder
G1 Z2.0 F3000 ; Move Z Axis up little to prevent scratching of Heat Bed
G1 X5 Y20 Z0.3 F5000.0 ; Move over to prevent blob squish
G92 E0
G92 E0
G1 F2400 E-0.8
;LAYER_COUNT:39
;LAYER:0
M107
M204 S2000
;MESH:nikodembartnik-98-distance_HS_55mm.stl
G0 F7500 X109.999 Y138.748 Z0.2
M204 S500
;TYPE:WALL-INNER
G1 F2400 E0
G1 F1500 X112.872 Y138.748 E0.14333
G1 X112.872 Y81.248 E3.01202
G1 X107.124 Y81.248 E3.29879
G1 X107.124 Y138.748 E6.16748
G1 X109.999 Y138.748 E6.31091
M204 S2000
G0 F7500 X109.999 Y139.348
M204 S500
G1 F1500 X113.472 Y139.348 E6.48418
G1 X113.472 Y80.648 E9.41273
G1 X106.524 Y80.648 E9.75937
G1 X106.524 Y139.348 E12.68793
G1 X109.999 Y139.348 E12.8613
M204 S2000
G0 F7500 X109.999 Y139.948
M204 S500
;TYPE:WALL-OUTER
G1 F1500 X114.072 Y139.948 E13.0645
G1 X114.072 Y80.048 E16.05292
G1 X105.924 Y80.048 E16.45943
G1 X105.924 Y139.948 E19.44785
G1 X109.999 Y139.948 E19.65115
M204 S2000
G0 F7500 X109.999 Y138.94
G0 X109.999 Y138.548
G0 X109.999 Y138.208
M204 S500
;TYPE:SKIN
G1 F1500 X107.664 Y138.208 E19.76765
G1 X107.664 Y81.788 E22.58245
G1 X112.332 Y81.788 E22.81534
G1 X112.332 Y138.208 E25.63014
G1 X109.999 Y138.208 E25.74654
M204 S2000
G0 F7500 X109.999 Y138.548
G0 X108.209 Y138.548
G0 X108.209 Y137.908
M204 S500
G1 F1500 X107.964 Y137.662 E25.76386
M204 S2000
G0 F7500 X107.964 Y136.814
M204 S500
G1 F1500 X109.058 Y137.908 E25.84105
M204 S2000
G0 F7500 X109.906 Y137.908
M204 S500
G1 F1500 X107.964 Y135.965 E25.9781
M204 S2000
G0 F7500 X107.964 Y135.117
M204 S500
G1 F1500 X110.755 Y137.908 E26.17502
M204 S2000
G0 F7500 X111.603 Y137.908
M204 S500
G1 F1500 X107.964 Y134.268 E26.43181
M204 S2000
G0 F7500 X107.964 Y133.42
M204 S500
G1 F1500 X112.033 Y137.488 E26.71886
M204 S2000
G0 F7500 X112.033 Y136.64
M204 S500
G1 F1500 X107.964 Y132.571 E27.00595
M204 S2000
G0 F7500 X107.964 Y131.723
M204 S500
G1 F1500 X112.033 Y135.791 E27.29301
M204 S2000
G0 F7500 X112.033 Y134.943
M204 S500
G1 F1500 X107.964 Y130.874 E27.5801
M204 S2000
G0 F7500 X107.964 Y130.026
M204 S500
G1 F1500 X112.033 Y134.094 E27.86715
M204 S2000
G0 F7500 X112.033 Y133.246
M204 S500
G1 F1500 X107.964 Y129.177 E28.15424
M204 S2000
G0 F7500 X107.964 Y128.329
M204 S500
G1 F1500 X112.033 Y132.397 E28.4413
M204 S2000
G0 F7500 X112.033 Y131.549
M204 S500
G1 F1500 X107.964 Y127.48 E28.72839
M204 S2000
G0 F7500 X107.964 Y126.632
M204 S500
G1 F1500 X112.033 Y130.7 E29.01544
M204 S2000
G0 F7500 X112.033 Y129.852
M204 S500
G1 F1500 X107.964 Y125.783 E29.30253
M204 S2000
G0 F7500 X107.964 Y124.934
M204 S500
G1 F1500 X112.033 Y129.003 E29.58962
M204 S2000
G0 F7500 X112.033 Y128.155
M204 S500
G1 F1500 X107.964 Y124.086 E29.87671
M204 S2000
G0 F7500 X107.964 Y123.237
M204 S500
G1 F1500 X112.033 Y127.306 E30.1638
M204 S2000
G0 F7500 X112.033 Y126.458
M204 S500
G1 F1500 X107.964 Y122.389 E30.45089
M204 S2000
G0 F7500 X107.964 Y121.54
M204 S500
G1 F1500 X112.033 Y125.609 E30.73798
M204 S2000
G0 F7500 X112.033 Y124.761
M204 S500
G1 F1500 X107.964 Y120.692 E31.02507
M204 S2000
G0 F7500 X107.964 Y119.843
M204 S500
G1 F1500 X112.033 Y123.912 E31.31216
M204 S2000
G0 F7500 X112.033 Y123.063
M204 S500
G1 F1500 X107.964 Y118.995 E31.59921
M204 S2000
G0 F7500 X107.964 Y118.146
M204 S500
G1 F1500 X112.033 Y122.215 E31.8863
M204 S2000
G0 F7500 X112.033 Y121.366
M204 S500
G1 F1500 X107.964 Y117.298 E32.17336
M204 S2000
G0 F7500 X107.964 Y116.449
M204 S500
G1 F1500 X112.033 Y120.518 E32.46045
M204 S2000
G0 F7500 X112.033 Y119.669
M204 S500
G1 F1500 X107.964 Y115.601 E32.7475
M204 S2000
G0 F7500 X107.964 Y114.752
M204 S500
G1 F1500 X112.033 Y118.821 E33.03459
M204 S2000
G0 F7500 X112.033 Y117.972
M204 S500
G1 F1500 X107.964 Y113.904 E33.32165
M204 S2000
G0 F7500 X107.964 Y113.055
M204 S500
G1 F1500 X112.033 Y117.124 E33.60874
M204 S2000
G0 F7500 X112.033 Y116.275
M204 S500
G1 F1500 X107.964 Y112.207 E33.89579
M204 S2000
G0 F7500 X107.964 Y111.358
M204 S500
G1 F1500 X112.033 Y115.427 E34.18288
M204 S2000
G0 F7500 X112.033 Y114.578
M204 S500
G1 F1500 X107.964 Y110.509 E34.46997
M204 S2000
G0 F7500 X107.964 Y109.661
M204 S500
G1 F1500 X112.033 Y113.73 E34.75706
M204 S2000
G0 F7500 X112.033 Y112.881
M204 S500
G1 F1500 X107.964 Y108.812 E35.04415
M204 S2000
G0 F7500 X107.964 Y107.964
M204 S500
G1 F1500 X112.033 Y112.033 E35.33124
M204 S2000
G0 F7500 X112.033 Y111.184
M204 S500
G1 F1500 X107.964 Y107.115 E35.61833
M204 S2000
G0 F7500 X107.964 Y106.267
M204 S500
G1 F1500 X112.033 Y110.336 E35.90542
M204 S2000
G0 F7500 X112.033 Y109.487
M204 S500
G1 F1500 X107.964 Y105.418 E36.19251
M204 S2000
G0 F7500 X107.964 Y104.57
M204 S500
G1 F1500 X112.033 Y108.638 E36.47957
M204 S2000
G0 F7500 X112.033 Y107.79
M204 S500
G1 F1500 X107.964 Y103.721 E36.76666
M204 S2000
G0 F7500 X107.964 Y102.873
M204 S500
G1 F1500 X112.033 Y106.941 E37.05371
M204 S2000
G0 F7500 X112.033 Y106.093
M204 S500
G1 F1500 X107.964 Y102.024 E37.3408
M204 S2000
G0 F7500 X107.964 Y101.176
M204 S500
G1 F1500 X112.033 Y105.244 E37.62786
M204 S2000
G0 F7500 X112.033 Y104.396
M204 S500
G1 F1500 X107.964 Y100.327 E37.91495
M204 S2000
G0 F7500 X107.964 Y99.479
M204 S500
G1 F1500 X112.033 Y103.547 E38.202
M204 S2000
G0 F7500 X112.033 Y102.699
M204 S500
G1 F1500 X107.964 Y98.63 E38.48909
M204 S2000
G0 F7500 X107.964 Y97.782
M204 S500
G1 F1500 X112.033 Y101.85 E38.77614
M204 S2000
G0 F7500 X112.033 Y101.002
M204 S500
G1 F1500 X107.964 Y96.933 E39.06323
M204 S2000
G0 F7500 X107.964 Y96.084
M204 S500
G1 F1500 X112.033 Y100.153 E39.35032
M204 S2000
G0 F7500 X112.033 Y99.305
M204 S500
G1 F1500 X107.964 Y95.236 E39.63741
M204 S2000
G0 F7500 X107.964 Y94.387
M204 S500
G1 F1500 X112.033 Y98.456 E39.9245
M204 S2000
G0 F7500 X112.033 Y97.608
M204 S500
G1 F1500 X107.964 Y93.539 E40.21159
M204 S2000
G0 F7500 X107.964 Y92.69
M204 S500
G1 F1500 X112.033 Y96.759 E40.49868
M204 S2000
G0 F7500 X112.033 Y95.911
M204 S500
G1 F1500 X107.964 Y91.842 E40.78577
M204 S2000
G0 F7500 X107.964 Y90.993
M204 S500
G1 F1500 X112.033 Y95.062 E41.07286
M204 S2000
G0 F7500 X112.033 Y94.213
M204 S500
G1 F1500 X107.964 Y90.145 E41.35992
M204 S2000
G0 F7500 X107.964 Y89.296
M204 S500
G1 F1500 X112.033 Y93.365 E41.64701
M204 S2000
G0 F7500 X112.033 Y92.516
M204 S500
G1 F1500 X107.964 Y88.448 E41.93406
M204 S2000
G0 F7500 X107.964 Y87.599
M204 S500
G1 F1500 X112.033 Y91.668 E42.22115
M204 S2000
G0 F7500 X112.033 Y90.819
M204 S500
G1 F1500 X107.964 Y86.751 E42.50821
M204 S2000
G0 F7500 X107.964 Y85.902
M204 S500
G1 F1500 X112.033 Y89.971 E42.7953
M204 S2000
G0 F7500 X112.033 Y89.122
M204 S500
G1 F1500 X107.964 Y85.054 E43.08235
M204 S2000
G0 F7500 X107.964 Y84.205
M204 S500
G1 F1500 X112.033 Y88.274 E43.36944
M204 S2000
G0 F7500 X112.033 Y87.425
M204 S500
G1 F1500 X107.964 Y83.357 E43.6565
M204 S2000
G0 F7500 X107.964 Y82.508
M204 S500
G1 F1500 X112.033 Y86.577 E43.94359
M204 S2000
G0 F7500 X112.033 Y85.728
M204 S500
G1 F1500 X108.392 Y82.088 E44.20044
M204 S2000
G0 F7500 X109.241 Y82.088
M204 S500
G1 F1500 X112.033 Y84.88 E44.39743
M204 S2000
G0 F7500 X112.033 Y84.031
M204 S500
G1 F1500 X110.089 Y82.088 E44.53456
M204 S2000
G0 F7500 X110.938 Y82.088
M204 S500
G1 F1500 X112.033 Y83.183 E44.61182
M204 S2000
G0 F7500 X112.033 Y82.334
M204 S500
G1 F1500 X111.787 Y82.088 E44.62917
M104 S200
M204 S2000
G1 F2400 E43.82917
;MESH:NONMESH
G0 F300 X111.787 Y82.088 Z0.4
G0 F7500 X111.787 Y81.448
G0 X112.6 Y81.52
G0 X112.6 Y138.476
G0 X109.999 Y138.748
;TIME_ELAPSED:48.567559
;LAYER:1
M106 S85
M204 S500
;TYPE:WALL-INNER
;MESH:nikodembartnik-98-distance_HS_55mm.stl
G1 F2400 E44.62917
G1 F1650 X112.872 Y138.748 E44.77251
G1 X112.872 Y81.248 E47.64119
G1 X107.124 Y81.248 E47.92796
G1 X107.124 Y138.748 E50.79665
G1 X109.999 Y138.748 E50.94008
M204 S2000
G0 F8250 X109.999 Y139.348
M204 S500
G1 F1650 X113.472 Y139.348 E51.11335
G1 X113.472 Y80.648 E54.04191
G1 X106.524 Y80.648 E54.38855
G1 X106.524 Y139.348 E57.3171
G1 X109.999 Y139.348 E57.49047
M204 S2000
G0 F8250 X109.999 Y139.948
M204 S500
;TYPE:WALL-OUTER
G1 F1650 X114.072 Y139.948 E57.69367
G1 X114.072 Y80.048 E60.68209
G1 X105.924 Y80.048 E61.0886
G1 X105.924 Y139.948 E64.07702
G1 X109.999 Y139.948 E64.28033
M204 S2000
G0 F8250 X109.999 Y138.94
G0 X109.999 Y138.548
G0 X109.999 Y138.208
M204 S500
;TYPE:SKIN
G1 F1650 X107.664 Y138.208 E64.39682
G1 X107.664 Y81.788 E67.21162
G1 X112.332 Y81.788 E67.44451
G1 X112.332 Y138.208 E70.25932
G1 X109.999 Y138.208 E70.37571
M204 S2000
G0 F8250 X109.999 Y138.548
G0 X111.559 Y138.548
G0 X111.559 Y137.908
M204 S500
G1 F1650 X112.032 Y137.435 E70.40908
M204 S2000
G0 F8250 X112.032 Y136.587
M204 S500
G1 F1650 X110.71 Y137.908 E70.50232
M204 S2000
G0 F8250 X109.862 Y137.908
M204 S500
G1 F1650 X112.032 Y135.738 E70.65543
M204 S2000
G0 F8250 X112.032 Y134.89
M204 S500
G1 F1650 X109.013 Y137.908 E70.8684
M204 S2000
G0 F8250 X108.165 Y137.908
M204 S500
G1 F1650 X112.032 Y134.041 E71.14124
M204 S2000
G0 F8250 X112.032 Y133.193
M204 S500
G1 F1650 X107.964 Y137.261 E71.42826
M204 S2000
G0 F8250 X107.964 Y136.412
M204 S500
G1 F1650 X112.032 Y132.344 E71.71528
M204 S2000
G0 F8250 X112.032 Y131.496
M204 S500
G1 F1650 X107.964 Y135.564 E72.0023
M204 S2000
G0 F8250 X107.964 Y134.715
M204 S500
G1 F1650 X112.032 Y130.647 E72.28931
M204 S2000
G0 F8250 X112.032 Y129.799
M204 S500
G1 F1650 X107.964 Y133.867 E72.57633
M204 S2000
G0 F8250 X107.964 Y133.018
M204 S500
G1 F1650 X112.032 Y128.95 E72.86335
M204 S2000
G0 F8250 X112.032 Y128.102
M204 S500
G1 F1650 X107.964 Y132.17 E73.15037
M204 S2000
G0 F8250 X107.964 Y131.321
M204 S500
G1 F1650 X112.032 Y127.253 E73.43739
M204 S2000
G0 F8250 X112.032 Y126.405
M204 S500
G1 F1650 X107.964 Y130.473 E73.72441
M204 S2000
G0 F8250 X107.964 Y129.624
M204 S500
G1 F1650 X112.032 Y125.556 E74.01143
M204 S2000
G0 F8250 X112.032 Y124.707
M204 S500
G1 F1650 X107.964 Y128.775 E74.29845
M204 S2000
G0 F8250 X107.964 Y127.927
M204 S500
G1 F1650 X112.032 Y123.859 E74.58547
M204 S2000
G0 F8250 X112.032 Y123.01
M204 S500
G1 F1650 X107.964 Y127.078 E74.87249
M204 S2000
G0 F8250 X107.964 Y126.23
M204 S500
G1 F1650 X112.032 Y122.162 E75.15951
M204 S2000
G0 F8250 X112.032 Y121.313
M204 S500
G1 F1650 X107.964 Y125.381 E75.44653
M204 S2000
G0 F8250 X107.964 Y124.533
M204 S500
G1 F1650 X112.032 Y120.465 E75.73355
M204 S2000
G0 F8250 X112.032 Y119.616
M204 S500
G1 F1650 X107.964 Y123.684 E76.02057
M204 S2000
G0 F8250 X107.964 Y122.836
M204 S500
G1 F1650 X112.032 Y118.768 E76.30759
M204 S2000
G0 F8250 X112.032 Y117.919
M204 S500
G1 F1650 X107.964 Y121.987 E76.59461
M204 S2000
G0 F8250 X107.964 Y121.139
M204 S500
G1 F1650 X112.032 Y117.071 E76.88162
M204 S2000
G0 F8250 X112.032 Y116.222
M204 S500
G1 F1650 X107.964 Y120.29 E77.16864
M204 S2000
G0 F8250 X107.964 Y119.442
M204 S500
G1 F1650 X112.032 Y115.374 E77.45566
M204 S2000
G0 F8250 X112.032 Y114.525
M204 S500
G1 F1650 X107.964 Y118.593 E77.74268
M204 S2000
G0 F8250 X107.964 Y117.745
M204 S500
G1 F1650 X112.032 Y113.677 E78.0297
M204 S2000
G0 F8250 X112.032 Y112.828
M204 S500
G1 F1650 X107.964 Y116.896 E78.31672
M204 S2000
G0 F8250 X107.964 Y116.048
M204 S500
G1 F1650 X112.032 Y111.98 E78.60374
M204 S2000
G0 F8250 X112.032 Y111.131
M204 S500
G1 F1650 X107.964 Y115.199 E78.89076
M204 S2000
G0 F8250 X107.964 Y114.35
M204 S500
G1 F1650 X112.032 Y110.282 E79.17778
M204 S2000
G0 F8250 X112.032 Y109.434
M204 S500
G1 F1650 X107.964 Y113.502 E79.4648
M204 S2000
G0 F8250 X107.964 Y112.653
M204 S500
G1 F1650 X112.032 Y108.585 E79.75182
M204 S2000
G0 F8250 X112.032 Y107.737
M204 S500
G1 F1650 X107.964 Y111.805 E80.03884
M204 S2000
G0 F8250 X107.964 Y110.956
M204 S500
G1 F1650 X112.032 Y106.888 E80.32586
M204 S2000
G0 F8250 X112.032 Y106.04
M204 S500
G1 F1650 X107.964 Y110.108 E80.61288
M204 S2000
G0 F8250 X107.964 Y109.259
M204 S500
G1 F1650 X112.032 Y105.191 E80.8999
M204 S2000
G0 F8250 X112.032 Y104.343
M204 S500
G1 F1650 X107.964 Y108.411 E81.18692
M204 S2000
G0 F8250 X107.964 Y107.562
M204 S500
G1 F1650 X112.032 Y103.494 E81.47393
M204 S2000
G0 F8250 X112.032 Y102.646
M204 S500
G1 F1650 X107.964 Y106.714 E81.76095
M204 S2000
G0 F8250 X107.964 Y105.865
M204 S500
G1 F1650 X112.032 Y101.797 E82.04797
M204 S2000
G0 F8250 X112.032 Y100.949
M204 S500
G1 F1650 X107.964 Y105.017 E82.33499
M204 S2000
G0 F8250 X107.964 Y104.168
M204 S500
G1 F1650 X112.032 Y100.1 E82.62201
M204 S2000
G0 F8250 X112.032 Y99.252
M204 S500
G1 F1650 X107.964 Y103.32 E82.90903
M204 S2000
G0 F8250 X107.964 Y102.471
M204 S500
G1 F1650 X112.032 Y98.403 E83.19605
M204 S2000
G0 F8250 X112.032 Y97.555
M204 S500
G1 F1650 X107.964 Y101.623 E83.48307
M204 S2000
G0 F8250 X107.964 Y100.774
M204 S500
G1 F1650 X112.032 Y96.706 E83.77009
M204 S2000
G0 F8250 X112.032 Y95.858
M204 S500
G1 F1650 X107.964 Y99.926 E84.05711
M204 S2000
G0 F8250 X107.964 Y99.077
M204 S500
G1 F1650 X112.032 Y95.009 E84.34413
M204 S2000
G0 F8250 X112.032 Y94.16
M204 S500
G1 F1650 X107.964 Y98.228 E84.63115
M204 S2000
G0 F8250 X107.964 Y97.38
M204 S500
G1 F1650 X112.032 Y93.312 E84.91817
M204 S2000
G0 F8250 X112.032 Y92.463
M204 S500
G1 F1650 X107.964 Y96.531 E85.20519
M204 S2000
G0 F8250 X107.964 Y95.683
M204 S500
G1 F1650 X112.032 Y91.615 E85.49221
M204 S2000
G0 F8250 X112.032 Y90.766
M204 S500
G1 F1650 X107.964 Y94.834 E85.77923
M204 S2000
G0 F8250 X107.964 Y93.986
M204 S500
G1 F1650 X112.032 Y89.918 E86.06624
M204 S2000
G0 F8250 X112.032 Y89.069
M204 S500
G1 F1650 X107.964 Y93.137 E86.35326
M204 S2000
G0 F8250 X107.964 Y92.289
M204 S500
G1 F1650 X112.032 Y88.221 E86.64028
M204 S2000
G0 F8250 X112.032 Y87.372
M204 S500
G1 F1650 X107.964 Y91.44 E86.9273
M204 S2000
G0 F8250 X107.964 Y90.592
M204 S500
G1 F1650 X112.032 Y86.524 E87.21432
M204 S2000
G0 F8250 X112.032 Y85.675
M204 S500
G1 F1650 X107.964 Y89.743 E87.50134
M204 S2000
G0 F8250 X107.964 Y88.895
M204 S500
G1 F1650 X112.032 Y84.827 E87.78836
M204 S2000
G0 F8250 X112.032 Y83.978
M204 S500
G1 F1650 X107.964 Y88.046 E88.07538
M204 S2000
G0 F8250 X107.964 Y87.198
M204 S500
G1 F1650 X112.032 Y83.13 E88.3624
M204 S2000
G0 F8250 X112.032 Y82.281
M204 S500
G1 F1650 X107.964 Y86.349 E88.64942
M204 S2000
G0 F8250 X107.964 Y85.501
M204 S500
G1 F1650 X111.376 Y82.088 E88.89019
M204 S2000
G0 F8250 X110.528 Y82.088
M204 S500
G1 F1650 X107.964 Y84.652 E89.07109
M204 S2000
G0 F8250 X107.964 Y83.803
M204 S500
G1 F1650 X109.679 Y82.088 E89.1921
M204 S2000
G0 F8250 X108.831 Y82.088
M204 S500
G1 F1650 X107.964 Y82.955 E89.25327
M204 S2000
G1 F2400 E88.45327
;MESH:NONMESH
G0 F300 X107.964 Y82.955 Z0.6
G0 F8250 X107.324 Y82.955
G0 X107.396 Y138.476
G0 X109.999 Y138.748
;TIME_ELAPSED:89.881696
;LAYER:2
M106 S170
M204 S500
;TYPE:WALL-INNER
;MESH:nikodembartnik-98-distance_HS_55mm.stl
G1 F2400 E89.25327
G1 F1800 X112.872 Y138.748 E89.3966
G1 X112.872 Y81.248 E92.26529
G1 X107.124 Y81.248 E92.55206
G1 X107.124 Y138.748 E95.42074
G1 X109.999 Y138.748 E95.56418
M204 S2000
G0 F9000 X109.999 Y139.348
M204 S500
G1 F1800 X113.472 Y139.348 E95.73745
G1 X113.472 Y80.648 E98.666
G1 X106.524 Y80.648 E99.01264
G1 X106.524 Y139.348 E101.94119
