;FLAVOR:Marlin
;TIME:4720
;Filament used: 5.43164m
;Layer height: 0.2
;MINX:75.708
;MINY:80.6
;MINZ:0.2
;MAXX:144.292
;MAXY:149.492
;MAXZ:7.6
;TARGET_MACHINE.NAME:Creality Ender-3 S1
;Generated with Cura_SteamEngine 5.9.0
M82 ;absolute extrusion mode
; Ender 3 S1 Start G-code
; M413 S0 ; Disable power loss recovery
M201 X500.00 Y500.00 Z100.00 E5000.00 ;Setup machine max acceleration
M203 X500.00 Y500.00 Z20.00 E50.00 ;Setup machine max feedrate
M204 P500.00 R1000.00 T500.00 ;Setup Print/Retract/Travel acceleration
M205 X8.00 Y8.00 Z0.40 E5.00 ;Setup Jerk
M220 S100 ;Reset Feedrate
M221 S100 ;Reset Flowrate
G92 E0 ; Reset Extruder

; Prep surfaces before auto home for better accuracy
M140 S60
M104 S200
G92 E0 ; Reset Extruder
G28 ; Home all axes
M420 S1 Z10; Use Level Mesh up to 2mm;
G1 Z10.0 F3000 ; Move Z Axis up little to prevent scratching of Heat Bed
G1 X0 Y0

M190 S60
M109 S200

G1 X0.1 Y20 Z0.3 F5000.0 ; Move to start position
G1 X0.1 Y200.0 Z0.3 F1500.0 E15 ; Draw the first line
G1 X0.4 Y200.0 Z0.3 F5000.0 ; Move to side a little
G1 X0.4 Y20 Z0.3 F1500.0 E30 ; Draw the second line
G92 E0 ; Reset Extruder
G1 Z2.0 F3000 ; Move Z Axis up little to prevent scratching of Heat Bed
G1 X5 Y20 Z0.3 F5000.0 ; Move over to prevent blob squish
G92 E0
G92 E0
G1 F2400 E-0.8
;LAYER_COUNT:38
;LAYER:0
M107
M204 S2000
;MESH:nikodembartnik-98-distance_HS_55mm.stl(5)
G0 F7500 X82.492 Y120.133 Z0.2
M204 S500
;TYPE:WALL-INNER
G1 F2400 E0
G1 F1500 X82.492 Y81.8 E1.91244
G1 X76.908 Y81.8 E2.19103
G1 X76.908 Y138.2 E5.00484
G1 X82.492 Y138.2 E5.28342
G1 X82.492 Y120.133 E6.18479
M204 S2000
G0 F7500 X82.684 Y122.311
G0 X83.092 Y122.311
M204 S500
G1 F1500 X83.092 Y81.2 E8.23582
G1 X76.308 Y81.2 E8.57428
G1 X76.308 Y138.8 E11.44796
G1 X83.092 Y138.8 E11.78641
G1 X83.092 Y122.311 E12.60905
M204 S2000
G1 F2400 E11.80905
G0 F7500 X82.684 Y122.311
G0 X82.684 Y124.489
G0 X83.692 Y124.489
M204 S500
;TYPE:WALL-OUTER
G1 F2400 E12.60905
G1 F1500 X83.692 Y80.6 E14.79868
G1 X75.708 Y80.6 E15.197
G1 X75.708 Y139.4 E18.13055
G1 X83.692 Y139.4 E18.52887
G1 X83.692 Y124.489 E19.27278
M204 S2000
G0 F7500 X82.684 Y124.489
G0 X82.292 Y118.172
G0 X81.952 Y118.172
M204 S500
;TYPE:SKIN
G1 F1500 X81.952 Y137.66 E20.24505
G1 X77.448 Y137.66 E20.46975
G1 X77.448 Y82.34 E23.22968
G1 X81.952 Y82.34 E23.45438
G1 X81.952 Y118.172 E25.24205
M204 S2000
G0 F7500 X82.292 Y118.172
G0 X82.22 Y137.928
G0 X77.18 Y137.928
G0 X77.108 Y137.145
G0 X77.748 Y137.145
M204 S500
G1 F1500 X77.963 Y137.36 E25.25722
M204 S2000
G0 F7500 X78.811 Y137.36
M204 S500
G1 F1500 X77.748 Y136.296 E25.33225
M204 S2000
G0 F7500 X77.748 Y135.448
M204 S500
G1 F1500 X79.66 Y137.36 E25.46715
M204 S2000
G0 F7500 X80.508 Y137.36
M204 S500
G1 F1500 X77.748 Y134.599 E25.66192
M204 S2000
G0 F7500 X77.748 Y133.751
M204 S500
G1 F1500 X81.357 Y137.36 E25.91656
M204 S2000
G0 F7500 X81.652 Y136.806
M204 S500
G1 F1500 X77.748 Y132.902 E26.19201
M204 S2000
G0 F7500 X77.748 Y132.054
M204 S500
G1 F1500 X81.652 Y135.958 E26.46745
M204 S2000
G0 F7500 X81.652 Y135.109
M204 S500
G1 F1500 X77.748 Y131.205 E26.7429
M204 S2000
G0 F7500 X77.748 Y130.357
M204 S500
G1 F1500 X81.652 Y134.26 E27.01832
M204 S2000
G0 F7500 X81.652 Y133.412
M204 S500
G1 F1500 X77.748 Y129.508 E27.29376
M204 S2000
G0 F7500 X77.748 Y128.659
M204 S500
G1 F1500 X81.652 Y132.563 E27.56921
M204 S2000
G0 F7500 X81.652 Y131.715
M204 S500
G1 F1500 X77.748 Y127.811 E27.84466
M204 S2000
G0 F7500 X77.748 Y126.962
M204 S500
G1 F1500 X81.652 Y130.866 E28.12011
M204 S2000
G0 F7500 X81.652 Y130.018
M204 S500
G1 F1500 X77.748 Y126.114 E28.39556
M204 S2000
G0 F7500 X77.748 Y125.265
M204 S500
G1 F1500 X81.652 Y129.169 E28.671
M204 S2000
G0 F7500 X81.652 Y128.321
M204 S500
G1 F1500 X77.748 Y124.417 E28.94645
M204 S2000
G0 F7500 X77.748 Y123.568
M204 S500
G1 F1500 X81.652 Y127.472 E29.2219
M204 S2000
G0 F7500 X81.652 Y126.624
M204 S500
G1 F1500 X77.748 Y122.72 E29.49735
M204 S2000
G0 F7500 X77.748 Y121.871
M204 S500
G1 F1500 X81.652 Y125.775 E29.7728
M204 S2000
G0 F7500 X81.652 Y124.927
M204 S500
G1 F1500 X77.748 Y121.023 E30.04825
M204 S2000
G0 F7500 X77.748 Y120.174
M204 S500
G1 F1500 X81.652 Y124.078 E30.32369
M204 S2000
G0 F7500 X81.652 Y123.23
M204 S500
G1 F1500 X77.748 Y119.326 E30.59914
M204 S2000
G0 F7500 X77.748 Y118.477
M204 S500
G1 F1500 X81.652 Y122.381 E30.87459
M204 S2000
G0 F7500 X81.652 Y121.533
M204 S500
G1 F1500 X77.748 Y117.629 E31.15004
M204 S2000
G0 F7500 X77.748 Y116.78
M204 S500
G1 F1500 X81.652 Y120.684 E31.42549
M204 S2000
G0 F7500 X81.652 Y119.836
M204 S500
G1 F1500 X77.748 Y115.932 E31.70094
M204 S2000
G0 F7500 X77.748 Y115.083
M204 S500
G1 F1500 X81.652 Y118.987 E31.97638
M204 S2000
G0 F7500 X81.652 Y118.138
M204 S500
G1 F1500 X77.748 Y114.235 E32.2518
M204 S2000
G0 F7500 X77.748 Y113.386
M204 S500
G1 F1500 X81.652 Y117.29 E32.52725
M204 S2000
G0 F7500 X81.652 Y116.441
M204 S500
G1 F1500 X77.748 Y112.537 E32.80269
M204 S2000
G0 F7500 X77.748 Y111.689
M204 S500
G1 F1500 X81.652 Y115.593 E33.07814
M204 S2000
G0 F7500 X81.652 Y114.744
M204 S500
G1 F1500 X77.748 Y110.84 E33.35359
M204 S2000
G0 F7500 X77.748 Y109.992
M204 S500
G1 F1500 X81.652 Y113.896 E33.62904
M204 S2000
G0 F7500 X81.652 Y113.047
M204 S500
G1 F1500 X77.748 Y109.143 E33.90449
M204 S2000
G0 F7500 X77.748 Y108.295
M204 S500
G1 F1500 X81.652 Y112.199 E34.17994
M204 S2000
G0 F7500 X81.652 Y111.35
M204 S500
G1 F1500 X77.748 Y107.446 E34.45538
M204 S2000
G0 F7500 X77.748 Y106.598
M204 S500
G1 F1500 X81.652 Y110.502 E34.73083
M204 S2000
G0 F7500 X81.652 Y109.653
M204 S500
G1 F1500 X77.748 Y105.749 E35.00628
M204 S2000
G0 F7500 X77.748 Y104.901
M204 S500
G1 F1500 X81.652 Y108.805 E35.28173
M204 S2000
G0 F7500 X81.652 Y107.956
M204 S500
G1 F1500 X77.748 Y104.052 E35.55718
M204 S2000
G0 F7500 X77.748 Y103.204
M204 S500
G1 F1500 X81.652 Y107.108 E35.83263
M204 S2000
G0 F7500 X81.652 Y106.259
M204 S500
G1 F1500 X77.748 Y102.355 E36.10807
M204 S2000
G0 F7500 X77.748 Y101.507
M204 S500
G1 F1500 X81.652 Y105.411 E36.38352
M204 S2000
G0 F7500 X81.652 Y104.562
M204 S500
G1 F1500 X77.748 Y100.658 E36.65897
M204 S2000
G0 F7500 X77.748 Y99.81
M204 S500
G1 F1500 X81.652 Y103.713 E36.93438
M204 S2000
G0 F7500 X81.652 Y102.865
M204 S500
G1 F1500 X77.748 Y98.961 E37.20983
M204 S2000
G0 F7500 X77.748 Y98.112
M204 S500
G1 F1500 X81.652 Y102.016 E37.48528
M204 S2000
G0 F7500 X81.652 Y101.168
M204 S500
G1 F1500 X77.748 Y97.264 E37.76073
M204 S2000
G0 F7500 X77.748 Y96.415
M204 S500
G1 F1500 X81.652 Y100.319 E38.03618
M204 S2000
G0 F7500 X81.652 Y99.471
M204 S500
G1 F1500 X77.748 Y95.567 E38.31162
M204 S2000
G0 F7500 X77.748 Y94.718
M204 S500
G1 F1500 X81.652 Y98.622 E38.58707
M204 S2000
G0 F7500 X81.652 Y97.774
M204 S500
G1 F1500 X77.748 Y93.87 E38.86252
M204 S2000
G0 F7500 X77.748 Y93.021
M204 S500
G1 F1500 X81.652 Y96.925 E39.13797
M204 S2000
G0 F7500 X81.652 Y96.077
M204 S500
G1 F1500 X77.748 Y92.173 E39.41342
M204 S2000
G0 F7500 X77.748 Y91.324
M204 S500
G1 F1500 X81.652 Y95.228 E39.68887
M204 S2000
G0 F7500 X81.652 Y94.38
M204 S500
G1 F1500 X77.748 Y90.476 E39.96431
M204 S2000
G0 F7500 X77.748 Y89.627
M204 S500
G1 F1500 X81.652 Y93.531 E40.23976
M204 S2000
G0 F7500 X81.652 Y92.683
M204 S500
G1 F1500 X77.748 Y88.779 E40.51521
M204 S2000
G0 F7500 X77.748 Y87.93
M204 S500
G1 F1500 X81.652 Y91.834 E40.79066
M204 S2000
G0 F7500 X81.652 Y90.986
M204 S500
G1 F1500 X77.748 Y87.082 E41.06611
M204 S2000
G0 F7500 X77.748 Y86.233
M204 S500
G1 F1500 X81.652 Y90.137 E41.34156
M204 S2000
G0 F7500 X81.652 Y89.288
M204 S500
G1 F1500 X77.748 Y85.385 E41.61697
M204 S2000
G0 F7500 X77.748 Y84.536
M204 S500
G1 F1500 X81.652 Y88.44 E41.89242
M204 S2000
G0 F7500 X81.652 Y87.591
M204 S500
G1 F1500 X77.748 Y83.688 E42.16783
M204 S2000
G0 F7500 X77.748 Y82.839
M204 S500
G1 F1500 X81.652 Y86.743 E42.44328
M204 S2000
G0 F7500 X81.652 Y85.894
M204 S500
G1 F1500 X78.398 Y82.64 E42.67287
M204 S2000
G0 F7500 X79.246 Y82.64
M204 S500
G1 F1500 X81.652 Y85.046 E42.84262
M204 S2000
G0 F7500 X81.652 Y84.197
M204 S500
G1 F1500 X80.095 Y82.64 E42.95248
M204 S2000
G0 F7500 X80.943 Y82.64
M204 S500
G1 F1500 X81.652 Y83.349 E43.0025
M204 S2000
G1 F2400 E42.2025
;MESH:nikodembartnik-98-distance_HS_55mm.stl(3)
G0 F7500 X82.292 Y83.349
G0 X83.364 Y125.204
G0 X86.137 Y125.204
G0 X87.276 Y137.928
G0 X92.32 Y137.928
G0 X92.592 Y125.204
M204 S500
;TYPE:WALL-INNER
G1 F2400 E43.0025
G1 F1500 X92.592 Y81.8 E45.16793
G1 X87.004 Y81.8 E45.44672
G1 X87.004 Y138.2 E48.26053
G1 X92.592 Y138.2 E48.53931
G1 X92.592 Y125.204 E49.18769
M204 S2000
G0 F7500 X92.783 Y128.471
G0 X93.192 Y128.471
M204 S500
G1 F1500 X93.192 Y81.2 E51.54605
G1 X86.404 Y81.2 E51.8847
G1 X86.404 Y138.8 E54.75838
G1 X93.192 Y138.8 E55.09703
G1 X93.192 Y128.471 E55.61235
M204 S2000
G1 F2400 E54.81235
G0 F7500 X92.783 Y128.471
G0 X92.783 Y131.739
G0 X93.792 Y131.739
M204 S500
;TYPE:WALL-OUTER
G1 F2400 E55.61235
G1 F1500 X93.792 Y80.6 E58.16368
G1 X85.804 Y80.6 E58.56221
G1 X85.804 Y139.4 E61.49575
G1 X93.792 Y139.4 E61.89427
G1 X93.792 Y131.739 E62.27648
M204 S2000
G0 F7500 X92.783 Y131.739
G0 X92.392 Y122.263
G0 X92.052 Y122.263
M204 S500
;TYPE:SKIN
G1 F1500 X92.052 Y137.66 E63.04464
G1 X87.544 Y137.66 E63.26955
G1 X87.544 Y82.34 E66.02947
G1 X92.052 Y82.34 E66.25438
G1 X92.052 Y122.263 E68.24614
M204 S2000
G0 F7500 X92.392 Y122.263
G0 X92.32 Y137.928
G0 X87.276 Y137.928
G0 X87.204 Y137.059
G0 X87.844 Y137.059
M204 S500
G1 F1500 X88.145 Y137.36 E68.26738
M204 S2000
G0 F7500 X88.994 Y137.36
M204 S500
G1 F1500 X87.844 Y136.21 E68.34852
M204 S2000
G0 F7500 X87.844 Y135.361
M204 S500
G1 F1500 X89.842 Y137.36 E68.48953
M204 S2000
G0 F7500 X90.691 Y137.36
M204 S500
G1 F1500 X87.844 Y134.513 E68.6904
M204 S2000
G0 F7500 X87.844 Y133.664
M204 S500
G1 F1500 X91.539 Y137.36 E68.95113
M204 S2000
G0 F7500 X91.752 Y136.724
M204 S500
G1 F1500 X87.844 Y132.816 E69.22686
M204 S2000
G0 F7500 X87.844 Y131.967
M204 S500
G1 F1500 X91.752 Y135.876 E69.50263
M204 S2000
G0 F7500 X91.752 Y135.027
M204 S500
G1 F1500 X87.844 Y131.119 E69.77836
M204 S2000
G0 F7500 X87.844 Y130.27
M204 S500
G1 F1500 X91.752 Y134.178 E70.05409
M204 S2000
G0 F7500 X91.752 Y133.33
M204 S500
G1 F1500 X87.844 Y129.422 E70.32982
M204 S2000
G0 F7500 X87.844 Y128.573
M204 S500
G1 F1500 X91.752 Y132.481 E70.60555
M204 S2000
G0 F7500 X91.752 Y131.633
M204 S500
G1 F1500 X87.844 Y127.725 E70.88128
M204 S2000
G0 F7500 X87.844 Y126.876
M204 S500
G1 F1500 X91.752 Y130.784 E71.15701
M204 S2000
G0 F7500 X91.752 Y129.936
M204 S500
G1 F1500 X87.844 Y126.028 E71.43274
M204 S2000
G0 F7500 X87.844 Y125.179
M204 S500
G1 F1500 X91.752 Y129.087 E71.70847
M204 S2000
G0 F7500 X91.752 Y128.239
M204 S500
G1 F1500 X87.844 Y124.331 E71.9842
M204 S2000
G0 F7500 X87.844 Y123.482
M204 S500
G1 F1500 X91.752 Y127.39 E72.25994
M204 S2000
G0 F7500 X91.752 Y126.542
M204 S500
G1 F1500 X87.844 Y122.634 E72.53567
M204 S2000
G0 F7500 X87.844 Y121.785
M204 S500
G1 F1500 X91.752 Y125.693 E72.8114
M204 S2000
G0 F7500 X91.752 Y124.845
M204 S500
G1 F1500 X87.844 Y120.936 E73.08716
M204 S2000
G0 F7500 X87.844 Y120.088
M204 S500
G1 F1500 X91.752 Y123.996 E73.36289
M204 S2000
G0 F7500 X91.752 Y123.148
M204 S500
G1 F1500 X87.844 Y119.239 E73.63866
M204 S2000
G0 F7500 X87.844 Y118.391
M204 S500
G1 F1500 X91.752 Y122.299 E73.91439
M204 S2000
G0 F7500 X91.752 Y121.451
M204 S500
G1 F1500 X87.844 Y117.542 E74.19015
M204 S2000
G0 F7500 X87.844 Y116.694
M204 S500
G1 F1500 X91.752 Y120.602 E74.46589
M204 S2000
G0 F7500 X91.752 Y119.753
M204 S500
G1 F1500 X87.844 Y115.845 E74.74162
M204 S2000
G0 F7500 X87.844 Y114.997
M204 S500
G1 F1500 X91.752 Y118.905 E75.01735
M204 S2000
G0 F7500 X91.752 Y118.056
M204 S500
G1 F1500 X87.844 Y114.148 E75.29308
M204 S2000
G0 F7500 X87.844 Y113.3
M204 S500
G1 F1500 X91.752 Y117.208 E75.56881
M204 S2000
G0 F7500 X91.752 Y116.359
M204 S500
G1 F1500 X87.844 Y112.451 E75.84454
M204 S2000
G0 F7500 X87.844 Y111.603
M204 S500
G1 F1500 X91.752 Y115.511 E76.12027
M204 S2000
G0 F7500 X91.752 Y114.662
M204 S500
G1 F1500 X87.844 Y110.754 E76.396
M204 S2000
G0 F7500 X87.844 Y109.906
M204 S500
G1 F1500 X91.752 Y113.814 E76.67173
M204 S2000
G0 F7500 X91.752 Y112.965
M204 S500
G1 F1500 X87.844 Y109.057 E76.94746
M204 S2000
G0 F7500 X87.844 Y108.209
M204 S500
G1 F1500 X91.752 Y112.117 E77.22319
M204 S2000
G0 F7500 X91.752 Y111.268
M204 S500
G1 F1500 X87.844 Y107.36 E77.49892
M204 S2000
G0 F7500 X87.844 Y106.511
M204 S500
G1 F1500 X91.752 Y110.42 E77.77469
M204 S2000
G0 F7500 X91.752 Y109.571
M204 S500
G1 F1500 X87.844 Y105.663 E78.05042
M204 S2000
G0 F7500 X87.844 Y104.814
M204 S500
G1 F1500 X91.752 Y108.723 E78.32618
M204 S2000
G0 F7500 X91.752 Y107.874
M204 S500
G1 F1500 X87.844 Y103.966 E78.60191
M204 S2000
G0 F7500 X87.844 Y103.117
M204 S500
G1 F1500 X91.752 Y107.026 E78.87768
M204 S2000
G0 F7500 X91.752 Y106.177
M204 S500
G1 F1500 X87.844 Y102.269 E79.15341
M204 S2000
G0 F7500 X87.844 Y101.42
M204 S500
G1 F1500 X91.752 Y105.329 E79.42918
M204 S2000
G0 F7500 X91.752 Y104.48
M204 S500
G1 F1500 X87.844 Y100.572 E79.70491
M204 S2000
G0 F7500 X87.844 Y99.723
M204 S500
G1 F1500 X91.752 Y103.631 E79.98064
M204 S2000
G0 F7500 X91.752 Y102.783
M204 S500
G1 F1500 X87.844 Y98.875 E80.25637
M204 S2000
G0 F7500 X87.844 Y98.026
M204 S500
G1 F1500 X91.752 Y101.934 E80.5321
M204 S2000
G0 F7500 X91.752 Y101.086
M204 S500
G1 F1500 X87.844 Y97.178 E80.80783
M204 S2000
G0 F7500 X87.844 Y96.329
M204 S500
G1 F1500 X91.752 Y100.237 E81.08356
M204 S2000
G0 F7500 X91.752 Y99.389
M204 S500
G1 F1500 X87.844 Y95.481 E81.35929
M204 S2000
G0 F7500 X87.844 Y94.632
M204 S500
G1 F1500 X91.752 Y98.54 E81.63502
M204 S2000
G0 F7500 X91.752 Y97.692
M204 S500
G1 F1500 X87.844 Y93.784 E81.91075
M204 S2000
G0 F7500 X87.844 Y92.935
M204 S500
G1 F1500 X91.752 Y96.843 E82.18648
M204 S2000
G0 F7500 X91.752 Y95.995
M204 S500
G1 F1500 X87.844 Y92.087 E82.46221
M204 S2000
G0 F7500 X87.844 Y91.238
M204 S500
G1 F1500 X91.752 Y95.146 E82.73794
M204 S2000
G0 F7500 X91.752 Y94.298
M204 S500
G1 F1500 X87.844 Y90.389 E83.01371
M204 S2000
G0 F7500 X87.844 Y89.541
M204 S500
G1 F1500 X91.752 Y93.449 E83.28944
M204 S2000
G0 F7500 X91.752 Y92.601
M204 S500
G1 F1500 X87.844 Y88.692 E83.5652
M204 S2000
G0 F7500 X87.844 Y87.844
M204 S500
G1 F1500 X91.752 Y91.752 E83.84093
M204 S2000
G0 F7500 X91.752 Y90.904
M204 S500
G1 F1500 X87.844 Y86.995 E84.1167
M204 S2000
G0 F7500 X87.844 Y86.147
M204 S500
G1 F1500 X91.752 Y90.055 E84.39243
M204 S2000
G0 F7500 X91.752 Y89.206
M204 S500
G1 F1500 X87.844 Y85.298 E84.66816
M204 S2000
G0 F7500 X87.844 Y84.45
M204 S500
G1 F1500 X91.752 Y88.358 E84.94389
M204 S2000
G0 F7500 X91.752 Y87.509
M204 S500
G1 F1500 X87.844 Y83.601 E85.21962
M204 S2000
G0 F7500 X87.844 Y82.753
M204 S500
G1 F1500 X91.752 Y86.661 E85.49535
M204 S2000
G0 F7500 X91.752 Y85.812
M204 S500
G1 F1500 X88.58 Y82.64 E85.71915
M204 S2000
G0 F7500 X89.429 Y82.64
M204 S500
G1 F1500 X91.752 Y84.964 E85.88309
M204 S2000
G0 F7500 X91.752 Y84.115
M204 S500
G1 F1500 X90.277 Y82.64 E85.98716
M204 S2000
G0 F7500 X91.126 Y82.64
M204 S500
G1 F1500 X91.752 Y83.267 E86.03136
M204 S2000
G1 F2400 E85.23136
;MESH:nikodembartnik-98-distance_HS_55mm.stl(1)
G0 F7500 X92.392 Y83.267
G0 X93.463 Y138.2
G0 X96.236 Y138.2
G0 X102.489 Y138.2
M204 S500
;TYPE:WALL-INNER
G1 F2400 E86.03136
G1 F1500 X102.692 Y138.2 E86.04149
G1 X102.692 Y81.8 E88.8553
G1 X97.104 Y81.8 E89.13408
G1 X97.104 Y138.2 E91.94789
G1 X102.489 Y138.2 E92.21655
M204 S2000
G0 F7500 X102.544 Y138.8
M204 S500
G1 F1500 X103.292 Y138.8 E92.25387
G1 X103.292 Y81.2 E95.12754
G1 X96.504 Y81.2 E95.4662
G1 X96.504 Y138.8 E98.33987
G1 X102.544 Y138.8 E98.64121
M204 S2000
G0 F7500 X102.599 Y139.4
M204 S500
;TYPE:WALL-OUTER
G1 F1500 X103.892 Y139.4 E98.70572
G1 X103.892 Y80.6 E101.63926
G1 X95.904 Y80.6 E102.03779
G1 X95.904 Y139.4 E104.97133
G1 X102.599 Y139.4 E105.30534
M204 S2000
G0 F7500 X102.599 Y138.39
G0 X102.492 Y134.535
G0 X102.152 Y134.535
M204 S500
;TYPE:SKIN
G1 F1500 X102.152 Y137.66 E105.46125
G1 X97.644 Y137.66 E105.68616
G1 X97.644 Y82.34 E108.44608
G1 X102.152 Y82.34 E108.67099
G1 X102.152 Y134.535 E111.27501
M204 S2000
G0 F7500 X102.492 Y134.535
