; generated by PrusaSlicer 2.9.0 on 2025-06-11 at 15:13:17 UTC

; 

; external perimeters extrusion width = 0.63mm
; perimeters extrusion width = 0.66mm
; infill extrusion width = 0.66mm
; solid infill extrusion width = 0.66mm
; top infill extrusion width = 0.60mm
; first layer extrusion width = 0.63mm

M201 X500 Y500 Z100 E5000 ; sets maximum accelerations, mm/sec^2
M203 X500 Y500 Z10 E60 ; sets maximum feedrates, mm / sec
M204 S500 T1000 ; sets acceleration (S) and retract acceleration (R), mm/sec^2
M205 X8.00 Y8.00 Z0.40 E5.00 ; sets the jerk limits, mm/sec
M205 S0 T0 ; sets the minimum extruding and travel feed rate, mm/sec

; printing object nikodembartnik-46-rim id:0 copy 0
; stop printing object nikodembartnik-46-rim id:0 copy 0
; printing object nikodembartnik-46-rim id:0 copy 1
; stop printing object nikodembartnik-46-rim id:0 copy 1

;TYPE:Custom
G90 ; use absolute coordinates
M83 ; extruder relative mode
M104 S150 ; set temporary nozzle temp to prevent oozing during homing
M140 S60 ; set final bed temp
G4 S30 ; allow partial nozzle warmup
G28 ; home all axis and restore leveling
G1 Z50 F240
G1 X2.0 Y10 F3000
M104 S210 ; set final nozzle temp
M190 S60 ; wait for bed temp to stabilize
M109 S210 ; wait for nozzle temp to stabilize
G1 Z0.28 F240
G92 E0
G1 X2.0 Y140 E10 F1500 ; prime the nozzle
G1 X2.3 Y140 F5000
G92 E0
G1 X2.3 Y10 E10 F1200 ; prime the nozzle
G92 E0
G21 ; set units to millimeters
G90 ; use absolute coordinates
M83 ; use relative distances for extrusion
; Filament gcode
M107
;LAYER_CHANGE
;Z:0.3
;HEIGHT:0.3
G1 E-.8 F1800
G1 Z.3 F9000
G1 X120.117 Y86.071
G1 Z.3
G1 E.8 F1800
M204 S500
;TYPE:Skirt/Brim
;WIDTH:0.63
G1 F1200
G1 X121.491 Y84.22 E.16263
G1 X123.001 Y82.44 E.16467
G1 X125.683 Y79.781 E.26643
G1 X127.475 Y78.286 E.16464
G1 X129.337 Y76.928 E.16258
G1 X131.356 Y75.651 E.16853
G1 X133.407 Y74.537 E.16466
G1 X136.869 Y73.026 E.26648
G1 X139.08 Y72.279 E.16464
G1 X141.352 Y71.675 E.16585
G1 X143.689 Y71.218 E.16799
G1 X145.938 Y70.93 E.15996
G1 X149.63 Y70.767 E.26071
G1 X153.315 Y70.988 E.26043
G1 X155.625 Y71.325 E.16469
G1 X157.879 Y71.805 E.16258
G1 X161.44 Y72.887 E.26256
G1 X163.531 Y73.719 E.15876
G1 X165.639 Y74.72 E.16463
G1 X168.853 Y76.596 E.26254
G1 X170.739 Y77.922 E.16265
G1 X172.172 Y79.066 E.12936
G1 X173.55 Y80.277 E.12942
G1 X175.186 Y81.9 E.16257
G1 X177.597 Y84.735 E.26255
G1 X178.953 Y86.635 E.16467
G1 X180.139 Y88.547 E.15873
G1 X181.828 Y91.863 E.26253
G1 X182.697 Y93.998 E.16262
G1 X183.433 Y96.212 E.1646
G1 X184.3 Y99.809 E.26103
G1 X184.784 Y103.443 E.25863
G1 X184.897 Y105.768 E.16422
G1 X184.858 Y108.073 E.16263
G1 X184.481 Y111.775 E.26252
G1 X184.048 Y114.069 E.16469
G1 X183.473 Y116.301 E.1626
G1 X182.726 Y118.57 E.16852
G1 X181.839 Y120.76 E.16669
G1 X153.452 Y185.701 E4.99998
G1 X152.442 Y187.773 E.16262
G1 X151.256 Y189.847 E.16855
G1 X149.933 Y191.836 E.16852
G1 X148.48 Y193.732 E.16852
G1 X146.844 Y195.587 E.17449
G1 X145.105 Y197.305 E.17245
G1 X142.902 Y199.172 E.20372
G1 X140.558 Y200.86 E.20378
G1 X138.471 Y202.134 E.1725
G1 X136.277 Y203.273 E.1744
G1 X134.086 Y204.227 E.16859
G1 X131.784 Y205.047 E.1724
G1 X129.484 Y205.694 E.16856
G1 X126.227 Y206.334 E.23417
G1 X123.729 Y206.616 E.17735
G1 X121.343 Y206.72 E.16849
G1 X118.87 Y206.657 E.17452
G1 X116.437 Y206.427 E.17241
G1 X114.08 Y206.041 E.16849
G1 X110.791 Y205.223 E.2391
G1 X108.345 Y204.392 E.18225
G1 X105.066 Y202.95 E.2527
G1 X101.994 Y201.215 E.2489
G1 X99.024 Y199.115 E.25661
G1 X96.362 Y196.8 E.24888
G1 X93.907 Y194.19 E.25278
G1 X91.728 Y191.347 E.2527
G1 X89.886 Y188.372 E.24685
G1 X88.312 Y185.154 E.25272
G1 X87.07 Y181.793 E.25278
G1 X86.168 Y178.301 E.25444
G1 X85.642 Y174.904 E.2425
G1 X85.461 Y172.261 E.18689
G1 X85.531 Y168.679 E.25275
G1 X85.952 Y165.176 E.24891
G1 X86.747 Y161.627 E.25658
G1 X87.446 Y159.4 E.16467
G1 X88.312 Y157.173 E.16857
G1 X116.665 Y92.306 E4.99423
G1 X118.228 Y89.115 E.25067
G1 X120.07 Y86.147 E.24643
;WIPE_START
G1 F7200
G1 X120.117 Y86.071 E-.02122
G1 X121.491 Y84.22 E-.54749
G1 X122.121 Y83.478 E-.23129
;WIPE_END
G1 X120.17 Y139.657 F9000
G1 E.8 F1800
G1 F1200
G1 X122.335 Y139.675 E.15274
G1 X125.487 Y139.967 E.22332
G1 X128.594 Y140.575 E.22335
G1 X131.637 Y141.495 E.22427
G1 X134.574 Y142.718 E.22444
G1 X137.401 Y144.249 E.22681
G1 X140.026 Y146.036 E.22402
G1 X142.458 Y148.078 E.22403
G1 X144.672 Y150.354 E.224
G1 X146.646 Y152.841 E.224
G1 X148.36 Y155.515 E.22407
G1 X149.796 Y158.347 E.22401
G1 X150.939 Y161.31 E.22404
G1 X151.786 Y164.405 E.22637
G1 X152.298 Y167.441 E.21721
G1 X152.514 Y170.595 E.22303
G1 X152.479 Y172.751 E.15212
G1 X152.16 Y175.91 E.22399
G1 X151.526 Y179.012 E.22336
G1 X150.564 Y182.09 E.2275
G1 X149.315 Y185.009 E.22399
G1 X147.778 Y187.788 E.22404
G1 X145.969 Y190.398 E.22403
G1 X143.881 Y192.84 E.22667
G1 X141.698 Y194.932 E.2133
G1 X140.003 Y196.309 E.15406
G1 X137.368 Y198.098 E.22469
G1 X134.58 Y199.606 E.22361
G1 X131.643 Y200.83 E.22447
G1 X128.566 Y201.759 E.22675
G1 X125.411 Y202.37 E.22671
G1 X122.287 Y202.654 E.2213
G1 X119.19 Y202.628 E.21849
G1 X116.57 Y202.363 E.18578
G1 X115.027 Y202.109 E.11032
G1 X112.85 Y201.608 E.1576
G1 X109.827 Y200.633 E.22408
G1 X106.919 Y199.359 E.22398
G1 X104.153 Y197.799 E.22403
G1 X101.558 Y195.968 E.22405
G1 X99.189 Y193.912 E.22129
G1 X97.036 Y191.632 E.22123
G1 X95.669 Y189.913 E.15494
G1 X93.911 Y187.269 E.22399
G1 X92.428 Y184.461 E.22403
G1 X91.227 Y181.497 E.22562
G1 X90.335 Y178.433 E.22513
G1 X89.774 Y175.426 E.2158
G1 X89.504 Y172.262 E.22402
G1 X89.556 Y169.047 E.22684
G1 X89.922 Y165.932 E.22127
G1 X90.606 Y162.831 E.22403
G1 X91.425 Y160.287 E.18854
G1 X92.023 Y158.772 E.1149
G1 X92.89 Y156.914 E.14464
G1 X94.467 Y154.157 E.22407
G1 X96.313 Y151.573 E.22403
G1 X98.41 Y149.188 E.22404
G1 X99.966 Y147.694 E.15218
G1 X102.484 Y145.661 E.22831
G1 X105.124 Y143.938 E.2224
G1 X107.945 Y142.478 E.22409
G1 X110.897 Y141.31 E.22396
G1 X113.983 Y140.438 E.22623
G1 X117.02 Y139.899 E.2176
G1 X120.08 Y139.664 E.21651
G1 X120.08 Y139.664 F9000
G1 X120.104 Y140.263
G1 F1200
G1 X121.318 Y140.214 E.08571
G1 X124.409 Y140.4 E.21846
G1 X127.487 Y140.899 E.21998
G1 X130.491 Y141.703 E.21938
G1 X133.416 Y142.81 E.22063
G1 X136.189 Y144.194 E.21864
G1 X138.803 Y145.843 E.21804
G1 X141.245 Y147.75 E.21858
G1 X143.499 Y149.906 E.22004
G1 X145.524 Y152.277 E.21997
G1 X147.299 Y154.841 E.22
G1 X148.809 Y157.57 E.22003
G1 X150.035 Y160.437 E.21998
G1 X150.968 Y163.414 E.22009
G1 X151.588 Y166.424 E.2168
G1 X151.847 Y168.6 E.15459
G1 X151.948 Y171.717 E.22001
G1 X151.736 Y174.828 E.21998
G1 X151.215 Y177.883 E.21863
G1 X150.395 Y180.862 E.21798
G1 X149.277 Y183.753 E.21867
G1 X147.867 Y186.535 E.22003
G1 X146.184 Y189.16 E.21998
G1 X144.245 Y191.603 E.22003
G1 X142.425 Y193.497 E.18531
G1 X140.448 Y195.244 E.18612
G1 X137.925 Y197.079 E.22009
G1 X135.239 Y198.646 E.21938
G1 X132.394 Y199.942 E.22055
G1 X129.477 Y200.932 E.21731
G1 X126.469 Y201.628 E.21781
G1 X123.373 Y202.024 E.22019
G1 X120.256 Y202.106 E.21997
G1 X118.171 Y201.985 E.14734
G1 X116.643 Y201.803 E.10856
G1 X114.077 Y201.33 E.18407
G1 X111.075 Y200.48 E.22011
G1 X108.175 Y199.332 E.22003
G1 X105.406 Y197.898 E.21999
G1 X102.795 Y196.193 E.21999
G1 X100.368 Y194.234 E.22003
G1 X98.817 Y192.746 E.15163
G1 X96.771 Y190.421 E.21849
G1 X94.972 Y187.909 E.21797
G1 X93.428 Y185.222 E.21863
G1 X92.153 Y182.376 E.22
G1 X91.171 Y179.415 E.22008
G1 X90.492 Y176.372 E.21995
G1 X90.121 Y173.259 E.22117
G1 X90.067 Y170.158 E.2188
G1 X90.211 Y168.015 E.15152
G1 X90.684 Y164.933 E.21997
G1 X91.447 Y161.97 E.21585
G1 X92.542 Y158.997 E.22351
G1 X93.915 Y156.186 E.2207
G1 X95.56 Y153.537 E.21998
G1 X97.463 Y151.066 E.22003
G1 X99.598 Y148.806 E.21933
G1 X101.919 Y146.795 E.21665
G1 X104.467 Y144.998 E.21996
G1 X107.175 Y143.472 E.21929
G1 X110.032 Y142.221 E.22003
G1 X113.001 Y141.264 E.22007
G1 X116.016 Y140.616 E.21756
G1 X118.179 Y140.341 E.15382
G1 X120.014 Y140.267 E.12956
G1 X120.014 Y140.267 F9000
G1 X120.055 Y140.8
G1 F1200
G1 X120.208 Y140.788 E.01083
G1 X122.287 Y140.805 E.14667
G1 X125.317 Y141.086 E.21468
G1 X128.322 Y141.672 E.21599
G1 X131.255 Y142.56 E.21619
G1 X134.087 Y143.739 E.21641
G1 X136.805 Y145.21 E.21803
G1 X139.337 Y146.932 E.21602
G1 X141.682 Y148.9 E.21597
G1 X143.817 Y151.094 E.21597
G1 X145.721 Y153.492 E.21601
G1 X147.374 Y156.069 E.21599
G1 X148.759 Y158.8 E.21602
G1 X149.862 Y161.655 E.21592
G1 X150.679 Y164.64 E.21833
G1 X151.175 Y167.574 E.20992
G1 X151.383 Y170.624 E.21567
G1 X151.349 Y172.694 E.14605
G1 X151.041 Y175.74 E.21598
G1 X150.431 Y178.73 E.21528
G1 X149.506 Y181.69 E.21878
G1 X148.302 Y184.505 E.21599
G1 X146.821 Y187.184 E.21595
G1 X145.078 Y189.701 E.21599
G1 X143.072 Y192.049 E.21787
G1 X140.943 Y194.091 E.20811
G1 X139.321 Y195.406 E.14731
G1 X136.781 Y197.131 E.21661
G1 X134.084 Y198.588 E.21626
G1 X131.261 Y199.765 E.21577
G1 X128.303 Y200.659 E.218
G1 X125.261 Y201.249 E.2186
G1 X122.249 Y201.524 E.21337
G1 X119.246 Y201.498 E.21186
G1 X116.717 Y201.242 E.17933
G1 X115.224 Y200.995 E.10676
G1 X113.151 Y200.517 E.15008
G1 X110.236 Y199.578 E.21605
G1 X107.432 Y198.351 E.21592
G1 X104.765 Y196.847 E.216
G1 X102.263 Y195.083 E.21597
G1 X99.972 Y193.096 E.21394
G1 X97.891 Y190.891 E.21389
G1 X96.001 Y188.433 E.21874
G1 X94.399 Y185.846 E.21466
G1 X93.053 Y183.086 E.21663
G1 X92.299 Y181.134 E.14762
G1 X91.438 Y178.18 E.21707
G1 X90.894 Y175.264 E.20926
G1 X90.634 Y172.213 E.21602
G1 X90.684 Y169.133 E.21731
G1 X91.039 Y166.111 E.21466
G1 X91.699 Y163.122 E.21594
G1 X92.491 Y160.666 E.18205
G1 X93.061 Y159.222 E.10952
G1 X93.903 Y157.417 E.14051
G1 X95.424 Y154.76 E.21598
G1 X97.205 Y152.269 E.21603
G1 X99.227 Y149.971 E.21594
G1 X100.728 Y148.53 E.14679
G1 X103.142 Y146.581 E.21888
G1 X105.687 Y144.919 E.21444
G1 X108.406 Y143.511 E.21601
G1 X111.252 Y142.384 E.21595
G1 X114.227 Y141.543 E.2181
G1 X117.163 Y141.021 E.21037
G1 X119.965 Y140.807 E.19825
G1 X119.965 Y140.807 F9000
G1 X119.989 Y141.398
G1 F1200
G1 X121.298 Y141.345 E.09242
G1 X124.276 Y141.523 E.21046
G1 X127.242 Y142.003 E.21197
G1 X130.136 Y142.777 E.21134
G1 X132.954 Y143.843 E.21255
G1 X135.634 Y145.18 E.21129
G1 X138.159 Y146.773 E.21062
G1 X140.512 Y148.611 E.21064
G1 X142.682 Y150.689 E.21196
G1 X144.633 Y152.974 E.21197
G1 X146.343 Y155.445 E.21199
G1 X147.796 Y158.074 E.21191
G1 X148.977 Y160.837 E.21198
G1 X149.874 Y163.705 E.21199
G1 X150.471 Y166.605 E.20888
G1 X150.719 Y168.685 E.14778
G1 X150.818 Y171.688 E.21197
G1 X150.613 Y174.686 E.21199
G1 X150.113 Y177.629 E.2106
G1 X149.32 Y180.507 E.2106
G1 X148.24 Y183.301 E.21132
G1 X146.881 Y185.98 E.21192
G1 X145.258 Y188.509 E.21199
G1 X143.39 Y190.862 E.21195
G1 X141.633 Y192.689 E.17882
G1 X139.743 Y194.358 E.17788
G1 X137.314 Y196.127 E.21199
G1 X134.727 Y197.637 E.21132
G1 X131.985 Y198.887 E.21259
G1 X129.167 Y199.844 E.20995
G1 X126.261 Y200.516 E.21042
G1 X123.278 Y200.897 E.21215
G1 X120.275 Y200.975 E.21192
G1 X118.269 Y200.858 E.14176
G1 X116.791 Y200.681 E.10501
G1 X114.321 Y200.226 E.17718
G1 X111.43 Y199.406 E.212
G1 X108.636 Y198.299 E.21202
G1 X105.968 Y196.917 E.21197
G1 X103.453 Y195.273 E.21197
G1 X101.116 Y193.385 E.21195
G1 X99.634 Y191.964 E.14485
G1 X97.662 Y189.724 E.21054
G1 X95.923 Y187.298 E.21058
G1 X94.432 Y184.701 E.21126
G1 X93.204 Y181.958 E.21202
G1 X92.259 Y179.105 E.21202
G1 X91.606 Y176.173 E.21191
G1 X91.249 Y173.172 E.2132
G1 X91.198 Y170.186 E.21068
G1 X91.335 Y168.139 E.14473
G1 X91.79 Y165.169 E.21197
G1 X92.529 Y162.3 E.20901
G1 X93.58 Y159.447 E.21449
G1 X94.901 Y156.741 E.21243
G1 X96.485 Y154.188 E.21196
G1 X98.318 Y151.807 E.21198
G1 X100.381 Y149.622 E.212
G1 X102.623 Y147.68 E.20925
G1 X105.079 Y145.95 E.21193
G1 X107.688 Y144.48 E.21126
G1 X110.441 Y143.276 E.21198
G1 X113.301 Y142.355 E.21197
G1 X116.206 Y141.732 E.2096
G1 X118.274 Y141.468 E.14708
G1 X119.899 Y141.402 E.11473
G1 X119.899 Y141.402 F9000
G1 X119.941 Y141.942
G1 F1200
G1 X120.246 Y141.919 E.02158
G1 X122.24 Y141.935 E.14068
G1 X125.165 Y142.207 E.20724
G1 X128.058 Y142.772 E.20795
G1 X129.958 Y143.314 E.13939
G1 X132.723 Y144.36 E.20855
G1 X135.353 Y145.671 E.20731
G1 X137.838 Y147.239 E.20729
G1 X140.145 Y149.042 E.20656
G1 X142.274 Y151.08 E.20792
G1 X144.187 Y153.323 E.20797
G1 X145.865 Y155.746 E.20792
G1 X147.29 Y158.327 E.20799
G1 X148.448 Y161.037 E.20791
G1 X149.328 Y163.851 E.208
G1 X149.913 Y166.696 E.20491
G1 X150.219 Y169.689 E.21225
G1 X150.22 Y172.628 E.20734
G1 X149.924 Y175.561 E.20797
G1 X149.335 Y178.448 E.20787
G1 X148.448 Y181.29 E.21003
G1 X147.29 Y184 E.20791
G1 X145.865 Y186.58 E.20793
G1 X144.187 Y189.004 E.20798
G1 X142.262 Y191.259 E.20917
G1 X140.187 Y193.248 E.20278
G1 X138.639 Y194.503 E.14059
G1 X136.193 Y196.165 E.20862
G1 X133.597 Y197.568 E.20818
G1 X130.88 Y198.7 E.20765
G1 X128.04 Y199.559 E.20932
G1 X125.11 Y200.128 E.21056
G1 X122.211 Y200.393 E.20537
G1 X119.302 Y200.369 E.20523
G1 X116.865 Y200.12 E.17282
G1 X115.421 Y199.881 E.10326
G1 X113.451 Y199.427 E.14262
G1 X110.645 Y198.524 E.20795
G1 X107.945 Y197.343 E.2079
G1 X105.377 Y195.896 E.20795
G1 X102.967 Y194.198 E.20798
G1 X100.755 Y192.279 E.20659
G1 X98.745 Y190.15 E.20656
G1 X96.937 Y187.797 E.20934
G1 X95.389 Y185.3 E.20726
G1 X94.093 Y182.642 E.20862
G1 X93.37 Y180.77 E.14157
G1 X92.54 Y177.926 E.20901
G1 X92.014 Y175.102 E.20265
G1 X91.764 Y172.165 E.20795
G1 X91.813 Y169.199 E.20927
G1 X92.156 Y166.291 E.20657
G1 X92.793 Y163.413 E.20795
G1 X93.553 Y161.057 E.17464
G1 X94.099 Y159.672 E.10503
G1 X94.916 Y157.921 E.13631
G1 X96.381 Y155.363 E.20796
G1 X98.096 Y152.966 E.20793
G1 X100.043 Y150.753 E.20794
G1 X101.49 Y149.366 E.1414
G1 X103.8 Y147.501 E.20945
G1 X106.249 Y145.901 E.20637
G1 X108.867 Y144.545 E.208
G1 X111.607 Y143.458 E.20795
G1 X114.472 Y142.647 E.21006
G1 X117.306 Y142.143 E.20307
G1 X119.851 Y141.949 E.18006
G1 X119.851 Y141.949 F9000
G1 X119.875 Y142.534
G1 F1200
G1 X121.279 Y142.476 E.09913
G1 X124.143 Y142.647 E.20241
G1 X126.996 Y143.108 E.20388
G1 X129.781 Y143.851 E.20335
G1 X132.493 Y144.876 E.20453
G1 X135.071 Y146.161 E.20321
G1 X137.508 Y147.699 E.2033
G1 X139.778 Y149.472 E.2032
G1 X141.866 Y151.472 E.20397
G1 X143.742 Y153.671 E.20392
G1 X145.386 Y156.048 E.20389
G1 X146.783 Y158.579 E.20395
G1 X147.919 Y161.237 E.20392
G1 X148.781 Y163.996 E.20392
G1 X149.355 Y166.786 E.20095
G1 X149.591 Y168.77 E.14095
G1 X149.687 Y171.66 E.20399
G1 X149.491 Y174.544 E.20393
G1 X149.008 Y177.384 E.20323
G1 X148.243 Y180.162 E.20328
G1 X147.203 Y182.849 E.20326
G1 X145.895 Y185.426 E.20388
G1 X144.333 Y187.858 E.20391
G1 X142.535 Y190.121 E.2039
G1 X140.851 Y191.873 E.17144
G1 X139.039 Y193.473 E.17053
G1 X136.703 Y195.175 E.2039
G1 X134.215 Y196.629 E.2033
G1 X131.577 Y197.832 E.20454
G1 X128.858 Y198.756 E.20259
G1 X126.053 Y199.404 E.2031
G1 X123.183 Y199.769 E.2041
G1 X120.293 Y199.844 E.20395
G1 X118.366 Y199.731 E.13618
G1 X116.939 Y199.559 E.1014
G1 X114.565 Y199.121 E.17031
G1 X111.784 Y198.331 E.20395
G1 X109.097 Y197.266 E.20391
G1 X106.531 Y195.935 E.20393
G1 X104.112 Y194.353 E.20391
G1 X101.864 Y192.536 E.20392
G1 X100.451 Y191.182 E.13806
G1 X98.553 Y189.028 E.20253
G1 X96.875 Y186.686 E.20325
G1 X95.435 Y184.179 E.20396
G1 X94.255 Y181.54 E.20394
G1 X93.347 Y178.796 E.2039
G1 X92.719 Y175.975 E.20389
G1 X92.377 Y173.086 E.20523
G1 X92.329 Y170.214 E.20264
G1 X92.46 Y168.262 E.13802
G1 X92.897 Y165.405 E.2039
G1 X93.611 Y162.63 E.20214
G1 X94.618 Y159.897 E.20548
G1 X95.887 Y157.296 E.20417
G1 X97.41 Y154.839 E.20393
G1 X99.173 Y152.548 E.20394
G1 X101.157 Y150.446 E.20391
G1 X103.32 Y148.571 E.20194
G1 X105.683 Y146.907 E.20389
G1 X108.201 Y145.488 E.2039
G1 X110.85 Y144.331 E.20393
G1 X113.602 Y143.445 E.20396
G1 X116.396 Y142.847 E.20157
G1 X118.369 Y142.596 E.14031
G1 X119.785 Y142.537 E.09998
G1 X119.785 Y142.537 F9000
G1 X119.827 Y143.084
G1 F1200
G1 X120.284 Y143.049 E.03233
G1 X122.183 Y143.065 E.13397
G1 X125.004 Y143.326 E.19986
G1 X127.776 Y143.868 E.19926
G1 X129.603 Y144.388 E.13401
G1 X132.262 Y145.393 E.20054
G1 X134.79 Y146.652 E.19924
G1 X137.187 Y148.164 E.19993
G1 X139.412 Y149.903 E.19922
