; generated by PrusaSlicer 2.9.0 on 2025-06-12 at 12:18:24 UTC

; 

; external perimeters extrusion width = 0.63mm
; perimeters extrusion width = 0.66mm
; infill extrusion width = 0.66mm
; solid infill extrusion width = 0.66mm
; top infill extrusion width = 0.60mm
; first layer extrusion width = 0.63mm

M201 X500 Y500 Z100 E5000 ; sets maximum accelerations, mm/sec^2
M203 X500 Y500 Z10 E60 ; sets maximum feedrates, mm / sec
M204 S500 T1000 ; sets acceleration (S) and retract acceleration (R), mm/sec^2
M205 X8.00 Y8.00 Z0.40 E5.00 ; sets the jerk limits, mm/sec
M205 S0 T0 ; sets the minimum extruding and travel feed rate, mm/sec

; printing object size_tester_solid_wheel_65mm.stl id:0 copy 0
; stop printing object size_tester_solid_wheel_65mm.stl id:0 copy 0

;TYPE:Custom
G90 ; use absolute coordinates
M83 ; extruder relative mode
M104 S150 ; set temporary nozzle temp to prevent oozing during homing
M140 S60 ; set final bed temp
G4 S30 ; allow partial nozzle warmup
G28 ; home all axis and restore leveling
G1 Z50 F240
G1 X2.0 Y10 F3000
M104 S210 ; set final nozzle temp
M190 S60 ; wait for bed temp to stabilize
M109 S210 ; wait for nozzle temp to stabilize
G1 Z0.28 F240
G92 E0
G1 X2.0 Y140 E10 F1500 ; prime the nozzle
G1 X2.3 Y140 F5000
G92 E0
G1 X2.3 Y10 E10 F1200 ; prime the nozzle
G92 E0
G21 ; set units to millimeters
G90 ; use absolute coordinates
M83 ; use relative distances for extrusion
; Filament gcode
M107
;LAYER_CHANGE
;Z:0.3
;HEIGHT:0.3
G1 E-.8 F1800
G1 Z.3 F9000
G1 X99.284 Y98.551
G1 Z.3
G1 E.8 F1800
M204 S500
;TYPE:Skirt/Brim
;WIDTH:0.63
G1 F1200
G1 X101.03 Y97.138 E.15846
G1 X102.272 Y96.353 E.10365
G1 X103.9 Y95.554 E.12794
G1 X105.278 Y95.044 E.10366
G1 X106.867 Y94.633 E.11579
G1 X108.491 Y94.39 E.11584
G1 X110.303 Y94.322 E.12792
G1 X111.769 Y94.417 E.10364
G1 X113.389 Y94.687 E.11586
G1 X114.971 Y95.125 E.1158
G1 X116.498 Y95.726 E.11577
G1 X117.728 Y96.353 E.0974
G1 X119.112 Y97.235 E.11578
G1 X120.396 Y98.258 E.11582
G1 X121.449 Y99.284 E.10372
G1 X122.862 Y101.03 E.15846
G1 X123.647 Y102.272 E.10365
G1 X124.446 Y103.9 E.12794
G1 X124.956 Y105.278 E.10366
G1 X125.367 Y106.867 E.11579
G1 X125.61 Y108.491 E.11584
G1 X125.683 Y110.131 E.11581
G1 X125.583 Y111.769 E.11577
G1 X125.313 Y113.389 E.11586
G1 X124.956 Y114.722 E.09735
G1 X124.38 Y116.259 E.1158
G1 X123.647 Y117.728 E.11582
G1 X122.765 Y119.112 E.11578
G1 X121.742 Y120.396 E.11582
G1 X120.716 Y121.449 E.10372
G1 X118.97 Y122.862 E.15846
G1 X117.728 Y123.647 E.10365
G1 X116.1 Y124.446 E.12794
G1 X114.722 Y124.956 E.10366
G1 X113.133 Y125.367 E.11579
G1 X111.509 Y125.61 E.11584
G1 X109.869 Y125.683 E.11581
G1 X108.231 Y125.583 E.11577
G1 X106.867 Y125.367 E.09743
G1 X105.278 Y124.956 E.11579
G1 X103.741 Y124.38 E.1158
G1 X102.272 Y123.647 E.11582
G1 X100.888 Y122.765 E.11578
G1 X99.604 Y121.742 E.11582
G1 X98.551 Y120.716 E.10372
G1 X97.138 Y118.97 E.15846
G1 X96.353 Y117.728 E.10365
G1 X95.554 Y116.1 E.12794
G1 X95.044 Y114.722 E.10366
G1 X94.633 Y113.133 E.11579
G1 X94.39 Y111.509 E.11584
G1 X94.317 Y109.869 E.11581
G1 X94.39 Y108.491 E.09735
G1 X94.633 Y106.867 E.11584
G1 X95.044 Y105.278 E.11579
G1 X95.62 Y103.741 E.1158
G1 X96.353 Y102.272 E.11582
G1 X97.235 Y100.888 E.11578
G1 X98.258 Y99.604 E.11582
G1 X99.221 Y98.616 E.09733
;WIPE_START
G1 F7200
G1 X99.284 Y98.551 E-.0215
G1 X101.03 Y97.138 E-.53346
G1 X101.902 Y96.587 E-.24504
;WIPE_END
G1 X102.107 Y101.442 F9000
G1 E.8 F1800
G1 F1200
G1 X103.044 Y100.665 E.08587
G1 X104.057 Y99.989 E.08592
G1 X105.136 Y99.423 E.08596
G1 X106.269 Y98.973 E.086
G1 X107.442 Y98.643 E.08596
G1 X108.652 Y98.436 E.0866
G1 X110.183 Y98.361 E.10814
G1 X111.356 Y98.438 E.08293
G1 X112.497 Y98.629 E.08161
G1 X113.639 Y98.942 E.08354
G1 X114.744 Y99.369 E.08357
G1 X115.8 Y99.906 E.08358
G1 X116.792 Y100.545 E.08325
G1 X117.714 Y101.28 E.08318
G1 X118.558 Y102.108 E.08341
G1 X119.335 Y103.044 E.08582
G1 X120.011 Y104.057 E.08592
G1 X120.577 Y105.136 E.08596
G1 X121.029 Y106.273 E.08632
G1 X121.415 Y107.713 E.10517
G1 X121.592 Y108.923 E.08627
G1 X121.641 Y110.137 E.08571
G1 X121.567 Y111.318 E.08348
G1 X121.373 Y112.488 E.08367
G1 X121.061 Y113.63 E.08352
G1 X120.635 Y114.736 E.08361
G1 X120.099 Y115.792 E.08355
G1 X119.457 Y116.789 E.08366
G1 X118.717 Y117.716 E.08368
G1 X117.887 Y118.564 E.08371
G1 X116.732 Y119.498 E.10479
G1 X115.698 Y120.152 E.08631
G1 X114.606 Y120.692 E.08594
G1 X113.463 Y121.115 E.08598
G1 X112.282 Y121.416 E.08598
G1 X111.077 Y121.592 E.08591
G1 X109.864 Y121.641 E.08564
G1 X108.684 Y121.567 E.08341
G1 X107.514 Y121.373 E.08367
G1 X106.371 Y121.061 E.08359
G1 X105.266 Y120.636 E.08352
G1 X104.211 Y120.1 E.08348
G1 X103.214 Y119.46 E.08358
G1 X102.289 Y118.721 E.08352
G1 X101.442 Y117.893 E.08356
G1 X100.665 Y116.956 E.08587
G1 X99.987 Y115.939 E.08623
G1 X99.31 Y114.61 E.10522
G1 X98.885 Y113.463 E.08629
G1 X98.584 Y112.282 E.08598
G1 X98.408 Y111.077 E.08591
G1 X98.359 Y109.863 E.08571
G1 X98.433 Y108.682 E.08348
G1 X98.627 Y107.514 E.08353
G1 X98.938 Y106.371 E.08357
G1 X99.364 Y105.266 E.08355
G1 X99.9 Y104.21 E.08355
G1 X100.541 Y103.213 E.08362
G1 X101.279 Y102.288 E.08348
G1 X102.044 Y101.507 E.07713
G1 X102.044 Y101.507 F9000
G1 X102.448 Y101.903
G1 F1200
G1 X102.5 Y101.849 E.00529
G1 X103.393 Y101.111 E.08173
G1 X104.358 Y100.469 E.08177
G1 X105.385 Y99.931 E.08179
G1 X106.463 Y99.504 E.0818
G1 X107.579 Y99.192 E.08175
G1 X108.73 Y98.997 E.08236
G1 X110.163 Y98.927 E.10121
G1 X111.277 Y98.998 E.07875
G1 X112.389 Y99.185 E.07955
G1 X113.475 Y99.483 E.07945
G1 X114.526 Y99.891 E.07954
G1 X115.53 Y100.403 E.07951
G1 X116.473 Y101.012 E.07919
G1 X117.349 Y101.713 E.07915
G1 X118.151 Y102.501 E.07932
G1 X118.889 Y103.393 E.08167
G1 X119.531 Y104.358 E.08177
G1 X120.069 Y105.385 E.08179
G1 X120.497 Y106.466 E.08202
G1 X120.858 Y107.812 E.09831
G1 X121.027 Y108.962 E.082
G1 X121.076 Y110.117 E.08156
G1 X121.006 Y111.24 E.07938
G1 X120.817 Y112.381 E.08159
G1 X120.52 Y113.467 E.07943
G1 X120.113 Y114.518 E.07951
G1 X119.601 Y115.522 E.07951
G1 X118.99 Y116.47 E.07957
G1 X118.285 Y117.351 E.0796
G1 X117.495 Y118.156 E.07957
G1 X116.415 Y119.029 E.09797
G1 X115.433 Y119.652 E.08204
G1 X114.395 Y120.167 E.08175
G1 X113.308 Y120.571 E.08181
G1 X112.185 Y120.858 E.08177
G1 X111.038 Y121.027 E.08179
G1 X109.884 Y121.076 E.08148
G1 X108.762 Y121.007 E.0793
G1 X107.621 Y120.818 E.08159
G1 X106.534 Y120.52 E.07951
G1 X105.484 Y120.113 E.07944
G1 X104.48 Y119.603 E.07944
G1 X103.533 Y118.992 E.07951
G1 X102.653 Y118.289 E.07946
G1 X101.849 Y117.5 E.07947
G1 X101.111 Y116.607 E.08173
G1 X100.467 Y115.639 E.08202
G1 X99.834 Y114.398 E.09828
G1 X99.429 Y113.308 E.08203
G1 X99.142 Y112.185 E.08177
G1 X98.973 Y111.038 E.08179
G1 X98.924 Y109.883 E.08156
G1 X98.994 Y108.76 E.07938
G1 X99.177 Y107.647 E.07957
G1 X99.472 Y106.56 E.07946
G1 X99.876 Y105.508 E.0795
G1 X100.384 Y104.504 E.07938
G1 X101.009 Y103.531 E.08158
G1 X101.712 Y102.652 E.0794
G1 X102.385 Y101.967 E.06775
G1 X102.385 Y101.967 F9000
G1 X102.788 Y102.364
G1 F1200
G1 X102.893 Y102.257 E.01058
G1 X103.741 Y101.556 E.07762
G1 X104.658 Y100.948 E.07762
G1 X105.633 Y100.44 E.07756
G1 X106.657 Y100.036 E.07766
G1 X107.716 Y99.741 E.07755
G1 X108.807 Y99.557 E.07805
G1 X110.144 Y99.492 E.09443
G1 X111.199 Y99.558 E.07457
G1 X112.254 Y99.734 E.07546
G1 X113.285 Y100.016 E.07541
G1 X114.282 Y100.401 E.0754
G1 X115.259 Y100.9 E.07739
G1 X116.153 Y101.479 E.07514
G1 X116.983 Y102.145 E.07507
G1 X117.744 Y102.893 E.07528
G1 X118.444 Y103.741 E.07757
G1 X119.052 Y104.658 E.07762
G1 X119.56 Y105.633 E.07756
G1 X119.965 Y106.659 E.07782
G1 X120.301 Y107.911 E.09145
G1 X120.463 Y109.001 E.07774
G1 X120.51 Y110.098 E.07746
G1 X120.446 Y111.163 E.07527
G1 X120.268 Y112.246 E.07743
G1 X119.987 Y113.277 E.07539
G1 X119.602 Y114.275 E.07546
G1 X119.118 Y115.229 E.07547
G1 X118.539 Y116.128 E.07544
G1 X117.853 Y116.986 E.0775
G1 X117.103 Y117.747 E.07538
G1 X116.098 Y118.561 E.09124
G1 X115.168 Y119.152 E.07774
G1 X114.183 Y119.642 E.07761
G1 X113.152 Y120.027 E.07764
G1 X112.087 Y120.301 E.07758
G1 X110.999 Y120.463 E.0776
G1 X109.903 Y120.51 E.07739
G1 X108.839 Y120.446 E.0752
G1 X107.756 Y120.268 E.07743
G1 X106.724 Y119.987 E.07546
G1 X105.726 Y119.602 E.07546
G1 X104.774 Y119.119 E.07531
G1 X103.852 Y118.525 E.07737
G1 X103.018 Y117.857 E.07538
G1 X102.257 Y117.107 E.07538
G1 X101.556 Y116.259 E.07762
G1 X100.947 Y115.34 E.07778
G1 X100.359 Y114.185 E.09143
G1 X99.973 Y113.152 E.0778
G1 X99.699 Y112.087 E.07758
G1 X99.537 Y110.999 E.0776
G1 X99.49 Y109.902 E.07746
G1 X99.554 Y108.837 E.07527
G1 X99.732 Y107.754 E.07743
G1 X100.013 Y106.723 E.07539
G1 X100.398 Y105.725 E.07546
G1 X100.881 Y104.773 E.07531
G1 X101.476 Y103.85 E.07747
G1 X102.144 Y103.018 E.07527
G1 X102.725 Y102.428 E.05842
G1 X102.725 Y102.428 F9000
G1 X103.127 Y102.825
G1 F1200
G1 X103.285 Y102.665 E.01586
G1 X104.089 Y102.003 E.07347
G1 X104.957 Y101.429 E.07341
G1 X105.881 Y100.948 E.07349
G1 X106.849 Y100.567 E.07339
G1 X107.853 Y100.29 E.07348
G1 X108.883 Y100.118 E.07367
G1 X110.125 Y100.058 E.08772
G1 X111.121 Y100.119 E.0704
G1 X112.146 Y100.29 E.07331
G1 X113.12 Y100.557 E.07125
G1 X114.063 Y100.923 E.07136
G1 X114.988 Y101.397 E.07332
G1 X115.833 Y101.945 E.07105
G1 X116.617 Y102.576 E.071
G1 X117.336 Y103.286 E.07129
G1 X117.997 Y104.089 E.07337
G1 X118.571 Y104.957 E.07341
G1 X119.052 Y105.881 E.07349
G1 X119.433 Y106.851 E.07352
G1 X119.744 Y108.011 E.08472
G1 X119.899 Y109.042 E.07355
G1 X119.945 Y110.08 E.0733
G1 X119.885 Y111.087 E.07117
G1 X119.718 Y112.113 E.07333
G1 X119.453 Y113.087 E.07121
G1 X119.079 Y114.058 E.07341
G1 X118.62 Y114.959 E.07134
G1 X118.072 Y115.809 E.07135
G1 X117.421 Y116.621 E.07342
G1 X116.712 Y117.339 E.07119
G1 X115.78 Y118.093 E.08457
G1 X114.902 Y118.653 E.07347
G1 X113.97 Y119.118 E.07348
G1 X112.995 Y119.483 E.07345
G1 X111.988 Y119.744 E.07339
G1 X110.958 Y119.899 E.07348
G1 X109.921 Y119.945 E.07323
G1 X108.915 Y119.885 E.0711
G1 X107.889 Y119.718 E.07333
G1 X106.913 Y119.454 E.07133
G1 X105.944 Y119.08 E.07328
G1 X105.044 Y118.622 E.07124
G1 X104.172 Y118.058 E.07326
G1 X103.384 Y117.425 E.07131
G1 X102.665 Y116.715 E.07129
G1 X102.003 Y115.911 E.07347
G1 X101.428 Y115.042 E.07351
G1 X100.883 Y113.971 E.08478
G1 X100.517 Y112.995 E.07354
G1 X100.256 Y111.988 E.07339
G1 X100.101 Y110.958 E.07348
G1 X100.055 Y109.92 E.0733
G1 X100.115 Y108.913 E.07117
G1 X100.282 Y107.887 E.07333
G1 X100.547 Y106.913 E.07121
G1 X100.921 Y105.942 E.07341
G1 X101.379 Y105.043 E.07118
G1 X101.943 Y104.17 E.07332
G1 X102.575 Y103.384 E.07115
G1 X103.064 Y102.889 E.04909
G1 X103.064 Y102.889 F9000
G1 X103.466 Y103.286
G1 F1200
G1 X103.677 Y103.072 E.0212
G1 X104.436 Y102.449 E.06927
G1 X105.256 Y101.909 E.06927
G1 X106.127 Y101.458 E.0692
G1 X107.041 Y101.1 E.06925
G1 X107.988 Y100.839 E.0693
G1 X108.959 Y100.679 E.06943
G1 X110.107 Y100.623 E.08108
G1 X111.043 Y100.679 E.06615
G1 X112.93 Y101.09 E.13624
G1 X113.845 Y101.445 E.06924
G1 X114.717 Y101.893 E.06916
G1 X116.251 Y103.007 E.13375
G1 X117.551 Y104.436 E.13629
G1 X118.091 Y105.256 E.06927
G1 X118.542 Y106.127 E.0692
G1 X118.901 Y107.042 E.06934
G1 X119.187 Y108.111 E.07807
G1 X119.334 Y109.083 E.06935
G1 X119.325 Y111.011 E.13602
G1 X118.92 Y112.899 E.13622
G1 X118.137 Y114.665 E.13628
G1 X117.605 Y115.49 E.06925
G1 X116.989 Y116.254 E.06924
G1 X116.321 Y116.929 E.067
G1 X115.462 Y117.625 E.078
G1 X114.635 Y118.154 E.06926
G1 X113.757 Y118.594 E.06928
G1 X112.838 Y118.94 E.06928
G1 X111.888 Y119.187 E.06925
G1 X110.917 Y119.334 E.06928
G1 X108.991 Y119.325 E.13588
G1 X107.102 Y118.92 E.13629
G1 X105.338 Y118.139 E.1361
G1 X103.771 Y117.012 E.13617
G1 X103.072 Y116.323 E.06924
G1 X102.449 Y115.564 E.06927
G1 X101.909 Y114.744 E.06927
G1 X101.406 Y113.757 E.07815
G1 X101.06 Y112.838 E.06928
G1 X100.813 Y111.888 E.06925
G1 X100.666 Y110.917 E.06928
G1 X100.675 Y108.989 E.13602
G1 X101.08 Y107.101 E.13622
G1 X101.862 Y105.337 E.13613
G1 X102.988 Y103.77 E.13613
G1 X103.403 Y103.35 E.04165
G1 X103.403 Y103.35 F9000
G1 X103.838 Y103.739
G1 F1200
G1 X104.068 Y103.481 E.02438
G1 X105.553 Y102.39 E.13
G1 X107.233 Y101.632 E.13002
G1 X109.034 Y101.239 E.13005
G1 X110.089 Y101.189 E.07451
G1 X111.878 Y101.389 E.127
G1 X113.601 Y101.955 E.12794
G1 X115.169 Y102.861 E.12776
G1 X116.519 Y104.068 E.12775
G1 X117.61 Y105.553 E.13
G1 X118.368 Y107.233 E.13002
G1 X118.63 Y108.213 E.07156
G1 X118.813 Y110.046 E.12996
G1 X118.618 Y111.848 E.12787
G1 X118.057 Y113.573 E.12797
G1 X117.138 Y115.17 E.12999
G1 X115.931 Y116.52 E.12775
G1 X115.143 Y117.157 E.07148
G1 X113.543 Y118.07 E.12996
G1 X111.787 Y118.63 E.13003
G1 X109.955 Y118.813 E.12989
G1 X108.155 Y118.618 E.12773
G1 X106.404 Y118.046 E.12995
G1 X104.833 Y117.14 E.12794
G1 X103.481 Y115.932 E.12791
G1 X102.39 Y114.447 E.13
G1 X101.93 Y113.543 E.07156
G1 X101.37 Y111.787 E.13003
G1 X101.187 Y109.954 E.12996
G1 X101.382 Y108.152 E.12787
G1 X101.943 Y106.428 E.1279
G1 X102.861 Y104.832 E.12989
G1 X103.778 Y103.806 E.09708
G1 X104.158 Y104.225 F9000
G1 F1200
G1 X105.128 Y103.345 E.0924
G1 X106.618 Y102.477 E.12165
G1 X108.256 Y101.939 E.12163
G1 X109.109 Y101.8 E.06097
G1 X110.892 Y101.8 E.12579
G1 X112.577 Y102.165 E.12163
G1 X114.149 Y102.872 E.1216
G1 X115.497 Y103.851 E.11753
G1 X116.655 Y105.128 E.12161
G1 X117.128 Y105.85 E.06089
G1 X117.835 Y107.423 E.12166
G1 X118.206 Y109.167 E.12579
G1 X118.203 Y110.863 E.11965
G1 X118.067 Y111.716 E.06094
G1 X117.534 Y113.356 E.12165
G1 X116.672 Y114.849 E.12162
G1 X115.541 Y116.11 E.1195
G1 X114.098 Y117.158 E.12581
G1 X112.521 Y117.853 E.12158
G1 X110.833 Y118.206 E.12166
G1 X109.139 Y118.203 E.11951
G1 X107.452 Y117.845 E.12166
G1 X105.902 Y117.158 E.11961
G1 X104.503 Y116.149 E.12169
G1 X103.345 Y114.872 E.12161
G1 X102.872 Y114.15 E.06089
G1 X102.147 Y112.521 E.12579
G1 X101.794 Y110.833 E.12166
G1 X101.797 Y109.137 E.11965
G1 X102.156 Y107.45 E.12168
G1 X102.857 Y105.877 E.12149
G1 X103.851 Y104.503 E.11964
G1 X104.091 Y104.285 E.02287
G1 X104.091 Y104.285 F9000
G1 X104.519 Y104.669
G1 F1200
G1 X104.849 Y104.301 E.03487
G1 X106.146 Y103.354 E.11329
G1 X107.612 Y102.698 E.1133
G1 X109.183 Y102.361 E.11335
G1 X110.056 Y102.32 E.06166
G1 X111.611 Y102.489 E.11035
G1 X113.138 Y102.988 E.11333
G1 X114.504 Y103.776 E.11125
G1 X115.699 Y104.849 E.1133
G1 X116.646 Y106.146 E.11329
G1 X117.302 Y107.612 E.1133
G1 X117.517 Y108.417 E.05878
G1 X117.682 Y110.014 E.11326
G1 X117.511 Y111.611 E.11331
G1 X117.012 Y113.138 E.11333
G1 X116.207 Y114.527 E.11326
G1 X115.151 Y115.699 E.11129
G1 X114.504 Y116.224 E.05878
G1 X113.112 Y117.024 E.11326
G1 X111.583 Y117.517 E.11334
G1 X109.985 Y117.682 E.11333
G1 X108.417 Y117.517 E.11123
G1 X106.888 Y117.024 E.11334
G1 X105.496 Y116.223 E.1133
G1 X104.301 Y115.151 E.11325
G1 X103.354 Y113.854 E.11329
G1 X102.976 Y113.111 E.05881
G1 X102.483 Y111.583 E.11327
G1 X102.318 Y109.986 E.11326
G1 X102.489 Y108.389 E.11331
G1 X102.988 Y106.862 E.11333
G1 X103.776 Y105.496 E.11125
G1 X104.459 Y104.736 E.07209
;WIPE_START
G1 F7200
G1 X104.519 Y104.669 E-.02136
G1 X104.849 Y104.301 E-.11739
G1 X106.146 Y103.354 E-.38141
G1 X107.222 Y102.873 E-.27984
;WIPE_END
; printing object size_tester_solid_wheel_65mm.stl id:0 copy 0
G1 X105.964 Y106.366 F9000
G1 E.8 F1800
;TYPE:Perimeter
;WIDTH:0.610661
G1 F1200
G1 X106.377 Y105.976 E.0387
G1 X106.808 Y105.606 E.0387
G1 X107.293 Y105.311 E.03868
G1 X107.791 Y105.038 E.0387
G1 X108.327 Y104.85 E.0387
G1 X108.871 Y104.687 E.03869
;WIDTH:0.610143
G1 X109.43 Y104.615 E.03837
G1 X110.026 Y104.571 E.04068
;WIDTH:0.600106
G1 X110.568 Y104.599 E.03626
;WIDTH:0.610667
G1 X111.126 Y104.704 E.03869
G1 X111.678 Y104.835 E.03866
;WIDTH:0.611547
G1 X112.657 Y105.266 E.073
;WIDTH:0.607202
G1 X113.038 Y105.515 E.03082
;WIDTH:0.625571
G1 X113.147 Y105.614 E.01031
;WIDTH:0.629746
G1 X113.388 Y105.998 E.03197
;WIDTH:0.63
G1 X113.496 Y106.541 E.03906
G1 X113.496 Y113.459 E.48804
G1 X113.388 Y114.002 E.03906
G1 X113.129 Y114.404 E.03374
;WIDTH:0.623008
G1 X112.717 Y114.704 E.03551
;WIDTH:0.599626
G1 X112.209 Y114.962 E.03804
;WIDTH:0.610663
