;FLAVOR:Marlin
;TIME:6854
;Filament used: 12.8609m
;Layer height: 0.32
;MINX:60.3
;MINY:77.8
;MINZ:0.32
;MAXX:159.7
;MAXY:142.2
;MAXZ:11.84
;TARGET_MACHINE.NAME:Creality Ender-3 S1
;Generated with Cura_SteamEngine 5.9.0
M82 ;absolute extrusion mode
; Ender 3 S1 Start G-code
; M413 S0 ; Disable power loss recovery
M201 X500.00 Y500.00 Z100.00 E5000.00 ;Setup machine max acceleration
M203 X500.00 Y500.00 Z20.00 E50.00 ;Setup machine max feedrate
M204 P500.00 R1000.00 T500.00 ;Setup Print/Retract/Travel acceleration
M205 X8.00 Y8.00 Z0.40 E5.00 ;Setup Jerk
M220 S100 ;Reset Feedrate
M221 S100 ;Reset Flowrate
G92 E0 ; Reset Extruder

; Prep surfaces before auto home for better accuracy
M140 S60
M104 S200
G92 E0 ; Reset Extruder
G28 ; Home all axes
M420 S1 Z10; Use Level Mesh up to 2mm;
G1 Z10.0 F3000 ; Move Z Axis up little to prevent scratching of Heat Bed
G1 X0 Y0

M190 S60
M109 S200

G1 X0.1 Y20 Z0.3 F5000.0 ; Move to start position
G1 X0.1 Y200.0 Z0.3 F1500.0 E15 ; Draw the first line
G1 X0.4 Y200.0 Z0.3 F5000.0 ; Move to side a little
G1 X0.4 Y20 Z0.3 F1500.0 E30 ; Draw the second line
G92 E0 ; Reset Extruder
G1 Z2.0 F3000 ; Move Z Axis up little to prevent scratching of Heat Bed
G1 X5 Y20 Z0.3 F5000.0 ; Move over to prevent blob squish
G92 E0
G92 E0
G1 F2400 E-0.8
;LAYER_COUNT:37
;LAYER:0
M107
M204 S2000
;MESH:slotted_base_10mm-center.stl
G0 F7500 X75 Y87.256 Z0.32
M204 S500
;TYPE:WALL-INNER
G1 F2400 E0
G1 F1419.6 X75 Y94.819 E0.63792
G1 F1428.6 X75 Y102.382 E1.27182
G1 F1437.7 X75 Y109.945 E1.90169
G1 F1446.9 X75 Y117.508 E2.52754
G1 F1456.3 X75 Y125.071 E3.14936
G1 F1465.8 X75 Y132.634 E3.76716
M204 S2000
G0 F7500 X74.532 Y133.972
G0 X73.855 Y135.3
G0 X72.8 Y136.355
G0 X71.605 Y136.964
G0 X69.937 Y137.315
G0 X70.001 Y136.912
M204 S500
G1 F1500 X68.778 Y136.718 E3.866
G1 X68.51 Y136.63 E3.88852
G1 X67.403 Y136.065 E3.98773
G1 X66.43 Y135.092 E4.09757
G1 X65.866 Y133.991 E4.19632
G1 X65.781 Y133.736 E4.21777
G1 X65.6 Y132.568 E4.31212
G1 X65.6 Y87.421 E7.91595
G1 X65.778 Y86.281 E8.00805
G1 X65.866 Y86.01 E8.0308
G1 X66.43 Y84.904 E8.1299
G1 X67.403 Y83.931 E8.23974
G1 X68.51 Y83.366 E8.33895
G1 X68.764 Y83.281 E8.36033
G1 X69.999 Y83.084 E8.46016
G1 X71.222 Y83.279 E8.55902
G1 X71.491 Y83.366 E8.58159
G1 X72.592 Y83.93 E8.68033
G1 X73.564 Y84.902 E8.79006
G1 X74.195 Y86.138 E8.90084
G1 X74.4 Y87.42 E9.00447
G1 X74.397 Y132.579 E12.60926
G1 X74.197 Y133.857 E12.71252
G1 X73.566 Y135.092 E12.82322
G1 X72.588 Y136.068 E12.93351
G1 X71.491 Y136.63 E13.0319
G1 X71.236 Y136.715 E13.05336
G1 X70.001 Y136.912 E13.15319
M204 S2000
G0 F7500 X69.937 Y137.315
G0 X73.093 Y136.751
G0 X74.998 Y134.228
G0 X77.359 Y136.728
G0 X79.937 Y137.315
G0 X80.001 Y136.912
M204 S500
G1 F1500 X78.778 Y136.718 E13.25203
G1 X78.51 Y136.63 E13.27455
G1 X77.403 Y136.065 E13.37376
G1 X76.43 Y135.092 E13.4836
G1 X75.8 Y133.861 E13.59399
G1 X75.603 Y132.579 E13.69752
G1 X75.6 Y87.416 E17.30263
G1 X75.801 Y86.139 E17.40582
G1 X76.432 Y84.902 E17.51667
G1 X77.403 Y83.931 E17.62628
G1 X78.51 Y83.366 E17.72549
G1 X78.764 Y83.281 E17.74687
G1 X79.999 Y83.084 E17.8467
G1 X81.222 Y83.279 E17.94556
G1 X81.491 Y83.366 E17.96813
G1 X82.592 Y83.93 E18.06687
G1 X83.564 Y84.902 E18.1766
G1 X84.195 Y86.138 E18.28738
G1 X84.4 Y87.42 E18.39101
G1 X84.397 Y132.579 E21.9958
G1 X84.197 Y133.857 E22.09906
G1 X83.566 Y135.092 E22.20976
G1 X82.588 Y136.068 E22.32005
G1 X81.491 Y136.63 E22.41844
G1 X81.236 Y136.715 E22.4399
G1 X80.001 Y136.912 E22.53973
M204 S2000
G0 F7500 X79.937 Y137.315
G0 X81.472 Y137.032
G0 X82.8 Y136.355
G0 X83.855 Y135.3
G0 X84.403 Y134.224
G0 X85 Y132.631
M204 S500
G1 F1465.8 X85 Y125.068 E23.15753
G1 F1456.3 X85 Y117.505 E23.77935
G1 F1446.9 X85 Y109.942 E24.4052
G1 F1437.7 X85 Y102.379 E25.03507
G1 F1428.6 X85 Y94.816 E25.66897
G1 F1419.6 X85 Y87.253 E26.30689
M204 S2000
G0 F7500 X85.468 Y86.028
G0 X86.145 Y84.7
G0 X87.2 Y83.645
G0 X88.528 Y82.968
G0 X90 Y82.735
G0 X91.472 Y82.968
G0 X92.8 Y83.645
G0 X93.855 Y84.7
G0 X94.403 Y85.776
G0 X95 Y87.256
M204 S500
G1 F1419.6 X95 Y94.819 E26.94481
G1 F1428.6 X95 Y102.382 E27.57871
G1 F1437.7 X95 Y109.945 E28.20858
G1 F1446.9 X95 Y117.508 E28.83443
G1 F1456.3 X95 Y125.071 E29.45625
G1 F1465.8 X95 Y132.634 E30.07405
M204 S2000
G0 F7500 X94.532 Y133.972
G0 X93.855 Y135.3
G0 X92.8 Y136.355
G0 X91.472 Y137.032
G0 X89.937 Y137.315
G0 X90.001 Y136.912
M204 S500
G1 F1500 X88.778 Y136.718 E30.17289
G1 X88.51 Y136.63 E30.19541
G1 X87.403 Y136.065 E30.29462
G1 X86.43 Y135.092 E30.40446
G1 X85.8 Y133.861 E30.51484
G1 X85.603 Y132.579 E30.61838
G1 X85.6 Y87.416 E34.22349
G1 X85.801 Y86.139 E34.32668
G1 X86.432 Y84.902 E34.43752
G1 X87.403 Y83.931 E34.54714
G1 X88.51 Y83.366 E34.64635
G1 X88.764 Y83.281 E34.66773
G1 X90.001 Y83.084 E34.76772
G1 X91.222 Y83.279 E34.86642
G1 X91.491 Y83.366 E34.88899
G1 X92.592 Y83.93 E34.98773
G1 X93.564 Y84.902 E35.09746
G1 X94.195 Y86.138 E35.20824
G1 X94.4 Y87.42 E35.31187
G1 X94.397 Y132.579 E38.91666
G1 X94.197 Y133.857 E39.01992
G1 X93.566 Y135.092 E39.13062
G1 X92.588 Y136.068 E39.24091
G1 X91.491 Y136.63 E39.3393
G1 X91.236 Y136.715 E39.36076
G1 X90.001 Y136.912 E39.46059
M204 S2000
G0 F7500 X89.937 Y137.315
G0 X93.093 Y136.751
G0 X94.998 Y134.228
G0 X97.359 Y136.728
G0 X99.937 Y137.315
G0 X100.001 Y136.912
M204 S500
G1 F1500 X98.778 Y136.718 E39.55943
G1 X98.51 Y136.63 E39.58195
G1 X97.403 Y136.065 E39.68116
G1 X96.43 Y135.092 E39.791
G1 X95.8 Y133.861 E39.90139
G1 X95.603 Y132.579 E40.00492
G1 X95.6 Y87.416 E43.61003
G1 X95.801 Y86.139 E43.71322
G1 X96.432 Y84.902 E43.82407
G1 X97.403 Y83.931 E43.93368
G1 X98.51 Y83.366 E44.03289
G1 X98.764 Y83.281 E44.05427
G1 X99.999 Y83.084 E44.1541
G1 X101.222 Y83.279 E44.25296
G1 X101.491 Y83.366 E44.27553
G1 X102.592 Y83.93 E44.37427
G1 X103.564 Y84.902 E44.484
G1 X104.195 Y86.138 E44.59478
G1 X104.4 Y87.42 E44.69841
G1 X104.397 Y132.579 E48.3032
G1 X104.197 Y133.857 E48.40646
G1 X103.566 Y135.092 E48.51716
G1 X102.588 Y136.068 E48.62745
G1 X101.491 Y136.63 E48.72584
G1 X101.236 Y136.715 E48.7473
G1 X100.001 Y136.912 E48.84713
M204 S2000
G0 F7500 X99.937 Y137.315
G0 X101.472 Y137.032
G0 X102.8 Y136.355
G0 X103.855 Y135.3
G0 X104.403 Y134.224
G0 X105 Y132.631
M204 S500
G1 F1465.8 X105 Y125.068 E49.46493
G1 F1456.3 X105 Y117.505 E50.08675
G1 F1446.9 X105 Y109.942 E50.7126
G1 F1437.7 X105 Y102.379 E51.34247
G1 F1428.6 X105 Y94.816 E51.97637
G1 F1419.6 X105 Y87.253 E52.61429
M204 S2000
G0 F7500 X105.468 Y86.028
G0 X106.145 Y84.7
G0 X107.2 Y83.645
G0 X108.528 Y82.968
G0 X110 Y82.735
G0 X111.472 Y82.968
G0 X112.8 Y83.645
G0 X113.855 Y84.7
G0 X114.403 Y85.776
G0 X115 Y87.256
M204 S500
G1 F1419.6 X115 Y94.819 E53.25221
G1 F1428.6 X115 Y102.382 E53.88611
G1 F1437.7 X115 Y109.945 E54.51598
G1 F1446.9 X115 Y117.508 E55.14183
G1 F1456.3 X115 Y125.071 E55.76365
G1 F1465.8 X115 Y132.634 E56.38145
M204 S2000
G0 F7500 X115.468 Y133.972
G0 X116.145 Y135.3
G0 X117.2 Y136.355
G0 X118.395 Y136.964
G0 X119.937 Y137.315
G0 X120.001 Y136.912
M204 S500
G1 F1500 X118.778 Y136.718 E56.48029
G1 X118.51 Y136.63 E56.50281
G1 X117.403 Y136.065 E56.60202
G1 X116.43 Y135.092 E56.71186
G1 X115.8 Y133.861 E56.82224
G1 X115.603 Y132.579 E56.92578
G1 X115.6 Y87.416 E60.53089
G1 X115.801 Y86.139 E60.63408
G1 X116.432 Y84.902 E60.74492
G1 X117.403 Y83.931 E60.85454
G1 X118.51 Y83.366 E60.95375
G1 X118.764 Y83.281 E60.97513
G1 X119.999 Y83.084 E61.07496
G1 X121.222 Y83.279 E61.17382
G1 X121.491 Y83.366 E61.19638
G1 X122.592 Y83.93 E61.29513
G1 X123.564 Y84.902 E61.40486
G1 X124.195 Y86.138 E61.51564
G1 X124.4 Y87.42 E61.61927
G1 X124.397 Y132.579 E65.22406
G1 X124.197 Y133.857 E65.32731
G1 X123.566 Y135.092 E65.43802
G1 X122.588 Y136.068 E65.54831
G1 X121.491 Y136.63 E65.6467
G1 X121.236 Y136.715 E65.66816
G1 X120.001 Y136.912 E65.76799
M204 S2000
G0 F7500 X119.937 Y137.315
G0 X121.472 Y137.032
G0 X122.8 Y136.355
G0 X123.855 Y135.3
G0 X124.403 Y134.224
G0 X125 Y132.631
M204 S500
G1 F1465.8 X125 Y125.068 E66.38579
G1 F1456.3 X125 Y117.505 E67.00761
G1 F1446.9 X125 Y109.942 E67.63346
G1 F1437.7 X125 Y102.379 E68.26333
G1 F1428.6 X125 Y94.816 E68.89722
G1 F1419.6 X125 Y87.253 E69.53515
M204 S2000
G0 F7500 X125.468 Y86.028
G0 X126.145 Y84.7
G0 X127.2 Y83.645
G0 X128.528 Y82.968
G0 X130 Y82.735
G0 X131.472 Y82.968
G0 X132.8 Y83.645
G0 X133.855 Y84.7
G0 X134.403 Y85.776
G0 X135 Y87.256
M204 S500
G1 F1419.6 X135 Y94.819 E70.17307
G1 F1428.6 X135 Y102.382 E70.80696
G1 F1437.7 X135 Y109.945 E71.43684
G1 F1446.9 X135 Y117.508 E72.06268
G1 F1456.3 X135 Y125.071 E72.68451
G1 F1465.8 X135 Y132.634 E73.30231
M204 S2000
G0 F7500 X134.532 Y133.972
G0 X133.855 Y135.3
G0 X132.8 Y136.355
G0 X131.605 Y136.964
G0 X129.937 Y137.315
G0 X130.001 Y136.912
M204 S500
G1 F1500 X128.778 Y136.718 E73.40115
G1 X128.51 Y136.63 E73.42367
G1 X127.403 Y136.065 E73.52288
G1 X126.43 Y135.092 E73.63272
G1 X125.8 Y133.861 E73.7431
G1 X125.603 Y132.579 E73.84664
G1 X125.6 Y87.416 E77.45174
G1 X125.801 Y86.139 E77.55494
G1 X126.432 Y84.902 E77.66578
G1 X127.403 Y83.931 E77.7754
G1 X128.51 Y83.366 E77.87461
G1 X128.764 Y83.281 E77.89599
G1 X129.999 Y83.084 E77.99582
G1 X131.222 Y83.279 E78.09468
G1 X131.491 Y83.366 E78.11724
G1 X132.592 Y83.93 E78.21599
G1 X133.564 Y84.902 E78.32572
G1 X134.195 Y86.138 E78.43649
G1 X134.4 Y87.42 E78.54013
G1 X134.397 Y132.579 E82.14492
G1 X134.197 Y133.857 E82.24817
G1 X133.566 Y135.092 E82.35888
G1 X132.588 Y136.068 E82.46917
G1 X131.491 Y136.63 E82.56756
G1 X131.236 Y136.715 E82.58902
G1 X130.001 Y136.912 E82.68885
M204 S2000
G0 F7500 X129.937 Y137.315
G0 X133.093 Y136.751
G0 X134.998 Y134.228
G0 X137.359 Y136.728
G0 X139.937 Y137.315
G0 X140.001 Y136.912
M204 S500
G1 F1500 X138.778 Y136.718 E82.78769
G1 X138.51 Y136.63 E82.81021
G1 X137.403 Y136.065 E82.90942
G1 X136.43 Y135.092 E83.01926
G1 X135.8 Y133.861 E83.12964
G1 X135.603 Y132.579 E83.23318
G1 X135.6 Y87.416 E86.83829
G1 X135.801 Y86.139 E86.94148
G1 X136.432 Y84.902 E87.05232
G1 X137.403 Y83.931 E87.16194
G1 X138.51 Y83.366 E87.26115
G1 X138.764 Y83.281 E87.28253
G1 X139.999 Y83.084 E87.38236
G1 X141.222 Y83.279 E87.48122
G1 X141.491 Y83.366 E87.50378
G1 X142.592 Y83.93 E87.60253
G1 X143.564 Y84.902 E87.71226
G1 X144.195 Y86.138 E87.82303
G1 X144.4 Y87.42 E87.92667
G1 X144.397 Y132.579 E91.53146
G1 X144.197 Y133.857 E91.63471
G1 X143.566 Y135.092 E91.74542
G1 X142.588 Y136.068 E91.85571
G1 X141.491 Y136.63 E91.9541
G1 X141.236 Y136.715 E91.97556
G1 X140.001 Y136.912 E92.07539
M204 S2000
G0 F7500 X139.937 Y137.315
G0 X141.472 Y137.032
G0 X142.8 Y136.355
G0 X143.855 Y135.3
G0 X144.403 Y134.224
G0 X145 Y132.631
M204 S500
G1 F1465.8 X145 Y125.068 E92.69318
G1 F1456.3 X145 Y117.505 E93.31501
G1 F1446.9 X145 Y109.942 E93.94085
G1 F1437.7 X145 Y102.379 E94.57073
G1 F1428.6 X145 Y94.816 E95.20462
G1 F1419.6 X145 Y87.253 E95.84255
M204 S2000
G1 F2400 E95.04255
G0 F7500 X144.532 Y86.028
G0 X143.855 Y84.7
G0 X142.8 Y83.645
G0 X141.472 Y82.968
G0 X140 Y82.735
G0 X138.528 Y82.968
G0 X137.2 Y83.645
G0 X136.145 Y84.7
G0 X135.468 Y86.028
G0 X135.251 Y87.402
G0 X134.749 Y132.598
G0 X134.532 Y133.972
G0 X133.855 Y135.3
G0 X132.8 Y136.355
G0 X131.472 Y137.032
G0 X130 Y137.265
G0 X128.528 Y137.032
G0 X127.2 Y136.355
G0 X126.145 Y135.3
G0 X124.749 Y132.598
G0 X124.532 Y133.972
G0 X123.855 Y135.3
G0 X122.8 Y136.355
G0 X121.472 Y137.032
G0 X120 Y137.265
G0 X118.528 Y137.032
G0 X117.2 Y136.355
G0 X116.145 Y135.3
G0 X115.468 Y133.972
G0 X115.42 Y133.626
G0 X113.307 Y136.596
G0 X113.307 Y140.7
G0 X110 Y141
M204 S500
G1 F2400 E95.84255
G1 F1500 X158.5 Y141 E99.71403
G1 X158.5 Y79 E104.66313
G1 X61.5 Y79 E112.40609
G1 X61.5 Y141 E117.3552
G1 X110 Y141 E121.22668
M204 S2000
G0 F7500 X110 Y141.6
M204 S500
G1 F1500 X159.1 Y141.6 E125.14606
G1 X159.1 Y78.4 E130.19095
G1 X60.9 Y78.4 E138.0297
G1 X60.9 Y141.6 E143.0746
G1 X110 Y141.6 E146.99397
M204 S2000
G1 F2400 E146.19397
G0 F7500 X110 Y141.19
G0 X110 Y140.7
G0 X110 Y137.78
G0 X110 Y137.5
M204 S500
G1 F2400 E146.99397
G1 F1500 X109.917 Y137.506 E147.00062
G1 X108.684 Y137.31 E147.10027
G1 X108.238 Y137.164 E147.13774
G1 X107.12 Y136.595 E147.23787
G1 X106.879 Y136.389 E147.26318
G1 X106.005 Y135.515 E147.36184
G1 X105.832 Y135.241 E147.38771
G1 X105.264 Y134.129 E147.48739
G1 X105.185 Y133.811 E147.51354
G1 F1485.1 X105 Y132.631 E147.60984
G1 X104.81 Y133.816 E147.7066
G1 F1500 X104.732 Y134.13 E147.73242
G1 X104.164 Y135.241 E147.83202
G1 X103.991 Y135.515 E147.85789
G1 X103.005 Y136.501 E147.9692
G1 X102.74 Y136.664 E147.99403
G1 X101.765 Y137.164 E148.0815
G1 X101.339 Y137.306 E148.11735
G1 X100.236 Y137.482 E148.20651
G1 X99.917 Y137.506 E148.23204
G1 X98.684 Y137.31 E148.3317
G1 X98.238 Y137.164 E148.36916
G1 X97.12 Y136.595 E148.4693
G1 X96.879 Y136.389 E148.49461
G1 X96.005 Y135.515 E148.59327
G1 X95.832 Y135.241 E148.61914
G1 X95.264 Y134.129 E148.71881
G1 X95.185 Y133.811 E148.74497
G1 F1485.1 X95 Y132.631 E148.84126
G1 X94.81 Y133.816 E148.93802
G1 F1500 X94.732 Y134.13 E148.96385
G1 X94.164 Y135.241 E149.06345
G1 X93.991 Y135.515 E149.08932
G1 X93.005 Y136.501 E149.20063
G1 X92.74 Y136.664 E149.22546
G1 X91.765 Y137.164 E149.31293
G1 X91.339 Y137.306 E149.34877
G1 X90.236 Y137.482 E149.43793
G1 X89.917 Y137.506 E149.46347
G1 X88.684 Y137.31 E149.56313
G1 X88.238 Y137.164 E149.60059
G1 X87.12 Y136.595 E149.70072
G1 X86.879 Y136.389 E149.72603
G1 X86.005 Y135.515 E149.8247
G1 X85.832 Y135.241 E149.85056
G1 X85.264 Y134.129 E149.95024
G1 X85.185 Y133.811 E149.97639
G1 F1485.1 X85 Y132.631 E150.07269
G1 X84.81 Y133.816 E150.16945
G1 F1500 X84.732 Y134.13 E150.19527
G1 X84.164 Y135.241 E150.29488
G1 X83.991 Y135.515 E150.32074
G1 X83.005 Y136.501 E150.43205
G1 X82.74 Y136.664 E150.45689
G1 X81.765 Y137.164 E150.54435
G1 X81.339 Y137.306 E150.5802
G1 X80.236 Y137.482 E150.66936
G1 X79.917 Y137.506 E150.69489
G1 X78.684 Y137.31 E150.79455
G1 X78.238 Y137.164 E150.83201
G1 X77.12 Y136.595 E150.93215
G1 X76.879 Y136.389 E150.95746
G1 X76.005 Y135.515 E151.05612
G1 X75.832 Y135.241 E151.08199
G1 X75.264 Y134.129 E151.18166
G1 X75.185 Y133.811 E151.20782
G1 F1485.1 X75 Y132.631 E151.30412
G1 X74.81 Y133.816 E151.40087
G1 F1500 X74.732 Y134.13 E151.4267
G1 X74.164 Y135.241 E151.5263
G1 X73.991 Y135.515 E151.55217
G1 X73.005 Y136.501 E151.66348
G1 X72.74 Y136.664 E151.68831
G1 X71.765 Y137.164 E151.77578
G1 X71.339 Y137.306 E151.81162
G1 X70.236 Y137.482 E151.90078
G1 X69.917 Y137.506 E151.92632
G1 X68.684 Y137.31 E152.02598
G1 X68.238 Y137.164 E152.06344
G1 X67.258 Y136.665 E152.15122
G1 X66.987 Y136.497 E152.17668
G1 X65.997 Y135.507 E152.28844
G1 X65.832 Y135.24 E152.31349
G1 X65.332 Y134.265 E152.40096
G1 X65.19 Y133.84 E152.43672
G1 X65 Y132.615 E152.53568
G1 X65 Y87.373 E156.14709
G1 X65.185 Y86.188 E156.24283
G1 X65.331 Y85.738 E156.28059
G1 X65.831 Y84.758 E156.36841
G1 X65.999 Y84.487 E156.39387
G1 X66.987 Y83.499 E156.5054
G1 X67.258 Y83.331 E156.53085
G1 X68.238 Y82.831 E156.61867
G1 X68.66 Y82.69 E156.65419
G1 X69.764 Y82.514 E156.74343
G1 X70.083 Y82.49 E156.76896
G1 X71.317 Y82.686 E156.8687
G1 X71.765 Y82.832 E156.90631
G1 X72.881 Y83.404 E157.00642
G1 X73.117 Y83.607 E157.03127
G1 X73.995 Y84.485 E157.13038
G1 X74.165 Y84.758 E157.15606
G1 X74.735 Y85.878 E157.25637
G1 X74.811 Y86.188 E157.28185
G1 F1456.3 X75 Y87.256 E157.37102
G1 X75.186 Y86.183 E157.46056
G1 F1500 X75.261 Y85.878 E157.48563
G1 X75.831 Y84.758 E157.58595
G1 X76.001 Y84.485 E157.61162
G1 X76.989 Y83.497 E157.72315
G1 X77.258 Y83.331 E157.74838
G1 X78.238 Y82.831 E157.83621
G1 X78.66 Y82.69 E157.87172
G1 X79.764 Y82.514 E157.96096
G1 X80.083 Y82.49 E157.9865
G1 X81.317 Y82.686 E158.08624
G1 X81.765 Y82.832 E158.12385
G1 X82.881 Y83.404 E158.22395
G1 X83.117 Y83.607 E158.2488
G1 X83.995 Y84.485 E158.34792
G1 X84.165 Y84.758 E158.37359
G1 X84.735 Y85.878 E158.4739
G1 X84.811 Y86.188 E158.49938
G1 F1456.3 X85 Y87.256 E158.58856
G1 X85.186 Y86.183 E158.67809
G1 F1500 X85.261 Y85.878 E158.70316
G1 X85.831 Y84.758 E158.80348
G1 X86.001 Y84.485 E158.82915
G1 X86.989 Y83.497 E158.94069
G1 X87.258 Y83.331 E158.96592
G1 X88.238 Y82.831 E159.05374
G1 X88.66 Y82.69 E159.08926
G1 X89.764 Y82.514 E159.17849
