; generated by PrusaSlicer 2.9.0 on 2025-06-12 at 12:30:59 UTC

; 

; external perimeters extrusion width = 0.63mm
; perimeters extrusion width = 0.66mm
; infill extrusion width = 0.66mm
; solid infill extrusion width = 0.66mm
; top infill extrusion width = 0.60mm
; first layer extrusion width = 0.63mm

M201 X500 Y500 Z100 E5000 ; sets maximum accelerations, mm/sec^2
M203 X500 Y500 Z10 E60 ; sets maximum feedrates, mm / sec
M204 S500 T1000 ; sets acceleration (S) and retract acceleration (R), mm/sec^2
M205 X8.00 Y8.00 Z0.40 E5.00 ; sets the jerk limits, mm/sec
M205 S0 T0 ; sets the minimum extruding and travel feed rate, mm/sec

; printing object solid_wheel_65mm.stl id:0 copy 0
; stop printing object solid_wheel_65mm.stl id:0 copy 0
; printing object solid_wheel_65mm.stl id:0 copy 1
; stop printing object solid_wheel_65mm.stl id:0 copy 1

;TYPE:Custom
G90 ; use absolute coordinates
M83 ; extruder relative mode
M104 S150 ; set temporary nozzle temp to prevent oozing during homing
M140 S60 ; set final bed temp
G4 S30 ; allow partial nozzle warmup
G28 ; home all axis and restore leveling
G1 Z50 F240
G1 X2.0 Y10 F3000
M104 S210 ; set final nozzle temp
M190 S60 ; wait for bed temp to stabilize
M109 S210 ; wait for nozzle temp to stabilize
G1 Z0.28 F240
G92 E0
G1 X2.0 Y140 E10 F1500 ; prime the nozzle
G1 X2.3 Y140 F5000
G92 E0
G1 X2.3 Y10 E10 F1200 ; prime the nozzle
G92 E0
G21 ; set units to millimeters
G90 ; use absolute coordinates
M83 ; use relative distances for extrusion
; Filament gcode
M107
;LAYER_CHANGE
;Z:0.3
;HEIGHT:0.3
G1 E-.8 F1800
G1 Z.3 F9000
G1 X46.559 Y73.22
G1 Z.3
G1 E.8 F1800
M204 S500
;TYPE:Skirt/Brim
;WIDTH:0.63
G1 F1200
G1 X50.586 Y71.168 E.31885
G1 X54.567 Y69.655 E.30045
G1 X58.684 Y68.566 E.30043
G1 X63.063 Y67.9 E.31248
G1 X66.819 Y67.704 E.26534
G1 X137.892 Y66.324 E5.01494
G1 X141.972 Y66.556 E.2883
G1 X145.751 Y67.15 E.26987
G1 X150.286 Y68.351 E.33096
G1 X154.017 Y69.783 E.28193
G1 X157.666 Y71.622 E.28827
G1 X161.744 Y74.27 E.34302
G1 X164.714 Y76.681 E.26987
G1 X167.617 Y79.558 E.28833
G1 X170.677 Y83.337 E.34304
G1 X172.887 Y86.774 E.28827
G1 X174.702 Y90.335 E.28197
G1 X176.24 Y94.306 E.30042
G1 X177.316 Y98.248 E.28827
G1 X178.076 Y103.051 E.34305
G1 X178.272 Y107.133 E.28831
G1 X178.063 Y111.124 E.28194
G1 X177.316 Y115.755 E.33093
G1 X176.24 Y119.698 E.28834
G1 X174.808 Y123.429 E.28193
G1 X172.666 Y127.603 E.33097
G1 X170.425 Y131.02 E.28828
G1 X167.91 Y134.127 E.282
G1 X164.583 Y137.434 E.33093
G1 X161.396 Y139.992 E.2883
G1 X158.044 Y142.169 E.28197
G1 X154.017 Y144.221 E.31885
G1 X150.037 Y145.734 E.30038
G1 X145.92 Y146.823 E.30043
G1 X141.54 Y147.489 E.31255
G1 X137.785 Y147.684 E.26526
G1 X67.209 Y149.069 E4.9799
G1 X62.631 Y148.833 E.32339
G1 X58.428 Y148.153 E.30037
G1 X54.318 Y147.038 E.30043
G1 X50.347 Y145.499 E.30045
G1 X46.413 Y143.463 E.3125
G1 X42.859 Y141.118 E.30038
G1 X39.889 Y138.707 E.26987
G1 X36.987 Y135.83 E.28828
G1 X34.178 Y132.405 E.31249
G1 X31.847 Y128.841 E.30043
G1 X29.902 Y125.053 E.3004
G1 X28.363 Y121.083 E.30038
G1 X27.248 Y116.973 E.30043
G1 X26.59 Y112.94 E.28828
G1 X26.336 Y108.084 E.34305
G1 X26.568 Y104.004 E.2883
G1 X27.288 Y99.633 E.31252
G1 X28.363 Y95.69 E.28832
G1 X29.902 Y91.72 E.30038
G1 X31.847 Y87.932 E.3004
G1 X34.178 Y84.368 E.30043
G1 X36.693 Y81.262 E.28195
G1 X39.695 Y78.241 E.30046
G1 X42.995 Y75.55 E.3004
G1 X46.484 Y73.269 E.29407
;WIPE_START
G1 F7200
G1 X46.559 Y73.22 E-.02128
G1 X49.481 Y71.731 E-.77872
;WIPE_END
G1 X48.663 Y76.671 F9000
G1 E.8 F1800
G1 F1200
G1 X52.079 Y74.927 E.27058
G1 X55.658 Y73.549 E.27056
G1 X59.362 Y72.553 E.27059
G1 X63.127 Y71.952 E.26897
G1 X67.148 Y71.75 E.28403
G1 X70.938 Y71.956 E.26777
G1 X74.695 Y72.559 E.26844
G1 X78.369 Y73.549 E.26844
G1 X81.948 Y74.926 E.27053
G1 X85.361 Y76.669 E.27036
G1 X88.527 Y78.725 E.26632
G1 X91.486 Y81.115 E.26834
G1 X94.203 Y83.823 E.27062
G1 X96.677 Y86.875 E.27716
G1 X98.779 Y90.122 E.27288
G1 X100.526 Y93.57 E.27269
G1 X101.921 Y97.225 E.27599
G1 X102.331 Y97.205 E.02896
G1 X102.759 Y95.623 E.11562
G1 X104.127 Y92.072 E.26846
G1 X105.841 Y88.708 E.26635
G1 X107.892 Y85.539 E.2663
G1 X110.337 Y82.509 E.27467
G1 X113.024 Y79.815 E.26843
G1 X115.976 Y77.414 E.26844
G1 X119.187 Y75.316 E.27059
G1 X122.573 Y73.579 E.26847
G1 X126.205 Y72.174 E.27473
G1 X129.879 Y71.181 E.26849
G1 X133.64 Y70.574 E.26876
G1 X137.812 Y70.366 E.29469
G1 X141.543 Y70.574 E.26362
G1 X145.329 Y71.187 E.27057
G1 X148.973 Y72.173 E.26632
G1 X152.496 Y73.529 E.26631
G1 X155.962 Y75.299 E.27456
G1 X159.126 Y77.357 E.26627
G1 X162.039 Y79.71 E.26417
G1 X164.798 Y82.46 E.27481
G1 X167.252 Y85.49 E.27507
G1 X169.339 Y88.711 E.27076
G1 X171.114 Y92.212 E.27692
G1 X172.458 Y95.741 E.2664
G1 X173.438 Y99.418 E.26846
G1 X174.043 Y103.295 E.27682
G1 X174.231 Y107.065 E.26629
G1 X174.03 Y110.835 E.26634
G1 X173.411 Y114.709 E.27677
G1 X172.419 Y118.383 E.26847
G1 X171.053 Y121.916 E.26722
G1 X169.356 Y125.263 E.26474
G1 X167.306 Y128.439 E.26668
G1 X164.843 Y131.494 E.27684
G1 X162.131 Y134.21 E.27077
G1 X159.101 Y136.664 E.27507
G1 X155.802 Y138.796 E.27711
G1 X152.379 Y140.526 E.27057
G1 X148.794 Y141.888 E.27055
G1 X145.086 Y142.868 E.27057
G1 X141.296 Y143.456 E.27057
G1 X137.466 Y143.643 E.27052
G1 X133.698 Y143.436 E.26622
G1 X129.969 Y142.842 E.26639
G1 X126.266 Y141.85 E.27045
G1 X122.686 Y140.476 E.27052
G1 X119.296 Y138.75 E.26837
G1 X116.079 Y136.665 E.27045
G1 X113.097 Y134.255 E.27049
G1 X110.381 Y131.544 E.27072
G1 X107.927 Y128.513 E.27513
G1 X105.824 Y125.267 E.27286
G1 X104.077 Y121.819 E.27269
G1 X102.683 Y118.164 E.27597
G1 X102.273 Y118.185 E.02896
G1 X101.853 Y119.739 E.11356
G1 X100.49 Y123.274 E.26728
G1 X98.781 Y126.648 E.26682
G1 X96.713 Y129.848 E.26879
G1 X94.307 Y132.834 E.27053
G1 X91.578 Y135.575 E.27287
G1 X88.477 Y138.084 E.28141
G1 X85.279 Y140.151 E.26863
G1 X81.858 Y141.887 E.27064
G1 X78.219 Y143.273 E.27471
G1 X74.54 Y144.247 E.26848
G1 X70.75 Y144.837 E.27059
G1 X66.92 Y145.028 E.27053
G1 X63.122 Y144.821 E.26834
G1 X59.365 Y144.221 E.2684
G1 X55.663 Y143.226 E.27043
G1 X52.084 Y141.848 E.27056
G1 X48.72 Y140.135 E.26632
G1 X45.527 Y138.067 E.26837
G1 X42.543 Y135.659 E.27051
G1 X39.825 Y132.95 E.27072
G1 X37.352 Y129.898 E.27712
G1 X35.22 Y126.6 E.27705
G1 X33.514 Y123.231 E.26641
G1 X32.155 Y119.676 E.2685
G1 X31.147 Y115.883 E.27687
G1 X30.56 Y112.093 E.27056
G1 X30.373 Y108.263 E.27052
G1 X30.583 Y104.465 E.26835
G1 X31.192 Y100.68 E.27046
G1 X32.184 Y97.007 E.2684
G1 X33.552 Y93.457 E.26839
G1 X35.295 Y90.041 E.27055
G1 X37.369 Y86.851 E.26843
G1 X39.781 Y83.871 E.27046
G1 X42.47 Y81.18 E.26838
G1 X45.448 Y78.763 E.27058
G1 X48.588 Y76.72 E.26428
G1 X48.588 Y76.72 F9000
G1 X48.895 Y77.193
G1 F1200
G1 X48.934 Y77.168 E.00327
G1 X52.296 Y75.449 E.26638
G1 X55.82 Y74.091 E.26643
G1 X59.466 Y73.109 E.26638
G1 X63.2 Y72.513 E.26676
G1 X67.161 Y72.316 E.27978
G1 X70.892 Y72.52 E.2636
G1 X74.562 Y73.109 E.26222
G1 X78.18 Y74.082 E.26431
G1 X81.731 Y75.449 E.26843
G1 X85.066 Y77.152 E.26417
G1 X88.206 Y79.191 E.26412
G1 X91.119 Y81.545 E.26422
G1 X93.793 Y84.213 E.26648
G1 X96.228 Y87.219 E.27291
G1 X98.296 Y90.416 E.26861
G1 X100.015 Y93.812 E.26852
G1 X101.349 Y97.313 E.26431
G1 X101.898 Y99.374 E.15047
G1 X102.332 Y99.375 E.03062
G1 X103.293 Y95.812 E.26034
G1 X104.638 Y92.316 E.26426
G1 X106.324 Y89.003 E.26225
G1 X108.358 Y85.859 E.26417
G1 X110.748 Y82.898 E.26845
G1 X113.392 Y80.244 E.26429
G1 X116.321 Y77.862 E.26634
G1 X119.484 Y75.798 E.26645
G1 X122.817 Y74.089 E.26424
G1 X126.367 Y72.716 E.26852
G1 X130.012 Y71.731 E.26637
G1 X133.714 Y71.134 E.26454
G1 X137.796 Y70.931 E.28833
G1 X141.468 Y71.135 E.25945
G1 X145.195 Y71.737 E.26634
G1 X148.784 Y72.707 E.26228
G1 X152.279 Y74.052 E.26419
G1 X155.667 Y75.782 E.26837
G1 X158.782 Y77.807 E.26211
G1 X161.672 Y80.141 E.26207
G1 X164.368 Y82.828 E.26853
G1 X166.803 Y85.835 E.27297
G1 X168.856 Y89.006 E.2665
G1 X170.59 Y92.427 E.27057
G1 X171.924 Y95.928 E.26431
G1 X172.887 Y99.549 E.26433
G1 X173.479 Y103.338 E.27055
G1 X173.665 Y107.05 E.2622
G1 X173.466 Y110.79 E.26422
G1 X172.861 Y114.576 E.27048
G1 X171.886 Y118.193 E.26428
G1 X170.542 Y121.673 E.26318
G1 X168.859 Y124.994 E.26265
G1 X166.839 Y128.119 E.26251
G1 X164.432 Y131.105 E.27057
G1 X161.764 Y133.78 E.26653
G1 X158.757 Y136.215 E.27297
G1 X155.534 Y138.298 E.27073
G1 X152.164 Y140.003 E.26644
G1 X148.635 Y141.345 E.26635
G1 X144.984 Y142.312 E.26645
G1 X141.253 Y142.891 E.26636
G1 X137.482 Y143.078 E.26636
G1 X133.772 Y142.875 E.26212
G1 X130.073 Y142.286 E.26424
G1 X126.427 Y141.308 E.26631
G1 X122.903 Y139.953 E.26635
G1 X119.565 Y138.253 E.26427
G1 X116.423 Y136.216 E.26417
G1 X113.485 Y133.844 E.26639
G1 X110.811 Y131.176 E.26648
G1 X108.376 Y128.169 E.27297
G1 X106.308 Y124.972 E.26861
G1 X104.588 Y121.576 E.26855
G1 X103.255 Y118.075 E.26428
G1 X102.706 Y116.015 E.1504
G1 X102.272 Y116.014 E.03062
G1 X101.319 Y119.55 E.25836
G1 X99.978 Y123.031 E.26317
G1 X98.283 Y126.379 E.26474
G1 X96.246 Y129.528 E.26458
G1 X93.876 Y132.468 E.26641
G1 X91.188 Y135.165 E.26863
G1 X88.157 Y137.618 E.27508
G1 X84.984 Y139.668 E.2665
G1 X81.616 Y141.375 E.26638
G1 X78.059 Y142.73 E.26853
G1 X74.438 Y143.69 E.26428
G1 X70.707 Y144.273 E.26641
G1 X66.907 Y144.462 E.26841
G1 X63.168 Y144.257 E.26417
G1 X59.498 Y143.671 E.26219
G1 X55.852 Y142.692 E.26633
G1 X52.327 Y141.338 E.26639
G1 X49.015 Y139.652 E.26218
G1 X45.847 Y137.6 E.26628
G1 X42.91 Y135.228 E.26633
G1 X40.255 Y132.583 E.26439
G1 X37.8 Y129.554 E.27506
G1 X35.717 Y126.331 E.27073
G1 X34.025 Y122.988 E.26433
G1 X32.689 Y119.488 E.26429
G1 X31.704 Y115.781 E.27059
G1 X31.124 Y112.05 E.26637
G1 X30.938 Y108.28 E.26629
G1 X31.144 Y104.54 E.26425
G1 X31.742 Y100.813 E.26629
G1 X32.717 Y97.196 E.26428
G1 X34.063 Y93.7 E.26428
G1 X35.778 Y90.337 E.26632
G1 X37.818 Y87.196 E.26422
G1 X40.192 Y84.261 E.26631
G1 X42.838 Y81.609 E.26429
G1 X45.77 Y79.229 E.26641
G1 X48.82 Y77.242 E.2568
G1 X48.82 Y77.242 F9000
G1 X49.128 Y77.715
G1 F1200
G1 X49.205 Y77.665 E.00648
G1 X52.514 Y75.972 E.26222
G1 X55.981 Y74.633 E.26219
G1 X59.57 Y73.665 E.26224
G1 X63.244 Y73.077 E.26249
G1 X67.175 Y72.881 E.27767
G1 X70.817 Y73.08 E.25732
G1 X74.458 Y73.665 E.26016
G1 X78.018 Y74.624 E.2601
G1 X81.513 Y75.971 E.26424
G1 X84.77 Y77.634 E.25799
G1 X87.862 Y79.641 E.26006
G1 X90.73 Y81.957 E.26006
G1 X93.363 Y84.58 E.26219
G1 X95.778 Y87.564 E.27082
G1 X97.798 Y90.685 E.26227
G1 X99.492 Y94.027 E.26433
G1 X100.815 Y97.501 E.26225
G1 X101.761 Y101.065 E.26014
G1 X101.951 Y102.266 E.08578
G1 X102.434 Y102.266 E.03407
G1 X102.867 Y99.561 E.19326
G1 X103.826 Y96.001 E.2601
G1 X105.149 Y92.559 E.26014
G1 X106.821 Y89.273 E.2601
G1 X108.825 Y86.179 E.26006
G1 X111.159 Y83.287 E.26218
G1 X113.782 Y80.654 E.26219
G1 X116.666 Y78.31 E.26218
G1 X119.78 Y76.28 E.26224
G1 X123.062 Y74.599 E.26014
G1 X126.529 Y73.258 E.26225
G1 X130.117 Y72.287 E.26223
G1 X133.789 Y71.695 E.26239
G1 X137.779 Y71.497 E.28183
G1 X141.393 Y71.696 E.25534
G1 X145.062 Y72.287 E.26217
G1 X148.622 Y73.249 E.26016
G1 X152.062 Y74.574 E.26006
G1 X155.371 Y76.264 E.26212
G1 X158.438 Y78.256 E.258
G1 X161.305 Y80.572 E.26001
G1 X163.938 Y83.196 E.26224
G1 X166.354 Y86.179 E.27081
G1 X168.373 Y89.301 E.26229
G1 X170.067 Y92.642 E.26426
G1 X171.39 Y96.116 E.26225
G1 X172.337 Y99.68 E.26015
G1 X172.915 Y103.381 E.26426
G1 X173.1 Y107.063 E.26008
G1 X172.902 Y110.744 E.26006
G1 X172.311 Y114.443 E.26426
G1 X171.352 Y118.004 E.26017
G1 X170.031 Y121.43 E.25904
G1 X168.375 Y124.699 E.25852
G1 X166.372 Y127.8 E.26043
G1 X164.02 Y130.717 E.26435
G1 X161.396 Y133.35 E.26224
G1 X158.412 Y135.766 E.27086
G1 X155.265 Y137.801 E.26439
G1 X151.949 Y139.479 E.26218
G1 X148.475 Y140.803 E.26228
G1 X144.883 Y141.755 E.26215
G1 X141.21 Y142.327 E.26224
G1 X137.498 Y142.512 E.2622
G1 X133.818 Y142.311 E.26
G1 X130.177 Y141.73 E.26011
G1 X126.588 Y140.765 E.26219
G1 X123.119 Y139.43 E.26222
G1 X119.861 Y137.77 E.25796
G1 X116.766 Y135.766 E.26012
G1 X113.874 Y133.432 E.26218
G1 X111.241 Y130.808 E.26224
G1 X108.825 Y127.825 E.27081
G1 X106.805 Y124.703 E.26233
G1 X105.112 Y121.361 E.2643
G1 X103.789 Y117.888 E.26219
G1 X102.842 Y114.324 E.26015
G1 X102.653 Y113.123 E.08577
G1 X102.17 Y113.122 E.03407
G1 X101.736 Y115.828 E.19334
G1 X100.786 Y119.36 E.25803
G1 X99.456 Y122.815 E.26118
G1 X97.8 Y126.084 E.25852
G1 X95.796 Y129.185 E.26047
G1 X93.445 Y132.101 E.26425
G1 X90.821 Y134.735 E.26229
G1 X87.837 Y137.151 E.27086
G1 X84.715 Y139.171 E.26233
G1 X81.373 Y140.864 E.2643
G1 X77.9 Y142.187 E.26219
G1 X74.307 Y143.14 E.26224
G1 X70.635 Y143.712 E.26217
G1 X66.923 Y143.897 E.2622
G1 X63.242 Y143.696 E.26007
G1 X59.602 Y143.115 E.26004
G1 X56.041 Y142.159 E.26011
G1 X52.544 Y140.815 E.2643
G1 X49.285 Y139.155 E.25802
G1 X46.191 Y137.151 E.26006
G1 X43.277 Y134.797 E.26427
G1 X40.666 Y132.193 E.26015
G1 X38.25 Y129.21 E.27081
G1 X36.215 Y126.062 E.26444
G1 X34.548 Y122.773 E.26013
G1 X33.222 Y119.3 E.26226
G1 X32.261 Y115.68 E.26423
G1 X31.689 Y112.007 E.26224
G1 X31.504 Y108.296 E.26213
G1 X31.705 Y104.615 E.26007
G1 X32.292 Y100.945 E.2622
G1 X33.251 Y97.386 E.26003
G1 X34.573 Y93.944 E.26012
G1 X36.261 Y90.632 E.26225
G1 X38.267 Y87.54 E.26002
G1 X40.603 Y84.649 E.26221
G1 X43.207 Y82.039 E.2601
G1 X46.091 Y79.695 E.26218
G1 X49.053 Y77.764 E.24944
G1 X49.053 Y77.764 F9000
G1 X49.361 Y78.236
G1 F1200
G1 X49.476 Y78.161 E.00969
G1 X52.731 Y76.494 E.25799
G1 X56.143 Y75.176 E.25804
G1 X59.674 Y74.221 E.25805
G1 X63.288 Y73.641 E.25822
G1 X67.188 Y73.447 E.27547
G1 X70.742 Y73.641 E.2511
G1 X74.354 Y74.221 E.25808
G1 X77.857 Y75.166 E.25596
G1 X81.269 Y76.482 E.25799
G1 X84.5 Y78.131 E.25591
G1 X87.542 Y80.107 E.25591
G1 X90.363 Y82.387 E.25589
G1 X92.933 Y84.948 E.25596
G1 X95.329 Y87.908 E.26866
G1 X97.315 Y90.98 E.25807
G1 X98.968 Y94.243 E.25805
G1 X100.272 Y97.66 E.25802
G1 X101.211 Y101.195 E.25803
G1 X101.775 Y104.809 E.25804
G1 X101.959 Y108.462 E.25804
G1 X101.763 Y112.084 E.2559
G1 X101.186 Y115.695 E.25798
G1 X100.244 Y119.199 E.25597
G1 X98.945 Y122.572 E.25499
G1 X97.302 Y125.815 E.25647
G1 X95.33 Y128.865 E.25623
G1 X93.034 Y131.713 E.25808
G1 X90.453 Y134.305 E.25805
G1 X87.493 Y136.702 E.2687
G1 X84.421 Y138.687 E.25803
G1 X81.158 Y140.341 E.25808
G1 X77.74 Y141.644 E.25806
G1 X74.205 Y142.583 E.25803
G1 X70.591 Y143.148 E.25805
G1 X66.939 Y143.331 E.25796
G1 X63.317 Y143.135 E.2559
G1 X59.705 Y142.558 E.25805
G1 X56.202 Y141.617 E.25589
G1 X52.788 Y140.304 E.25805
G1 X49.555 Y138.657 E.25597
G1 X46.511 Y136.684 E.25591
G1 X43.666 Y134.386 E.258
G1 X41.096 Y131.825 E.25596
G1 X38.699 Y128.865 E.2687
G1 X36.713 Y125.793 E.25807
G1 X35.06 Y122.53 E.25805
G1 X33.756 Y119.113 E.25802
G1 X32.817 Y115.578 E.25803
G1 X32.253 Y111.964 E.25804
G1 X32.069 Y108.311 E.25804
G1 X32.265 Y104.689 E.2559
G1 X32.842 Y101.078 E.25798
G1 X33.784 Y97.574 E.25597
G1 X35.084 Y94.187 E.25594
G1 X36.743 Y90.928 E.25799
G1 X38.716 Y87.883 E.25597
G1 X41.014 Y85.038 E.258
G1 X43.575 Y82.468 E.25596
G1 X46.413 Y80.16 E.25806
G1 X49.286 Y78.286 E.24199
G1 X49.286 Y78.286 F9000
G1 X49.594 Y78.759
G1 F1200
G1 X49.772 Y78.643 E.01499
G1 X52.976 Y77.004 E.25389
G1 X56.333 Y75.709 E.25384
G1 X59.807 Y74.771 E.25386
G1 X63.362 Y74.202 E.25399
G1 X67.172 Y74.013 E.26912
G1 X70.668 Y74.202 E.24699
G1 X74.221 Y74.771 E.25385
G1 X77.695 Y75.709 E.25386
G1 X81.052 Y77.004 E.25384
G1 X84.229 Y78.628 E.25171
G1 X87.221 Y80.573 E.25176
G1 X89.996 Y82.818 E.25181
G1 X92.523 Y85.338 E.25177
G1 X94.863 Y88.228 E.26233
G1 X96.817 Y91.249 E.25382
G1 X98.445 Y94.458 E.25385
G1 X99.729 Y97.82 E.25389
G1 X100.654 Y101.298 E.25389
G1 X101.211 Y104.853 E.25385
G1 X101.393 Y108.446 E.2538
G1 X101.202 Y112.009 E.25172
G1 X100.636 Y115.563 E.25388
G1 X99.711 Y119.01 E.25178
G1 X98.433 Y122.329 E.2509
G1 X96.819 Y125.521 E.25234
G1 X94.863 Y128.545 E.25407
G1 X92.603 Y131.346 E.2539
G1 X90.063 Y133.895 E.25386
G1 X87.173 Y136.235 E.26233
G1 X84.151 Y138.19 E.25392
G1 X80.942 Y139.818 E.25385
G1 X77.58 Y141.102 E.25389
G1 X74.103 Y142.027 E.25382
G1 X70.548 Y142.584 E.25385
G1 X66.954 Y142.766 E.25387
