;FLAVOR:Marlin
;TIME:385
;Filament used: 0.41623m
;Layer height: 0.2
;MINX:88.949
;MINY:94.861
;MINZ:0.2
;MAXX:115.083
;MAXY:128.303
;MAXZ:3.8
;TARGET_MACHINE.NAME:Creality Ender-3 S1
;Generated with Cura_SteamEngine 5.9.0
M82 ;absolute extrusion mode
; Ender 3 S1 Start G-code
; M413 S0 ; Disable power loss recovery
M201 X500.00 Y500.00 Z100.00 E5000.00 ;Setup machine max acceleration
M203 X500.00 Y500.00 Z20.00 E50.00 ;Setup machine max feedrate
M204 P500.00 R1000.00 T500.00 ;Setup Print/Retract/Travel acceleration
M205 X8.00 Y8.00 Z0.40 E5.00 ;Setup Jerk
M220 S100 ;Reset Feedrate
M221 S100 ;Reset Flowrate
G92 E0 ; Reset Extruder

; Prep surfaces before auto home for better accuracy
M140 S60
M104 S200
G92 E0 ; Reset Extruder
G28 ; Home all axes
M420 S1 Z10; Use Level Mesh up to 2mm;
G1 Z10.0 F3000 ; Move Z Axis up little to prevent scratching of Heat Bed
G1 X0 Y0

M190 S60
M109 S200

G1 X0.1 Y20 Z0.3 F5000.0 ; Move to start position
G1 X0.1 Y200.0 Z0.3 F1500.0 E15 ; Draw the first line
G1 X0.4 Y200.0 Z0.3 F5000.0 ; Move to side a little
G1 X0.4 Y20 Z0.3 F1500.0 E30 ; Draw the second line
G92 E0 ; Reset Extruder
G1 Z2.0 F3000 ; Move Z Axis up little to prevent scratching of Heat Bed
G1 X5 Y20 Z0.3 F5000.0 ; Move over to prevent blob squish
G92 E0
G92 E0
G1 F2400 E-0.8
;LAYER_COUNT:19
;LAYER:0
M107
M204 S2000
;MESH:solid_wheel_cap.stl(1)
G0 F7500 X107.984 Y107.454 Z0.2
M204 S500
;TYPE:WALL-INNER
G1 F2400 E0
G1 F1505 X107.884 Y107.459 E0.00498
G1 X107.388 Y107.436 E0.02967
G1 F1507.5 X106.766 Y107.344 E0.06088
G1 F1505 X106.209 Y107.194 E0.08956
G1 X105.689 Y106.993 E0.11728
G1 X105.24 Y106.765 E0.14232
G1 X104.713 Y106.433 E0.17329
G1 F1502.5 X104.267 Y106.067 E0.20203
G1 X103.878 Y105.68 E0.22936
G1 F1505 X103.521 Y105.237 E0.25765
G1 X103.206 Y104.752 E0.28641
G1 F1500 X102.952 Y104.251 E0.31443
G1 F1502.5 X102.751 Y103.736 E0.34197
G1 F1507.5 X102.601 Y103.177 E0.3707
G1 F1505 X102.517 Y102.627 E0.39836
G1 F1502.5 X102.485 Y102.066 E0.42635
G1 F1505 X102.511 Y101.557 E0.45169
G1 X102.6 Y100.943 E0.48254
G1 X102.769 Y100.331 E0.51411
G1 F1500 X102.952 Y99.869 E0.5389
G1 X103.225 Y99.324 E0.56931
G1 F1461 X103.516 Y98.961 E0.59314
G1 X103.924 Y98.726 E0.61726
G1 F1500 X104.364 Y98.608 E0.63999
G1 X111.406 Y98.608 E0.99131
G1 X111.85 Y98.727 E1.01425
G1 F1461 X112.256 Y98.961 E1.03825
G1 X112.543 Y99.32 E1.06179
G1 F1502.5 X112.819 Y99.869 E1.0924
G1 F1500 X113.019 Y100.387 E1.1201
G1 F1502.5 X113.169 Y100.943 E1.14878
G1 F1505 X113.256 Y101.486 E1.17613
G1 X113.284 Y102.054 E1.2044
G1 X113.255 Y102.632 E1.23318
G1 X113.171 Y103.177 E1.2606
G1 X113.02 Y103.733 E1.28925
G1 F1502.5 X112.819 Y104.251 E1.31692
G1 X112.565 Y104.755 E1.34503
G1 F1505 X112.249 Y105.236 E1.37365
G1 X111.905 Y105.673 E1.4013
G1 X111.503 Y106.069 E1.42936
G1 X111.063 Y106.43 E1.45766
G1 X110.58 Y106.736 E1.48609
G1 F1502.5 X110.081 Y106.994 E1.51407
G1 F1505 X109.564 Y107.193 E1.54162
G1 F1507.5 X109.002 Y107.344 E1.57051
G1 X108.455 Y107.43 E1.59799
G1 F1510.1 X107.984 Y107.454 E1.62136
M204 S2000
G0 F7500 X107.973 Y106.856
M204 S500
G1 F1500 X107.884 Y106.86 E1.62581
G1 X107.421 Y106.839 E1.64893
G1 X106.838 Y106.746 E1.67839
G1 X106.45 Y106.642 E1.69843
G1 X105.933 Y106.446 E1.72601
G1 X105.483 Y106.215 E1.75125
G1 X105.064 Y105.944 E1.77614
G1 X104.671 Y105.623 E1.80146
G1 X104.321 Y105.278 E1.82598
G1 X104.022 Y104.909 E1.84967
G1 X103.708 Y104.422 E1.87858
G1 X103.5 Y104.008 E1.9017
G1 X103.318 Y103.546 E1.92647
G1 X103.187 Y103.054 E1.95187
G1 X103.109 Y102.525 E1.97855
G1 X103.084 Y102.064 E2.00158
G1 X103.109 Y101.591 E2.02521
G1 X103.186 Y101.065 E2.05173
G1 X103.318 Y100.574 E2.0771
G1 X103.5 Y100.112 E2.10187
G1 X103.752 Y99.618 E2.12954
G1 X103.919 Y99.427 E2.1422
G1 X104.157 Y99.278 E2.15621
G1 X104.399 Y99.214 E2.16869
G1 X111.349 Y99.208 E2.51543
G1 X111.616 Y99.279 E2.52922
G1 X111.853 Y99.427 E2.54316
G1 X112.02 Y99.617 E2.55578
G1 X112.253 Y100.073 E2.58132
G1 X112.466 Y100.627 E2.61094
G1 X112.582 Y101.065 E2.63354
G1 X112.66 Y101.549 E2.658
G1 X112.685 Y102.056 E2.68332
G1 X112.664 Y102.516 E2.7063
G1 X112.585 Y103.054 E2.73343
G1 X112.451 Y103.544 E2.75877
G1 X112.289 Y103.969 E2.78146
G1 X112.044 Y104.46 E2.80884
G1 X111.768 Y104.88 E2.83391
G1 X111.487 Y105.237 E2.85658
G1 X111.101 Y105.624 E2.88385
G1 X110.708 Y105.944 E2.90913
G1 X110.325 Y106.191 E2.93187
G1 X109.884 Y106.425 E2.95678
G1 X109.374 Y106.626 E2.98412
G1 X108.88 Y106.758 E3.00963
G1 X108.34 Y106.839 E3.03688
G1 X107.973 Y106.856 E3.05521
M204 S2000
G0 F7500 X107.994 Y107.267
G0 X107.994 Y108.053
M204 S500
G1 F1510.1 X108.517 Y108.024 E3.08116
G1 F1507.5 X109.124 Y107.928 E3.11167
G1 X109.75 Y107.76 E3.14385
G1 F1505 X110.324 Y107.541 E3.17439
G1 F1502.5 X110.878 Y107.256 E3.20542
G1 X111.418 Y106.909 E3.23739
G1 F1505 X111.903 Y106.512 E3.26856
G1 X112.34 Y106.079 E3.29915
G1 F1502.5 X112.733 Y105.59 E3.3304
G1 F1505 X113.084 Y105.051 E3.36238
G1 F1502.5 X113.367 Y104.494 E3.3935
G1 X113.587 Y103.919 E3.42416
G1 F1505 X113.756 Y103.3 E3.45607
G1 X113.85 Y102.693 E3.48661
G1 X113.882 Y102.053 E3.51847
G1 X113.85 Y101.424 E3.54979
G1 X113.755 Y100.821 E3.58014
G1 F1502.5 X113.583 Y100.186 E3.61291
G1 F1500 X113.367 Y99.626 E3.64285
G1 F1502.5 X113.083 Y99.066 E3.67413
G1 F1461 X112.709 Y98.523 E3.7079
G1 X112.339 Y98.041 E3.73902
G1 F1500 X111.903 Y97.605 E3.76978
G1 X111.417 Y97.212 E3.80097
G1 X110.874 Y96.859 E3.83328
G1 X110.323 Y96.577 E3.86416
G1 X109.752 Y96.359 E3.89465
G1 X109.124 Y96.194 E3.92705
G1 X108.509 Y96.095 E3.95812
G1 X107.885 Y96.063 E3.9893
G1 X107.27 Y96.094 E4.02002
G1 X106.643 Y96.194 E4.05169
G1 X106.02 Y96.358 E4.08383
G1 X105.447 Y96.577 E4.11444
G1 X104.894 Y96.86 E4.14543
G1 X104.355 Y97.212 E4.17755
G1 X103.866 Y97.605 E4.20885
G1 X103.435 Y98.04 E4.2394
G1 F1461 X103.053 Y98.536 E4.27146
G1 X102.687 Y99.069 E4.30458
G1 F1500 X102.402 Y99.626 E4.3358
G1 F1502.5 X102.18 Y100.211 E4.36696
G1 F1507.5 X102.016 Y100.821 E4.39832
G1 F1505 X101.921 Y101.427 E4.42882
G1 F1502.5 X101.885 Y102.067 E4.46075
G1 X101.921 Y102.688 E4.49173
G1 F1505 X102.016 Y103.3 E4.52252
G1 F1507.5 X102.184 Y103.923 E4.55455
G1 F1502.5 X102.402 Y104.494 E4.585
G1 F1500 X102.686 Y105.049 E4.6161
G1 F1505 X103.048 Y105.602 E4.64896
G1 X103.434 Y106.081 E4.67955
G1 F1502.5 X103.865 Y106.512 E4.70991
G1 F1500 X104.354 Y106.909 E4.74134
G1 F1502.5 X104.89 Y107.256 E4.77314
G1 F1505 X105.447 Y107.539 E4.8042
G1 X106.023 Y107.761 E4.8349
G1 X106.644 Y107.928 E4.86687
G1 X107.255 Y108.024 E4.89763
G1 X107.884 Y108.059 E4.92895
G1 X107.994 Y108.053 E4.93443
M204 S2000
G0 F7500 X108.005 Y108.651
M204 S500
G1 F1500 X108.58 Y108.62 E4.96316
G1 X109.248 Y108.514 E4.9969
G1 X109.934 Y108.33 E5.03234
G1 X110.568 Y108.089 E5.06618
G1 X111.177 Y107.775 E5.10036
G1 X111.77 Y107.394 E5.13553
G1 X112.304 Y106.958 E5.16992
G1 X112.786 Y106.481 E5.20375
G1 X113.218 Y105.942 E5.23821
G1 X113.603 Y105.352 E5.27336
G1 X113.916 Y104.738 E5.30774
G1 X114.158 Y104.105 E5.34155
G1 X114.342 Y103.424 E5.37675
G1 X114.447 Y102.755 E5.41053
G1 X114.482 Y102.053 E5.4456
G1 X114.447 Y101.362 E5.48012
G1 X114.342 Y100.696 E5.51375
G1 X114.159 Y100.015 E5.54893
G1 X113.916 Y99.382 E5.58276
G1 X113.603 Y98.766 E5.61723
G1 X113.218 Y98.174 E5.65247
G1 X112.786 Y97.639 E5.68677
G1 X112.305 Y97.158 E5.72071
G1 X111.77 Y96.726 E5.75502
G1 X111.176 Y96.34 E5.79036
G1 X110.568 Y96.028 E5.82445
G1 X109.936 Y95.787 E5.8582
G1 X109.249 Y95.606 E5.89364
G1 X108.573 Y95.497 E5.9278
G1 X107.885 Y95.462 E5.96217
G1 X107.207 Y95.497 E5.99604
G1 X106.519 Y95.606 E6.03079
G1 X105.836 Y95.786 E6.06603
G1 X105.203 Y96.028 E6.09984
G1 X104.593 Y96.34 E6.13403
G1 X104.002 Y96.726 E6.16924
G1 X103.464 Y97.158 E6.20367
G1 X102.987 Y97.638 E6.23743
G1 X102.554 Y98.174 E6.2718
G1 X102.168 Y98.769 E6.30719
G1 X101.853 Y99.382 E6.34157
G1 X101.614 Y100.013 E6.37523
G1 X101.43 Y100.696 E6.41052
G1 X101.324 Y101.364 E6.44427
G1 X101.286 Y102.067 E6.47939
G1 X101.324 Y102.752 E6.51362
G1 X101.43 Y103.424 E6.54756
G1 X101.614 Y104.107 E6.58285
G1 X101.853 Y104.738 E6.61651
G1 X102.167 Y105.351 E6.65087
G1 X102.554 Y105.942 E6.68612
G1 X102.988 Y106.481 E6.72064
G1 X103.463 Y106.958 E6.75423
G1 X104.002 Y107.394 E6.78882
G1 X104.591 Y107.775 E6.82381
G1 X105.203 Y108.088 E6.85811
G1 X105.838 Y108.331 E6.89203
G1 X106.52 Y108.515 E6.92727
G1 X107.192 Y108.62 E6.9612
G1 X107.884 Y108.658 E6.99578
G1 X108.005 Y108.651 E7.00183
M204 S2000
G0 F7500 X108.016 Y109.252
M204 S500
;TYPE:WALL-OUTER
G1 F1500 X108.644 Y109.217 E7.0332
G1 X109.373 Y109.102 E7.07002
G1 X110.119 Y108.902 E7.10856
G1 X110.813 Y108.637 E7.14562
G1 X111.477 Y108.295 E7.18288
G1 X112.123 Y107.88 E7.22119
G1 X112.706 Y107.404 E7.25874
G1 X113.232 Y106.883 E7.29567
G1 X113.704 Y106.295 E7.33329
G1 X114.123 Y105.653 E7.37154
G1 X114.465 Y104.982 E7.40911
G1 X114.73 Y104.291 E7.44604
G1 X114.93 Y103.549 E7.48437
G1 X115.045 Y102.817 E7.52134
G1 X115.083 Y102.053 E7.55951
G1 X115.045 Y101.3 E7.59712
G1 X114.93 Y100.571 E7.63394
G1 X114.73 Y99.829 E7.67228
G1 X114.465 Y99.138 E7.7092
G1 X114.123 Y98.466 E7.74682
G1 X113.704 Y97.821 E7.78519
G1 X113.232 Y97.237 E7.82266
G1 X112.707 Y96.712 E7.8597
G1 X112.123 Y96.24 E7.89716
G1 X111.477 Y95.82 E7.9356
G1 X110.813 Y95.479 E7.97284
G1 X110.12 Y95.215 E8.00984
G1 X109.373 Y95.018 E8.04838
G1 X108.636 Y94.899 E8.08563
G1 X107.885 Y94.861 E8.12314
G1 X107.144 Y94.899 E8.16016
G1 X106.395 Y95.018 E8.198
G1 X105.652 Y95.214 E8.23633
G1 X104.959 Y95.479 E8.27335
G1 X104.291 Y95.82 E8.31077
G1 X103.649 Y96.24 E8.34904
G1 X103.062 Y96.712 E8.38662
G1 X102.54 Y97.237 E8.42356
G1 X102.068 Y97.821 E8.46102
G1 X101.648 Y98.467 E8.49946
G1 X101.303 Y99.138 E8.5371
G1 X101.042 Y99.829 E8.57395
G1 X100.842 Y100.571 E8.61229
G1 X100.727 Y101.3 E8.64911
G1 X100.685 Y102.067 E8.68744
G1 X100.727 Y102.816 E8.72486
G1 X100.842 Y103.549 E8.76188
G1 X101.042 Y104.291 E8.80022
G1 X101.303 Y104.982 E8.83707
G1 X101.648 Y105.653 E8.87471
G1 X102.068 Y106.295 E8.91299
G1 X102.54 Y106.883 E8.9506
G1 X103.061 Y107.404 E8.98736
G1 X103.649 Y107.88 E9.02511
G1 X104.291 Y108.295 E9.06324
G1 X104.959 Y108.637 E9.10069
G1 X105.653 Y108.902 E9.13775
G1 X106.395 Y109.102 E9.17609
G1 X107.128 Y109.217 E9.2131
G1 X107.884 Y109.259 E9.25088
G1 X108.016 Y109.252 E9.25747
M204 S2000
G1 F2400 E8.45747
G0 F7500 X107.964 Y108.246
G0 X108.014 Y107.266
G0 X107.962 Y106.256
M204 S500
G1 F2400 E9.25747
G1 F1500 X107.869 Y106.26 E9.26212
G1 X107.44 Y106.239 E9.28355
G1 X107.01 Y106.17 E9.30527
G1 X106.589 Y106.057 E9.32702
G1 X106.177 Y105.898 E9.34905
G1 X105.779 Y105.693 E9.37139
G1 X105.421 Y105.462 E9.39264
G1 X105.074 Y105.179 E9.41498
G1 X104.765 Y104.874 E9.43665
G1 X104.483 Y104.523 E9.45911
G1 X104.25 Y104.164 E9.48046
G1 X104.049 Y103.766 E9.50271
G1 X103.887 Y103.356 E9.5247
G1 X103.774 Y102.93 E9.54669
G1 X103.708 Y102.49 E9.56888
G1 X103.684 Y102.042 E9.59127
G1 X103.709 Y101.612 E9.61276
G1 X103.774 Y101.187 E9.63421
G1 X103.887 Y100.764 E9.65605
G1 X104.055 Y100.341 E9.67876
G1 X104.256 Y99.944 E9.70096
G1 X104.416 Y99.81 E9.71137
G1 X111.357 Y99.81 E10.05766
G1 X111.516 Y99.944 E10.06803
G1 X111.723 Y100.354 E10.09095
G1 X111.881 Y100.765 E10.11291
G1 X111.994 Y101.187 E10.13471
G1 X112.063 Y101.612 E10.15619
G1 X112.085 Y102.058 E10.17847
G1 X112.063 Y102.504 E10.20075
G1 X111.998 Y102.93 E10.22224
G1 X111.877 Y103.369 E10.24496
G1 X111.723 Y103.766 E10.26621
G1 X111.522 Y104.164 E10.28845
G1 X111.286 Y104.523 E10.30989
G1 X111.019 Y104.861 E10.33138
G1 X110.698 Y105.179 E10.35392
G1 X110.351 Y105.462 E10.37626
G1 X109.989 Y105.693 E10.39768
G1 X109.61 Y105.891 E10.41902
G1 X109.184 Y106.057 E10.44183
G1 X108.744 Y106.173 E10.46453
G1 X108.328 Y106.239 E10.48554
G1 X107.962 Y106.256 E10.50382
M204 S2000
G0 F7500 X108.014 Y107.266
G0 X109.479 Y106.96
G0 X110.463 Y106.521
G0 X111.333 Y105.889
G0 X112.055 Y105.088
G0 X112.593 Y104.156
G0 X112.926 Y103.133
G0 X113.039 Y102.061
G0 X113.133 Y99.761
G0 X112.894 Y99.269
G0 X111.896 Y97.882
G0 X111.659 Y98.119
M204 S500
;TYPE:SKIN
G1 F1500 X111.424 Y98.068 E10.51582
G1 X104.34 Y98.068 E10.86924
G1 X104.114 Y98.118 E10.88079
G1 X104.219 Y98.013 E10.8882
G1 X104.668 Y97.654 E10.91688
G1 X105.172 Y97.324 E10.94693
G1 X105.667 Y97.067 E10.97476
G1 X106.175 Y96.875 E11.00185
G1 X106.763 Y96.722 E11.03216
G1 X107.321 Y96.631 E11.06037
G1 X107.884 Y96.601 E11.0885
G1 X108.456 Y96.631 E11.11707
G1 X109.001 Y96.718 E11.14461
G1 X109.592 Y96.875 E11.17512
G1 X110.101 Y97.067 E11.20226
G1 X110.596 Y97.324 E11.23008
G1 X111.104 Y97.651 E11.26022
G1 X111.539 Y98.001 E11.28808
G1 X111.659 Y98.119 E11.29648
M204 S2000
G0 F7500 X111.896 Y97.882
G0 X112.837 Y99.153
G0 X113.133 Y99.761
G0 X112.768 Y99.191
G0 X112.188 Y98.945
G0 X110.495 Y98.408
G0 X110.495 Y97.767
M204 S500
G1 F1500 X110.167 Y97.439 E11.31962
M204 S2000
G0 F7500 X109.647 Y97.767
M204 S500
G1 F1500 X108.882 Y97.003 E11.37356
M204 S2000
G0 F7500 X108.798 Y97.767
M204 S500
G1 F1500 X107.935 Y96.904 E11.43445
M204 S2000
G0 F7500 X107.146 Y96.964
M204 S500
G1 F1500 X107.95 Y97.767 E11.49114
M204 S2000
G0 F7500 X107.102 Y97.768
M204 S500
G1 F1500 X106.448 Y97.114 E11.53728
M204 S2000
G0 F7500 X105.816 Y97.331
M204 S500
G1 F1500 X106.253 Y97.768 E11.56811
M204 S2000
G0 F7500 X105.405 Y97.768
M204 S500
G1 F1500 X105.261 Y97.625 E11.57824
M204 S2000
G1 F2400 E10.77824
;MESH:solid_wheel_cap.stl
G0 F7500 X104.913 Y97.088
G0 X104.041 Y97.799
G0 X103.624 Y98.219
G0 X102.934 Y99.152
G0 X102.652 Y99.778
G0 X103.287 Y107.164
G0 X102.473 Y108.17
G0 X100.166 Y114.003
G0 X99.578 Y115.155
G0 X98.72 Y119.389
G0 X98.742 Y124.877
G0 X96.896 Y126.447
M204 S500
;TYPE:WALL-INNER
G1 F2400 E11.57824
G1 F1505 X96.719 Y126.475 E11.58715
G1 X96.148 Y126.506 E11.61558
G1 X95.574 Y126.475 E11.64417
G1 X95.031 Y126.389 E11.6715
G1 X94.473 Y126.24 E11.70022
G1 F1502.5 X93.953 Y126.04 E11.72797
G1 F1500 X93.452 Y125.785 E11.75602
G1 F1502.5 X92.968 Y125.469 E11.78481
G1 F1505 X92.529 Y125.116 E11.81282
G1 X92.136 Y124.723 E11.84045
G1 X91.783 Y124.284 E11.86846
G1 F1502.5 X91.468 Y123.8 E11.89723
G1 F1505 X91.211 Y123.296 E11.92536
G1 X91.013 Y122.777 E11.95298
G1 X90.861 Y122.221 E11.98164
G1 X90.777 Y121.675 E12.00911
G1 F1502.5 X90.749 Y121.11 E12.03728
G1 F1505 X90.777 Y120.532 E12.06606
G1 X90.863 Y119.987 E12.09349
G1 F1500 X91.013 Y119.433 E12.12213
G1 F1502.5 X91.245 Y118.843 E12.1537
G1 F1505 X91.467 Y118.411 E12.17785
G1 F1502.5 X91.782 Y117.926 E12.20666
G1 F1500 X92.138 Y117.487 E12.23486
G1 X92.527 Y117.098 E12.2623
G1 F1505 X92.967 Y116.74 E12.29051
G1 X93.451 Y116.425 E12.31922
G1 X93.953 Y116.172 E12.34717
G1 F1502.5 X94.473 Y115.972 E12.37492
G1 F1505 X95.031 Y115.82 E12.40368
G1 X95.578 Y115.737 E12.43119
G1 X96.148 Y115.704 E12.45958
G1 X96.783 Y115.745 E12.49122
G1 F1510.1 X97.266 Y115.82 E12.51544
G1 F1507.5 X97.822 Y115.972 E12.54406
G1 F1502.5 X98.342 Y116.173 E12.57182
G1 F1505 X98.916 Y116.471 E12.60398
G1 X99.188 Y116.674 E12.62086
G1 F1500 X99.479 Y117.146 E12.64852
G1 X99.596 Y117.585 E12.67119
G1 X99.596 Y124.625 E13.02242
G1 X99.477 Y125.069 E13.04535
G1 F1461 X99.243 Y125.476 E13.0694
G1 X98.888 Y125.762 E13.09275
G1 F1502.5 X98.342 Y126.039 E13.12324
G1 F1500 X97.822 Y126.239 E13.15104
G1 X97.265 Y126.389 E13.17982
G1 F1502.5 X96.896 Y126.447 E13.19842
M204 S2000
G0 F7500 X96.813 Y125.854
M204 S500
G1 F1500 X96.656 Y125.879 E13.20635
G1 X96.192 Y125.904 E13.22953
G1 X95.638 Y125.879 E13.2572
G1 X95.153 Y125.802 E13.2817
G1 X94.661 Y125.671 E13.3071
G1 X94.15 Y125.47 E13.3345
G1 X93.701 Y125.235 E13.35978
G1 X93.324 Y124.988 E13.38227
G1 X92.931 Y124.672 E13.40743
G1 X92.58 Y124.321 E13.43219
G1 X92.264 Y123.928 E13.45735
G1 X91.989 Y123.505 E13.48252
G1 X91.76 Y123.055 E13.50771
G1 X91.582 Y122.588 E13.53265
G1 X91.447 Y122.098 E13.558
G1 X91.373 Y121.612 E13.58253
G1 X91.348 Y121.108 E13.6077
G1 X91.373 Y120.596 E13.63328
G1 X91.45 Y120.109 E13.65788
G1 X91.582 Y119.623 E13.683
G1 X91.761 Y119.155 E13.708
G1 X92.013 Y118.664 E13.73553
G1 X92.237 Y118.32 E13.75601
G1 X92.611 Y117.859 E13.78563
G1 X92.899 Y117.571 E13.80595
