; generated by PrusaSlicer 2.9.0 on 2025-06-12 at 11:29:07 UTC

; 

; external perimeters extrusion width = 0.63mm
; perimeters extrusion width = 0.66mm
; infill extrusion width = 0.66mm
; solid infill extrusion width = 0.66mm
; top infill extrusion width = 0.60mm
; first layer extrusion width = 0.63mm

M201 X500 Y500 Z100 E5000 ; sets maximum accelerations, mm/sec^2
M203 X500 Y500 Z10 E60 ; sets maximum feedrates, mm / sec
M204 S500 T1000 ; sets acceleration (S) and retract acceleration (R), mm/sec^2
M205 X8.00 Y8.00 Z0.40 E5.00 ; sets the jerk limits, mm/sec
M205 S0 T0 ; sets the minimum extruding and travel feed rate, mm/sec

; printing object solid_wheel_65mm.stl id:0 copy 0
; stop printing object solid_wheel_65mm.stl id:0 copy 0

;TYPE:Custom
G90 ; use absolute coordinates
M83 ; extruder relative mode
M104 S150 ; set temporary nozzle temp to prevent oozing during homing
M140 S60 ; set final bed temp
G4 S30 ; allow partial nozzle warmup
G28 ; home all axis and restore leveling
G1 Z50 F240
G1 X2.0 Y10 F3000
M104 S210 ; set final nozzle temp
M190 S60 ; wait for bed temp to stabilize
M109 S210 ; wait for nozzle temp to stabilize
G1 Z0.28 F240
G92 E0
G1 X2.0 Y140 E10 F1500 ; prime the nozzle
G1 X2.3 Y140 F5000
G92 E0
G1 X2.3 Y10 E10 F1200 ; prime the nozzle
G92 E0
G21 ; set units to millimeters
G90 ; use absolute coordinates
M83 ; use relative distances for extrusion
; Filament gcode
M107
;LAYER_CHANGE
;Z:0.3
;HEIGHT:0.3
G1 E-.8 F1800
G1 Z.3 F9000
G1 X81.631 Y80.907
G1 Z.3
G1 E.8 F1800
M204 S500
;TYPE:Skirt/Brim
;WIDTH:0.63
G1 F1200
G1 X82.556 Y79.973 E.09274
G1 X86.335 Y76.913 E.34304
G1 X89.772 Y74.702 E.28831
G1 X93.731 Y72.716 E.31247
G1 X97.553 Y71.268 E.28833
G1 X101.67 Y70.179 E.30043
G1 X105.878 Y69.527 E.3004
G1 X110.303 Y69.322 E.31251
G1 X114.383 Y69.554 E.2883
G1 X118.586 Y70.234 E.30037
G1 X122.447 Y71.268 E.28198
G1 X126.428 Y72.781 E.30045
G1 X130.228 Y74.702 E.30039
G1 X133.807 Y77.01 E.30044
G1 X137.125 Y79.679 E.30041
G1 X140.027 Y82.556 E.28828
G1 X143.087 Y86.335 E.34304
G1 X145.298 Y89.772 E.28831
G1 X147.284 Y93.731 E.31247
G1 X148.732 Y97.553 E.28833
G1 X149.821 Y101.67 E.30043
G1 X150.473 Y105.878 E.3004
G1 X150.683 Y110.131 E.3004
G1 X150.473 Y114.122 E.28194
G1 X149.821 Y118.33 E.3004
G1 X148.732 Y122.447 E.30043
G1 X147.219 Y126.428 E.30045
G1 X145.298 Y130.228 E.30039
G1 X142.99 Y133.807 E.30044
G1 X140.321 Y137.125 E.30041
G1 X137.444 Y140.027 E.28828
G1 X134.019 Y142.836 E.31249
G1 X130.601 Y145.077 E.28834
G1 X126.269 Y147.285 E.34302
G1 X122.447 Y148.732 E.28831
G1 X118.33 Y149.821 E.30043
G1 X114.122 Y150.473 E.3004
G1 X109.869 Y150.683 E.3004
G1 X105.878 Y150.473 E.28194
G1 X101.67 Y149.821 E.3004
G1 X97.553 Y148.732 E.30043
G1 X93.572 Y147.219 E.30045
G1 X89.772 Y145.298 E.30039
G1 X86.193 Y142.99 E.30044
G1 X82.875 Y140.321 E.30041
G1 X79.973 Y137.444 E.28828
G1 X76.913 Y133.665 E.34304
G1 X74.702 Y130.228 E.28831
G1 X72.716 Y126.269 E.31247
G1 X71.268 Y122.447 E.28833
G1 X70.179 Y118.33 E.30043
G1 X69.527 Y114.122 E.3004
G1 X69.317 Y109.869 E.3004
G1 X69.554 Y105.617 E.30043
G1 X70.179 Y101.67 E.28192
G1 X71.268 Y97.553 E.30043
G1 X72.781 Y93.572 E.30045
G1 X74.702 Y89.772 E.30039
G1 X77.01 Y86.193 E.30044
G1 X79.679 Y82.875 E.30041
G1 X81.567 Y80.97 E.18921
;WIPE_START
G1 F7200
G1 X81.631 Y80.907 E-.02133
G1 X82.556 Y79.973 E-.3122
G1 X84.082 Y78.737 E-.46647
;WIPE_END
G1 X84.431 Y83.818 F9000
G1 E.8 F1800
G1 F1200
G1 X85.39 Y82.853 E.09598
G1 X88.362 Y80.43 E.27052
G1 X91.572 Y78.33 E.27061
G1 X94.983 Y76.577 E.27055
G1 X98.559 Y75.19 E.27059
G1 X102.26 Y74.185 E.27055
G1 X106.05 Y73.572 E.27085
G1 X110.223 Y73.364 E.29476
G1 X113.954 Y73.572 E.26362
G1 X117.739 Y74.185 E.2705
G1 X121.412 Y75.181 E.26848
G1 X124.961 Y76.552 E.2684
G1 X128.322 Y78.268 E.26623
G1 X131.513 Y80.338 E.26833
G1 X134.45 Y82.709 E.26629
G1 X137.148 Y85.391 E.26838
G1 X139.716 Y88.562 E.28786
G1 X141.795 Y91.787 E.27069
G1 X143.524 Y95.21 E.27054
G1 X144.887 Y98.795 E.27057
G1 X145.867 Y102.504 E.27064
G1 X146.454 Y106.294 E.27056
G1 X146.641 Y110.123 E.27045
G1 X146.431 Y113.921 E.26835
G1 X145.822 Y117.707 E.27052
G1 X144.829 Y121.381 E.26849
G1 X143.464 Y124.914 E.2672
G1 X141.752 Y128.287 E.26685
G1 X139.682 Y131.485 E.26875
G1 X137.293 Y134.448 E.26851
G1 X134.609 Y137.148 E.26858
G1 X131.438 Y139.716 E.28786
G1 X128.213 Y141.795 E.27069
G1 X124.79 Y143.524 E.27054
G1 X121.205 Y144.887 E.27057
G1 X117.496 Y145.867 E.27064
G1 X113.706 Y146.454 E.27056
G1 X109.877 Y146.641 E.27045
G1 X106.079 Y146.431 E.26835
G1 X102.322 Y145.828 E.26844
G1 X98.648 Y144.839 E.26842
G1 X95.097 Y143.474 E.26838
G1 X91.706 Y141.748 E.26843
G1 X88.513 Y139.68 E.26837
G1 X85.551 Y137.292 E.26841
G1 X82.852 Y134.609 E.26848
G1 X80.284 Y131.438 E.28786
G1 X78.205 Y128.213 E.27069
G1 X76.476 Y124.79 E.27054
G1 X75.113 Y121.205 E.27057
G1 X74.133 Y117.496 E.27064
G1 X73.546 Y113.706 E.27056
G1 X73.359 Y109.877 E.27045
G1 X73.569 Y106.079 E.26835
G1 X74.172 Y102.322 E.26844
G1 X75.161 Y98.649 E.26835
G1 X76.526 Y95.097 E.26845
G1 X78.252 Y91.707 E.26837
G1 X80.319 Y88.513 E.2684
G1 X82.708 Y85.551 E.26846
G1 X84.368 Y83.881 E.16612
G1 X84.368 Y83.881 F9000
G1 X84.768 Y84.28
G1 F1200
G1 X85.781 Y83.262 E.10132
G1 X88.708 Y80.878 E.26632
G1 X91.869 Y78.811 E.26644
G1 X95.228 Y77.087 E.26636
G1 X98.749 Y75.723 E.26638
G1 X102.394 Y74.735 E.26642
G1 X106.125 Y74.133 E.26662
G1 X110.206 Y73.929 E.28826
G1 X113.878 Y74.133 E.25945
G1 X117.606 Y74.735 E.26641
G1 X121.222 Y75.714 E.26428
G1 X124.717 Y77.062 E.26427
G1 X128.027 Y78.751 E.26215
G1 X131.169 Y80.788 E.26417
G1 X134.083 Y83.139 E.26414
G1 X136.738 Y85.781 E.26424
G1 X139.249 Y88.882 E.28149
G1 X141.297 Y92.056 E.26648
G1 X143.001 Y95.425 E.26635
G1 X144.344 Y98.955 E.26645
G1 X145.31 Y102.605 E.26636
G1 X145.89 Y106.336 E.26637
G1 X146.076 Y110.107 E.26636
G1 X145.87 Y113.846 E.26418
G1 X145.272 Y117.574 E.26636
G1 X144.296 Y121.191 E.2643
G1 X142.953 Y124.671 E.26315
G1 X141.269 Y127.992 E.26269
G1 X139.232 Y131.142 E.26464
G1 X136.862 Y134.081 E.26635
G1 X134.219 Y136.738 E.26439
G1 X131.118 Y139.249 E.28149
G1 X127.944 Y141.297 E.26648
G1 X124.575 Y143.001 E.26635
G1 X121.045 Y144.344 E.26645
G1 X117.395 Y145.31 E.26636
G1 X113.664 Y145.89 E.26637
G1 X109.893 Y146.076 E.26636
G1 X106.154 Y145.87 E.26418
G1 X102.426 Y145.272 E.26636
G1 X98.81 Y144.297 E.26421
G1 X95.314 Y142.951 E.26428
G1 X91.976 Y141.251 E.26427
G1 X88.833 Y139.214 E.26423
G1 X85.918 Y136.861 E.26428
G1 X83.262 Y134.219 E.26429
G1 X80.751 Y131.118 E.28149
G1 X78.703 Y127.944 E.26648
G1 X76.999 Y124.575 E.26635
G1 X75.656 Y121.045 E.26645
G1 X74.69 Y117.395 E.26636
G1 X74.11 Y113.664 E.26637
G1 X73.924 Y109.893 E.26636
G1 X74.13 Y106.153 E.26425
G1 X74.722 Y102.455 E.26421
G1 X75.694 Y98.838 E.26422
G1 X77.037 Y95.341 E.26427
G1 X78.734 Y92.001 E.2643
G1 X80.769 Y88.857 E.26421
G1 X83.139 Y85.918 E.26635
G1 X84.705 Y84.344 E.15664
G1 X84.705 Y84.344 F9000
G1 X85.105 Y84.742
G1 F1200
G1 X86.171 Y83.672 E.10655
G1 X89.053 Y81.326 E.26216
G1 X92.165 Y79.293 E.26224
G1 X95.473 Y77.597 E.26225
G1 X98.939 Y76.256 E.26218
G1 X102.527 Y75.285 E.26223
G1 X106.199 Y74.693 E.26239
G1 X110.19 Y74.495 E.2819
G1 X113.803 Y74.694 E.25527
G1 X117.473 Y75.285 E.26224
G1 X121.032 Y76.247 E.26009
G1 X124.499 Y77.585 E.26217
G1 X127.756 Y79.248 E.25799
G1 X130.848 Y81.254 E.26002
G1 X133.716 Y83.57 E.26006
G1 X136.329 Y86.171 E.2601
G1 X138.782 Y89.201 E.27503
G1 X140.799 Y92.324 E.26227
G1 X142.478 Y95.641 E.26228
G1 X143.801 Y99.114 E.26219
G1 X144.753 Y102.707 E.26222
G1 X145.325 Y106.38 E.26224
G1 X145.51 Y110.091 E.26213
G1 X145.31 Y113.772 E.26007
G1 X144.722 Y117.441 E.26214
G1 X143.763 Y121.002 E.26017
G1 X142.442 Y124.428 E.25904
G1 X140.771 Y127.723 E.26064
G1 X138.765 Y130.822 E.26043
G1 X136.431 Y133.715 E.26223
G1 X133.829 Y136.328 E.26015
G1 X130.799 Y138.782 E.27507
G1 X127.676 Y140.799 E.26227
G1 X124.359 Y142.478 E.26228
G1 X120.886 Y143.801 E.26219
G1 X117.293 Y144.753 E.26222
G1 X113.62 Y145.325 E.26224
G1 X109.909 Y145.51 E.26213
G1 X106.228 Y145.31 E.26007
G1 X102.559 Y144.722 E.26214
G1 X98.999 Y143.763 E.2601
G1 X95.557 Y142.441 E.26012
G1 X92.271 Y140.768 E.26013
G1 X89.177 Y138.764 E.26006
G1 X86.285 Y136.431 E.26213
G1 X83.672 Y133.829 E.26015
G1 X81.218 Y130.799 E.27507
G1 X79.201 Y127.676 E.26227
G1 X77.522 Y124.359 E.26228
G1 X76.199 Y120.886 E.26219
G1 X75.247 Y117.293 E.26222
G1 X74.675 Y113.62 E.26224
G1 X74.49 Y109.909 E.26213
G1 X74.69 Y106.228 E.26007
G1 X75.278 Y102.559 E.26214
G1 X76.237 Y98.999 E.2601
G1 X77.559 Y95.557 E.26012
G1 X79.232 Y92.271 E.26013
G1 X81.236 Y89.177 E.26006
G1 X83.569 Y86.285 E.26213
G1 X85.042 Y84.806 E.14726
G1 X85.042 Y84.806 F9000
G1 X85.442 Y85.205
G1 F1200
G1 X86.561 Y84.082 E.11184
G1 X89.399 Y81.774 E.25806
G1 X92.462 Y79.775 E.25803
G1 X95.717 Y78.107 E.25803
G1 X99.129 Y76.789 E.25804
G1 X102.66 Y75.835 E.25803
G1 X106.274 Y75.254 E.25823
G1 X110.174 Y75.06 E.27547
G1 X113.728 Y75.255 E.2511
G1 X117.34 Y75.835 E.25808
G1 X120.843 Y76.78 E.25596
G1 X124.255 Y78.095 E.25797
G1 X127.486 Y79.745 E.25594
G1 X130.528 Y81.72 E.25587
G1 X133.349 Y84.001 E.25593
G1 X135.919 Y86.561 E.25591
G1 X138.315 Y89.521 E.26866
G1 X140.301 Y92.593 E.25807
G1 X141.954 Y95.856 E.25805
G1 X143.258 Y99.274 E.25808
G1 X144.197 Y102.809 E.25803
G1 X144.761 Y106.423 E.25804
G1 X144.945 Y110.075 E.25797
G1 X144.749 Y113.697 E.2559
G1 X144.172 Y117.309 E.25805
G1 X143.23 Y120.813 E.25597
G1 X141.931 Y124.185 E.25493
G1 X140.288 Y127.429 E.25653
G1 X138.316 Y130.478 E.25617
G1 X136.02 Y133.326 E.25808
G1 X133.439 Y135.918 E.25805
G1 X130.479 Y138.315 E.2687
G1 X127.407 Y140.301 E.25807
G1 X124.144 Y141.954 E.25805
G1 X120.726 Y143.258 E.25808
G1 X117.191 Y144.197 E.25803
G1 X113.577 Y144.761 E.25804
G1 X109.925 Y144.945 E.25797
G1 X106.303 Y144.749 E.2559
G1 X102.691 Y144.172 E.25805
G1 X99.188 Y143.23 E.25591
G1 X95.774 Y141.918 E.25802
G1 X92.541 Y140.271 E.25597
G1 X89.497 Y138.298 E.25591
G1 X86.652 Y136 E.258
G1 X84.082 Y133.439 E.25596
G1 X81.685 Y130.479 E.2687
G1 X79.699 Y127.407 E.25807
G1 X78.046 Y124.144 E.25805
G1 X76.742 Y120.726 E.25808
G1 X75.803 Y117.191 E.25803
G1 X75.239 Y113.577 E.25804
G1 X75.055 Y109.925 E.25797
G1 X75.251 Y106.303 E.2559
G1 X75.828 Y102.691 E.25805
G1 X76.77 Y99.188 E.25591
G1 X78.07 Y95.801 E.25594
G1 X79.729 Y92.541 E.25805
G1 X81.702 Y89.497 E.25591
G1 X84 Y86.652 E.258
G1 X85.378 Y85.269 E.13773
G1 X85.378 Y85.269 F9000
G1 X85.778 Y85.668
G1 F1200
G1 X86.951 Y84.492 E.11718
G1 X89.744 Y82.222 E.25391
G1 X92.758 Y80.257 E.25383
G1 X95.962 Y78.618 E.25389
G1 X99.319 Y77.322 E.25386
G1 X102.793 Y76.385 E.25384
G1 X106.348 Y75.815 E.254
G1 X110.158 Y75.626 E.26912
G1 X113.654 Y75.816 E.247
G1 X117.207 Y76.385 E.25385
G1 X120.681 Y77.322 E.25384
G1 X124.038 Y78.617 E.25384
G1 X127.215 Y80.242 E.25175
G1 X130.207 Y82.187 E.25176
G1 X132.982 Y84.431 E.25177
G1 X135.509 Y86.951 E.25177
G1 X137.849 Y89.841 E.26233
G1 X139.803 Y92.863 E.25388
G1 X141.431 Y96.072 E.25385
G1 X142.715 Y99.434 E.25389
G1 X143.64 Y102.911 E.25382
G1 X144.197 Y106.466 E.25385
G1 X144.379 Y110.06 E.25387
G1 X144.188 Y113.623 E.25172
G1 X143.622 Y117.176 E.25381
G1 X142.697 Y120.623 E.25178
G1 X141.419 Y123.943 E.25097
G1 X139.805 Y127.134 E.25227
G1 X137.849 Y130.159 E.25413
G1 X135.589 Y132.959 E.25385
G1 X133.049 Y135.508 E.25386
G1 X130.159 Y137.849 E.26238
G1 X127.137 Y139.803 E.25388
G1 X123.928 Y141.431 E.25385
G1 X120.566 Y142.715 E.25389
G1 X117.089 Y143.64 E.25382
G1 X113.534 Y144.197 E.25385
G1 X109.94 Y144.379 E.25387
G1 X106.377 Y144.188 E.25172
G1 X102.824 Y143.622 E.25381
G1 X99.377 Y142.697 E.25178
G1 X96.017 Y141.407 E.25391
G1 X92.811 Y139.774 E.25382
G1 X89.817 Y137.831 E.2518
G1 X87.019 Y135.569 E.25383
G1 X84.492 Y133.049 E.25177
G1 X82.151 Y130.159 E.26238
G1 X80.197 Y127.137 E.25388
G1 X78.569 Y123.928 E.25385
G1 X77.285 Y120.566 E.25389
G1 X76.36 Y117.089 E.25382
G1 X75.803 Y113.534 E.25385
G1 X75.621 Y109.94 E.25387
G1 X75.812 Y106.377 E.25172
G1 X76.378 Y102.824 E.25381
G1 X77.303 Y99.377 E.25178
G1 X78.593 Y96.017 E.25391
G1 X80.226 Y92.811 E.25382
G1 X82.169 Y89.817 E.2518
G1 X84.431 Y87.019 E.25383
G1 X85.715 Y85.731 E.1283
G1 X85.715 Y85.731 F9000
G1 X86.115 Y86.131
G1 F1200
G1 X87.341 Y84.902 E.12247
G1 X90.089 Y82.671 E.24971
G1 X93.054 Y80.739 E.24966
G1 X96.206 Y79.128 E.24973
G1 X99.508 Y77.855 E.24966
G1 X102.926 Y76.935 E.24971
G1 X106.422 Y76.376 E.24977
G1 X110.142 Y76.192 E.26276
G1 X113.579 Y76.376 E.24282
G1 X117.074 Y76.935 E.2497
G1 X120.492 Y77.855 E.24971
G1 X123.794 Y79.128 E.24966
G1 X126.919 Y80.724 E.24755
G1 X129.887 Y82.653 E.24972
G1 X132.614 Y84.861 E.24754
G1 X135.098 Y87.341 E.24763
G1 X137.382 Y90.161 E.25601
G1 X139.306 Y93.132 E.24971
G1 X140.908 Y96.288 E.24969
G1 X142.172 Y99.594 E.24969
G1 X143.084 Y103.014 E.2497
G1 X143.633 Y106.51 E.24966
G1 X143.814 Y110.044 E.24964
G1 X143.627 Y113.549 E.24762
G1 X143.072 Y117.044 E.24965
G1 X142.163 Y120.435 E.24767
G1 X140.908 Y123.7 E.24677
G1 X139.307 Y126.865 E.25022
G1 X137.382 Y129.839 E.24992
G1 X135.158 Y132.592 E.24967
G1 X132.659 Y135.098 E.24967
G1 X129.839 Y137.382 E.25601
G1 X126.868 Y139.306 E.24971
G1 X123.712 Y140.908 E.24969
G1 X120.406 Y142.172 E.24969
G1 X116.986 Y143.084 E.2497
G1 X113.49 Y143.633 E.24966
G1 X109.956 Y143.814 E.24964
G1 X106.451 Y143.627 E.24762
G1 X102.956 Y143.072 E.24965
G1 X99.565 Y142.163 E.24767
G1 X96.26 Y140.896 E.2497
G1 X93.106 Y139.291 E.24966
G1 X90.161 Y137.382 E.24759
G1 X87.408 Y135.158 E.24967
G1 X84.902 Y132.659 E.24967
G1 X82.618 Y129.839 E.25601
G1 X80.694 Y126.868 E.24971
G1 X79.092 Y123.712 E.24969
G1 X77.828 Y120.406 E.24969
G1 X76.916 Y116.986 E.2497
G1 X76.367 Y113.49 E.24966
G1 X76.186 Y109.956 E.24964
G1 X76.373 Y106.451 E.24762
G1 X76.928 Y102.956 E.24965
G1 X77.837 Y99.565 E.24767
G1 X79.104 Y96.26 E.2497
G1 X80.709 Y93.106 E.24966
G1 X82.618 Y90.161 E.24759
G1 X84.842 Y87.408 E.24967
G1 X86.052 Y86.194 E.12092
G1 X86.052 Y86.194 F9000
G1 X86.451 Y86.593
G1 F1200
G1 X87.731 Y85.312 E.12775
G1 X90.433 Y83.119 E.2455
G1 X93.35 Y81.221 E.24551
G1 X96.45 Y79.639 E.24553
G1 X99.698 Y78.389 E.24552
G1 X103.058 Y77.485 E.24547
G1 X106.496 Y76.937 E.2456
G1 X110.127 Y76.757 E.25647
G1 X113.505 Y76.937 E.23865
G1 X116.942 Y77.485 E.24553
G1 X120.302 Y78.389 E.24547
G1 X123.55 Y79.639 E.24552
G1 X126.624 Y81.206 E.24341
G1 X129.542 Y83.102 E.2455
G1 X132.225 Y85.272 E.24344
G1 X134.688 Y87.731 E.24553
G1 X136.916 Y90.481 E.24969
G1 X138.808 Y93.402 E.24552
G1 X140.386 Y96.504 E.24553
G1 X141.63 Y99.754 E.2455
G1 X142.528 Y103.116 E.24549
G1 X143.069 Y106.554 E.24553
G1 X143.248 Y110.03 E.24555
G1 X143.066 Y113.475 E.24337
G1 X142.521 Y116.912 E.2455
G1 X141.63 Y120.246 E.24346
G1 X140.397 Y123.458 E.24272
G1 X138.809 Y126.597 E.24817
G1 X136.916 Y129.519 E.24562
G1 X134.728 Y132.225 E.2455
G1 X132.269 Y134.688 E.24553
G1 X129.519 Y136.916 E.24969
G1 X126.598 Y138.808 E.24552
G1 X123.496 Y140.386 E.24553
G1 X120.246 Y141.63 E.2455
G1 X116.884 Y142.528 E.24549
G1 X113.446 Y143.069 E.24553
G1 X109.97 Y143.248 E.24555
G1 X106.525 Y143.066 E.24337
G1 X103.088 Y142.521 E.2455
G1 X99.726 Y141.621 E.24553
G1 X96.477 Y140.374 E.24551
G1 X93.376 Y138.794 E.24553
G1 X90.481 Y136.916 E.24344
G1 X87.775 Y134.728 E.2455
G1 X85.312 Y132.269 E.24553
G1 X83.084 Y129.519 E.24969
G1 X81.192 Y126.598 E.24552
G1 X79.614 Y123.496 E.24553
G1 X78.37 Y120.246 E.2455
G1 X77.472 Y116.884 E.24549
G1 X76.931 Y113.446 E.24553
G1 X76.752 Y109.97 E.24555
G1 X76.934 Y106.525 E.24337
G1 X77.479 Y103.088 E.2455
G1 X78.379 Y99.726 E.24553
G1 X79.626 Y96.477 E.24551
G1 X81.206 Y93.376 E.24553
G1 X83.084 Y90.481 E.24344
G1 X85.272 Y87.775 E.2455
G1 X86.388 Y86.657 E.11144
G1 X86.388 Y86.657 F9000
G1 X86.787 Y87.056
G1 F1200
G1 X88.12 Y85.722 E.13304
G1 X90.778 Y83.568 E.24136
G1 X93.646 Y81.704 E.24131
G1 X96.694 Y80.149 E.24139
G1 X99.887 Y78.922 E.24132
G1 X103.191 Y78.035 E.24134
G1 X106.569 Y77.498 E.2413
G1 X110.111 Y77.323 E.25018
G1 X113.431 Y77.498 E.23454
G1 X116.809 Y78.035 E.2413
G1 X120.113 Y78.922 E.24134
