;FLAVOR:Marlin
;TIME:81
;Filament used: 0.0846886m
;Layer height: 0.2
;MINX:84.197
;MINY:102.801
;MINZ:0.2
;MAXX:117.199
;MAXY:117.299
;MAXZ:0.8
;TARGET_MACHINE.NAME:Creality Ender-3 S1
;Generated with Cura_SteamEngine 5.9.0
M82 ;absolute extrusion mode
; Ender 3 S1 Start G-code
; M413 S0 ; Disable power loss recovery
M201 X500.00 Y500.00 Z100.00 E5000.00 ;Setup machine max acceleration
M203 X500.00 Y500.00 Z20.00 E50.00 ;Setup machine max feedrate
M204 P500.00 R1000.00 T500.00 ;Setup Print/Retract/Travel acceleration
M205 X8.00 Y8.00 Z0.40 E5.00 ;Setup Jerk
M220 S100 ;Reset Feedrate
M221 S100 ;Reset Flowrate
G92 E0 ; Reset Extruder

; Prep surfaces before auto home for better accuracy
M140 S60
M104 S200
G92 E0 ; Reset Extruder
G28 ; Home all axes
M420 S1 Z10; Use Level Mesh up to 2mm;
G1 Z10.0 F3000 ; Move Z Axis up little to prevent scratching of Heat Bed
G1 X0 Y0

M190 S60
M109 S200

G1 X0.1 Y20 Z0.3 F5000.0 ; Move to start position
G1 X0.1 Y200.0 Z0.3 F1500.0 E15 ; Draw the first line
G1 X0.4 Y200.0 Z0.3 F5000.0 ; Move to side a little
G1 X0.4 Y20 Z0.3 F1500.0 E30 ; Draw the second line
G92 E0 ; Reset Extruder
G1 Z2.0 F3000 ; Move Z Axis up little to prevent scratching of Heat Bed
G1 X5 Y20 Z0.3 F5000.0 ; Move over to prevent blob squish
G92 E0
G92 E0
G1 F2400 E-0.8
;LAYER_COUNT:4
;LAYER:0
M107
M204 S2000
;MESH:solid_wheel_spacer.stl(1)
G0 F7500 X92.297 Y115.418 Z0.2
M204 S500
;TYPE:WALL-INNER
G1 F2400 E0
G1 F1505 X91.963 Y115.471 E0.01682
G1 X91.396 Y115.502 E0.04505
G1 X90.829 Y115.471 E0.07329
G1 X90.278 Y115.384 E0.10102
G1 X89.722 Y115.235 E0.12965
G1 F1500 X89.201 Y115.032 E0.15754
G1 X88.698 Y114.779 E0.18563
G1 F1502.5 X88.218 Y114.467 E0.21415
G1 X87.779 Y114.11 E0.24233
G1 X87.386 Y113.717 E0.27001
G1 X87.029 Y113.278 E0.29819
G1 X86.716 Y112.796 E0.32682
G1 X86.461 Y112.291 E0.355
G1 X86.262 Y111.776 E0.38249
G1 F1505 X86.112 Y111.218 E0.41123
G1 X86.025 Y110.667 E0.43896
G1 X85.998 Y110.173 E0.46356
G1 X86.025 Y109.529 E0.49561
G1 X86.112 Y108.983 E0.52311
G1 X86.262 Y108.424 E0.55188
G1 F1502.5 X86.461 Y107.909 E0.57938
G1 F1505 X86.761 Y107.336 E0.61154
G1 F1461 X87.025 Y107.007 E0.63315
G1 F1456.3 X87.433 Y106.771 E0.65737
G1 F1500 X87.878 Y106.652 E0.68035
G1 X94.914 Y106.652 E1.03138
G1 X95.359 Y106.771 E1.05436
G1 F1456.3 X95.765 Y107.004 E1.07842
G1 F1461 X96.034 Y107.34 E1.10046
G1 F1502.5 X96.329 Y107.909 E1.13238
G1 F1505 X96.51 Y108.369 E1.15696
G1 F1510.1 X96.68 Y108.982 E1.18849
G1 F1505 X96.766 Y109.532 E1.21617
G1 X96.796 Y110.094 E1.24415
G1 F1507.5 X96.767 Y110.668 E1.27268
G1 F1510.1 X96.68 Y111.218 E1.30028
G1 X96.53 Y111.777 E1.32896
G1 F1505 X96.33 Y112.292 E1.35643
G1 X96.075 Y112.798 E1.38461
G1 X95.761 Y113.28 E1.41321
G1 X95.406 Y113.717 E1.44121
G1 X95.013 Y114.11 E1.46884
G1 F1502.5 X94.574 Y114.466 E1.497
G1 F1500 X94.092 Y114.777 E1.52561
G1 F1502.5 X93.591 Y115.034 E1.55366
G1 F1505 X93.07 Y115.235 E1.58143
G1 X92.514 Y115.384 E1.61005
G1 X92.297 Y115.418 E1.62097
M204 S2000
G0 F7500 X92.197 Y114.826
M204 S500
G1 F1500 X91.902 Y114.875 E1.63589
G1 X91.44 Y114.9 E1.65897
G1 X90.89 Y114.875 E1.68644
G1 X90.35 Y114.786 E1.71374
G1 X89.911 Y114.666 E1.73645
G1 X89.479 Y114.499 E1.75956
G1 X88.994 Y114.258 E1.78658
G1 X88.574 Y113.985 E1.81157
G1 X88.215 Y113.695 E1.83459
G1 X87.831 Y113.315 E1.86154
G1 X87.511 Y112.922 E1.88683
G1 X87.237 Y112.501 E1.91189
G1 X87.009 Y112.049 E1.93715
G1 X86.83 Y111.586 E1.96191
G1 X86.699 Y111.096 E1.98722
G1 X86.617 Y110.556 E2.01447
G1 X86.596 Y110.104 E2.03704
G1 X86.621 Y109.59 E2.06271
G1 X86.698 Y109.105 E2.08721
G1 X86.83 Y108.614 E2.11258
G1 X87.009 Y108.151 E2.13734
G1 X87.264 Y107.662 E2.16486
G1 X87.429 Y107.472 E2.17741
G1 X87.668 Y107.323 E2.19146
G1 X87.936 Y107.252 E2.2053
G1 X94.88 Y107.258 E2.55173
G1 X95.124 Y107.323 E2.56433
G1 X95.361 Y107.471 E2.57827
G1 X95.53 Y107.664 E2.59107
G1 X95.794 Y108.183 E2.62012
G1 X95.962 Y108.614 E2.6432
G1 X96.094 Y109.104 E2.66852
G1 X96.175 Y109.64 E2.69556
G1 X96.197 Y110.096 E2.71834
G1 X96.172 Y110.606 E2.74381
G1 X96.094 Y111.096 E2.76857
G1 X95.952 Y111.619 E2.7956
G1 X95.762 Y112.091 E2.82099
G1 X95.574 Y112.469 E2.84205
G1 X95.28 Y112.924 E2.86908
G1 X94.961 Y113.316 E2.89429
G1 X94.612 Y113.665 E2.91892
G1 X94.259 Y113.952 E2.94161
G1 X93.793 Y114.257 E2.9694
G1 X93.347 Y114.487 E2.99443
G1 X92.881 Y114.666 E3.01934
G1 X92.442 Y114.786 E3.04204
G1 X92.197 Y114.826 E3.05443
M204 S2000
G0 F7500 X92.261 Y115.233
G0 X92.396 Y116.006
M204 S500
G1 F1505 X92.65 Y115.965 E3.06722
G1 X93.256 Y115.804 E3.0984
G1 X93.833 Y115.58 E3.12918
G1 F1502.5 X94.39 Y115.297 E3.1603
G1 F1500 X94.927 Y114.95 E3.19219
G1 F1502.5 X95.413 Y114.554 E3.22342
G1 F1505 X95.85 Y114.117 E3.25415
G1 X96.245 Y113.634 E3.28517
G1 X96.593 Y113.094 E3.31712
G1 X96.878 Y112.534 E3.34836
G1 X97.096 Y111.962 E3.3788
G1 F1510.1 X97.264 Y111.34 E3.41073
G1 X97.359 Y110.73 E3.44132
G1 F1507.5 X97.394 Y110.093 E3.47299
G1 F1505 X97.36 Y109.471 E3.50397
G1 X97.264 Y108.86 E3.53472
G1 F1507.5 X97.096 Y108.237 E3.56675
G1 F1502.5 X96.879 Y107.666 E3.59717
G1 F1500 X96.592 Y107.106 E3.62857
G1 F1456.3 X96.229 Y106.577 E3.66154
G1 X95.849 Y106.083 E3.69356
G1 F1500 X95.412 Y105.647 E3.72436
G1 X94.927 Y105.25 E3.75563
G1 X94.391 Y104.903 E3.78749
G1 X93.836 Y104.622 E3.81852
G1 X93.256 Y104.401 E3.84949
G1 X92.635 Y104.234 E3.88157
G1 X92.025 Y104.138 E3.91238
G1 X91.396 Y104.103 E3.94381
G1 X90.767 Y104.138 E3.97524
G1 X90.157 Y104.234 E4.00604
G1 X89.536 Y104.401 E4.03813
G1 X88.956 Y104.622 E4.06909
G1 X88.401 Y104.902 E4.10011
G1 X87.865 Y105.25 E4.13199
G1 X87.379 Y105.646 E4.16327
G1 X86.943 Y106.083 E4.19406
G1 F1456.3 X86.56 Y106.58 E4.22631
G1 X86.198 Y107.107 E4.25916
G1 F1500 X85.913 Y107.666 E4.29046
G1 F1502.5 X85.693 Y108.237 E4.32094
G1 F1505 X85.525 Y108.875 E4.35375
G1 X85.429 Y109.467 E4.38357
G1 F1502.5 X85.397 Y110.107 E4.41548
G1 X85.429 Y110.728 E4.44646
G1 F1505 X85.531 Y111.354 E4.47799
G1 X85.698 Y111.978 E4.51011
G1 F1502.5 X85.913 Y112.534 E4.5398
G1 X86.196 Y113.094 E4.57106
G1 X86.546 Y113.631 E4.60298
G1 X86.942 Y114.118 E4.63424
G1 X87.378 Y114.554 E4.66496
G1 X87.865 Y114.95 E4.69622
G1 X88.401 Y115.299 E4.72808
G1 F1500 X88.958 Y115.58 E4.7592
G1 X89.536 Y115.804 E4.79013
G1 F1505 X90.156 Y115.968 E4.82202
G1 X90.767 Y116.067 E4.85279
G1 F1502.5 X91.396 Y116.099 E4.88416
G1 X92.025 Y116.067 E4.91553
G1 F1505 X92.396 Y116.006 E4.93423
M204 S2000
G0 F7500 X92.497 Y116.598
M204 S500
G1 F1502.5 X92.76 Y116.555 E4.9475
G1 F1500 X93.441 Y116.375 E4.98264
G1 X94.077 Y116.128 E5.01668
G1 X94.69 Y115.818 E5.05095
G1 X95.281 Y115.436 E5.08606
G1 X95.815 Y114.999 E5.12049
G1 X96.295 Y114.519 E5.15435
G1 X96.73 Y113.986 E5.18868
G1 X97.111 Y113.393 E5.22384
G1 X97.428 Y112.778 E5.25836
G1 X97.666 Y112.146 E5.29205
G1 X97.85 Y111.464 E5.32729
G1 X97.955 Y110.793 E5.36118
G1 X97.994 Y110.093 E5.39615
G1 X97.956 Y109.408 E5.43038
G1 X97.85 Y108.736 E5.46432
G1 X97.666 Y108.053 E5.49961
G1 X97.428 Y107.422 E5.53326
G1 X97.111 Y106.807 E5.56778
G1 X96.73 Y106.214 E5.60294
G1 X96.295 Y105.68 E5.6373
G1 X95.815 Y105.201 E5.67113
G1 X95.281 Y104.765 E5.70553
G1 X94.69 Y104.382 E5.74066
G1 X94.079 Y104.073 E5.77482
G1 X93.441 Y103.83 E5.80888
G1 X92.76 Y103.646 E5.84408
G1 X92.088 Y103.541 E5.87801
G1 X91.396 Y103.502 E5.91259
G1 X90.704 Y103.541 E5.94717
G1 X90.032 Y103.646 E5.9811
G1 X89.351 Y103.829 E6.01628
G1 X88.713 Y104.073 E6.05036
G1 X88.102 Y104.382 E6.08452
G1 X87.511 Y104.765 E6.11965
G1 X86.977 Y105.201 E6.15405
G1 X86.497 Y105.68 E6.18788
G1 X86.061 Y106.216 E6.22235
G1 X85.677 Y106.807 E6.25751
G1 X85.364 Y107.423 E6.29198
G1 X85.122 Y108.053 E6.32565
G1 X84.942 Y108.736 E6.36089
G1 X84.832 Y109.404 E6.39467
G1 X84.798 Y110.107 E6.42978
G1 X84.832 Y110.792 E6.464
G1 X84.941 Y111.464 E6.49796
G1 X85.122 Y112.147 E6.53321
G1 X85.364 Y112.777 E6.56688
G1 X85.677 Y113.393 E6.60136
G1 X86.061 Y113.985 E6.63656
G1 X86.497 Y114.52 E6.67099
G1 X86.976 Y114.999 E6.70479
G1 X87.511 Y115.435 E6.73922
G1 X88.102 Y115.819 E6.77438
G1 X88.714 Y116.129 E6.80861
G1 X89.351 Y116.375 E6.84268
G1 X90.032 Y116.555 E6.87782
G1 X90.704 Y116.664 E6.91178
G1 X91.396 Y116.698 E6.94635
G1 X92.088 Y116.664 E6.98091
G1 F1502.5 X92.497 Y116.598 E7.00155
M204 S2000
G0 F7500 X92.597 Y117.189
M204 S500
;TYPE:WALL-OUTER
G1 F1500 X92.885 Y117.142 E7.01611
G1 X93.627 Y116.946 E7.0544
G1 X94.321 Y116.677 E7.09153
G1 X94.99 Y116.339 E7.12892
G1 X95.635 Y115.921 E7.16727
G1 X96.218 Y115.445 E7.20482
G1 X96.741 Y114.922 E7.24172
G1 X97.216 Y114.339 E7.27924
G1 X97.631 Y113.693 E7.31754
G1 X97.977 Y113.022 E7.35521
G1 X98.238 Y112.331 E7.39206
G1 X98.438 Y111.589 E7.4304
G1 X98.553 Y110.856 E7.46742
G1 X98.595 Y110.093 E7.50554
G1 X98.553 Y109.344 E7.54297
G1 X98.438 Y108.611 E7.57998
G1 X98.238 Y107.869 E7.61832
G1 X97.977 Y107.178 E7.65518
G1 X97.631 Y106.507 E7.69284
G1 X97.216 Y105.861 E7.73115
G1 X96.741 Y105.278 E7.76866
G1 X96.218 Y104.755 E7.80556
G1 X95.635 Y104.279 E7.84311
G1 X94.99 Y103.861 E7.88146
G1 X94.322 Y103.523 E7.91881
G1 X93.627 Y103.258 E7.95592
G1 X92.885 Y103.058 E7.99426
G1 X92.152 Y102.943 E8.03128
G1 X91.396 Y102.901 E8.06905
G1 X90.64 Y102.943 E8.10683
G1 X89.907 Y103.058 E8.14384
G1 X89.165 Y103.258 E8.18218
G1 X88.47 Y103.523 E8.21929
G1 X87.802 Y103.861 E8.25664
G1 X87.157 Y104.279 E8.29499
G1 X86.574 Y104.755 E8.33254
G1 X86.051 Y105.278 E8.36944
G1 X85.575 Y105.862 E8.40702
G1 X85.157 Y106.507 E8.44537
G1 X84.815 Y107.179 E8.48299
G1 X84.55 Y107.869 E8.51986
G1 X84.354 Y108.611 E8.55815
G1 X84.235 Y109.34 E8.595
G1 X84.197 Y110.107 E8.63332
G1 X84.235 Y110.856 E8.67073
G1 X84.354 Y111.589 E8.70778
G1 X84.55 Y112.331 E8.74607
G1 X84.815 Y113.021 E8.78294
G1 X85.157 Y113.693 E8.82056
G1 X85.575 Y114.339 E8.85895
G1 X86.051 Y114.922 E8.8965
G1 X86.574 Y115.445 E8.9334
G1 X87.157 Y115.921 E8.97095
G1 X87.802 Y116.339 E9.00929
G1 X88.47 Y116.677 E9.04664
G1 X89.165 Y116.946 E9.08383
G1 X89.907 Y117.142 E9.12211
G1 X90.64 Y117.261 E9.15916
G1 X91.396 Y117.299 E9.19693
G1 X92.152 Y117.261 E9.23469
G1 X92.597 Y117.189 E9.25718
M204 S2000
G1 F2400 E8.45718
G0 F7500 X92.44 Y116.194
G0 X92.255 Y115.234
G0 X92.097 Y114.238
M204 S500
G1 F2400 E9.25718
G1 F1500 X91.84 Y114.279 E9.27016
G1 X91.381 Y114.3 E9.29309
G1 X90.952 Y114.279 E9.31452
G1 X90.522 Y114.21 E9.33624
G1 X90.086 Y114.092 E9.35878
G1 X89.673 Y113.929 E9.38093
G1 X89.291 Y113.737 E9.40226
G1 X88.918 Y113.493 E9.4245
G1 X88.571 Y113.209 E9.44687
G1 X88.287 Y112.925 E9.46691
G1 X87.994 Y112.566 E9.49002
G1 X87.759 Y112.205 E9.51151
G1 X87.557 Y111.806 E9.53383
G1 X87.399 Y111.396 E9.55575
G1 X87.283 Y110.96 E9.57826
G1 X87.217 Y110.543 E9.59932
G1 X87.196 Y110.085 E9.62219
G1 X87.217 Y109.652 E9.64382
G1 X87.286 Y109.227 E9.6653
G1 X87.399 Y108.804 E9.68715
G1 X87.557 Y108.394 E9.70907
G1 X87.768 Y107.988 E9.73189
G1 X87.927 Y107.854 E9.74227
G1 X94.865 Y107.854 E10.08841
G1 X95.025 Y107.989 E10.09885
G1 X95.236 Y108.402 E10.12199
G1 X95.393 Y108.804 E10.14352
G1 X95.506 Y109.226 E10.16532
G1 X95.575 Y109.653 E10.18689
G1 X95.597 Y110.098 E10.20912
G1 X95.575 Y110.544 E10.2314
G1 X95.506 Y110.974 E10.25313
G1 X95.39 Y111.407 E10.27549
G1 X95.225 Y111.823 E10.29782
G1 X95.04 Y112.194 E10.3185
G1 X94.798 Y112.567 E10.34069
G1 X94.505 Y112.925 E10.36377
G1 X94.21 Y113.219 E10.38454
G1 X93.855 Y113.505 E10.40729
G1 X93.494 Y113.737 E10.4287
G1 X93.103 Y113.939 E10.45065
G1 X92.691 Y114.097 E10.47267
G1 X92.256 Y114.213 E10.49513
G1 X92.097 Y114.238 E10.50316
M204 S2000
G0 F7500 X92.255 Y115.234
G0 X93.493 Y114.807
G0 X94.425 Y114.27
G0 X95.226 Y113.547
G0 X95.858 Y112.678
G0 X96.296 Y111.693
G0 X96.52 Y110.639
G0 X96.52 Y109.564
G0 X96.296 Y108.51
G0 X96.103 Y108.006
G0 X95.536 Y106.908
G0 X94.956 Y106.543
M204 S500
;TYPE:FILL
G1 F1500 X95.548 Y105.951 E10.54493
M204 S2000
G0 F7500 X87.838 Y106.542
M204 S500
G1 F1500 X87.245 Y105.949 E10.58677
M204 S2000
G0 F7500 X87.381 Y106.086
G1 F2400 E9.78677
;MESH:solid_wheel_spacer.stl
G0 F7500 X95.169 Y107.508
G0 X97.947 Y112.162
G0 X99.197 Y112.497
G0 X102.216 Y112.454
G0 X103.466 Y112.119
G0 X110 Y115.399
M204 S500
;TYPE:WALL-INNER
G1 F2400 E10.58677
G1 F1505 X109.365 Y115.359 E10.6184
G1 X108.882 Y115.284 E10.64271
G1 X108.321 Y115.131 E10.67162
G1 F1502.5 X107.804 Y114.932 E10.69921
G1 F1500 X107.306 Y114.677 E10.72713
G1 F1502.5 X106.82 Y114.361 E10.756
G1 X106.379 Y114.006 E10.7842
G1 F1500 X105.99 Y113.617 E10.81164
G1 X105.67 Y113.223 E10.83697
G1 F1505 X105.319 Y112.695 E10.86849
G1 X105.065 Y112.191 E10.89656
G1 F1500 X104.865 Y111.671 E10.92435
G1 F1505 X104.713 Y111.117 E10.95292
G1 X104.629 Y110.571 E10.98039
G1 X104.602 Y110.073 E11.00518
G1 X104.629 Y109.425 E11.03743
G1 F1502.5 X104.715 Y108.883 E11.06477
G1 F1500 X104.865 Y108.325 E11.09359
G1 X105.063 Y107.809 E11.12117
G1 F1502.5 X105.32 Y107.304 E11.14939
G1 X105.635 Y106.82 E11.17815
G1 F1505 X105.988 Y106.381 E11.20616
G1 X106.381 Y105.988 E11.2338
G1 X106.82 Y105.635 E11.26181
G1 F1502.5 X107.306 Y105.319 E11.29068
G1 F1500 X107.802 Y105.065 E11.31848
G1 F1502.5 X108.324 Y104.864 E11.34634
G1 F1505 X108.883 Y104.715 E11.37511
G1 F1502.5 X109.429 Y104.629 E11.40264
G1 F1505 X110 Y104.6 E11.43107
G1 X110.571 Y104.628 E11.4595
G1 X111.117 Y104.715 E11.48699
G1 X111.674 Y104.864 E11.51566
G1 F1502.5 X112.194 Y105.065 E11.54342
G1 F1505 X112.768 Y105.363 E11.57558
G1 X113.04 Y105.566 E11.59246
G1 F1500 X113.329 Y106.035 E11.61994
G1 X113.448 Y106.479 E11.64288
G1 X113.448 Y113.519 E11.9941
G1 X113.331 Y113.958 E12.01677
G1 F1461 X113.096 Y114.366 E12.04089
G1 X112.732 Y114.659 E12.06482
G1 F1502.5 X112.192 Y114.932 E12.09496
G1 F1500 X111.675 Y115.13 E12.12258
G1 F1505 X111.114 Y115.284 E12.1515
G1 X110.5 Y115.373 E12.18235
G1 X110 Y115.399 E12.20725
M204 S2000
G0 F7500 X110 Y114.8
M204 S500
G1 F1500 X109.535 Y114.775 E12.23048
G1 X108.948 Y114.684 E12.26012
G1 X108.511 Y114.562 E12.28275
G1 X108.047 Y114.383 E12.30757
G1 X107.601 Y114.156 E12.33253
G1 X107.176 Y113.88 E12.35781
G1 X106.782 Y113.562 E12.38308
G1 X106.398 Y113.172 E12.41038
G1 X106.116 Y112.82 E12.43288
G1 X105.84 Y112.4 E12.45796
G1 X105.613 Y111.949 E12.48315
G1 X105.434 Y111.481 E12.50814
G1 X105.299 Y110.994 E12.53336
G1 X105.225 Y110.508 E12.55788
G1 X105.2 Y110.004 E12.58306
G1 X105.225 Y109.488 E12.60883
G1 X105.314 Y108.955 E12.63579
G1 X105.434 Y108.515 E12.65855
G1 X105.634 Y108.002 E12.68602
G1 X105.841 Y107.599 E12.70862
G1 X106.116 Y107.176 E12.73379
G1 X106.432 Y106.783 E12.75895
G1 X106.783 Y106.432 E12.78371
G1 X107.176 Y106.116 E12.80887
G1 X107.634 Y105.822 E12.83602
G1 X108.046 Y105.613 E12.85907
G1 X108.512 Y105.433 E12.884
G1 X109.005 Y105.302 E12.90945
G1 X109.492 Y105.225 E12.93404
G1 X110 Y105.199 E12.95942
G1 X110.508 Y105.224 E12.9848
G1 X110.995 Y105.302 E13.0094
G1 X111.485 Y105.433 E13.03471
G1 X111.95 Y105.613 E13.05958
G1 X112.441 Y105.865 E13.08712
G1 X112.629 Y106.031 E13.09963
G1 X112.777 Y106.269 E13.11361
G1 X112.842 Y106.511 E13.12611
G1 X112.848 Y113.464 E13.473
G1 X112.778 Y113.726 E13.48653
G1 X112.63 Y113.964 E13.50051
G1 X112.439 Y114.132 E13.5132
G1 X111.949 Y114.383 E13.54067
G1 X111.442 Y114.575 E13.56772
G1 X110.994 Y114.698 E13.5909
G1 X110.465 Y114.775 E13.61757
G1 X110 Y114.8 E13.6408
M204 S2000
G0 F7500 X109.978 Y115.21
G0 X110 Y115.999
M204 S500
G1 F1502.5 X110.628 Y115.963 E13.67213
G1 F1505 X111.236 Y115.868 E13.70273
G1 X111.861 Y115.699 E13.73492
G1 F1500 X112.435 Y115.48 E13.76557
G1 F1502.5 X112.987 Y115.197 E13.79647
G1 F1461 X113.522 Y114.83 E13.8297
G1 X114.021 Y114.449 E13.86186
G1 F1500 X114.449 Y114.02 E13.89209
G1 X114.844 Y113.529 E13.92353
G1 X115.197 Y112.988 E13.95576
G1 X115.482 Y112.434 E13.98684
G1 X115.698 Y111.862 E14.01734
G1 X115.866 Y111.239 E14.04953
G1 X115.961 Y110.629 E14.08033
G1 X115.997 Y109.993 E14.11211
G1 X115.962 Y109.368 E14.14334
G1 X115.866 Y108.76 E14.17405
G1 X115.698 Y108.134 E14.20639
G1 X115.484 Y107.567 E14.23663
G1 X115.196 Y107.01 E14.26791
G1 X114.844 Y106.467 E14.30019
G1 X114.449 Y105.979 E14.33152
G1 X114.018 Y105.545 E14.36203
