;FLAVOR:Marlin
;TIME:3014
;Filament used: 5.22833m
;Layer height: 0.32
;MINX:90.3
;MINY:93.948
;MINZ:0.32
;MAXX:129.7
;MAXY:126.048
;MAXZ:29.76
;TARGET_MACHINE.NAME:Creality Ender-3 S1
;Generated with Cura_SteamEngine 5.9.0
M82 ;absolute extrusion mode
; Ender 3 S1 Start G-code
; M413 S0 ; Disable power loss recovery
M201 X500.00 Y500.00 Z100.00 E5000.00 ;Setup machine max acceleration
M203 X500.00 Y500.00 Z20.00 E50.00 ;Setup machine max feedrate
M204 P500.00 R1000.00 T500.00 ;Setup Print/Retract/Travel acceleration
M205 X8.00 Y8.00 Z0.40 E5.00 ;Setup Jerk
M220 S100 ;Reset Feedrate
M221 S100 ;Reset Flowrate
G92 E0 ; Reset Extruder

; Prep surfaces before auto home for better accuracy
M140 S60
M104 S200
G92 E0 ; Reset Extruder
G28 ; Home all axes
M420 S1 Z10; Use Level Mesh up to 2mm;
G1 Z10.0 F3000 ; Move Z Axis up little to prevent scratching of Heat Bed
G1 X0 Y0

M190 S60
M109 S200

G1 X0.1 Y20 Z0.3 F5000.0 ; Move to start position
G1 X0.1 Y200.0 Z0.3 F1500.0 E15 ; Draw the first line
G1 X0.4 Y200.0 Z0.3 F5000.0 ; Move to side a little
G1 X0.4 Y20 Z0.3 F1500.0 E30 ; Draw the second line
G92 E0 ; Reset Extruder
G1 Z2.0 F3000 ; Move Z Axis up little to prevent scratching of Heat Bed
G1 X5 Y20 Z0.3 F5000.0 ; Move over to prevent blob squish
G92 E0
G92 E0
G1 F2400 E-0.8
;LAYER_COUNT:93
;LAYER:0
M107
M204 S2000
;MESH:switch_holder.stl
G0 F7500 X110 Y118 Z0.32
M204 S500
;TYPE:WALL-INNER
G1 F2400 E0
G1 F1500 X109.159 Y117.959 E0.06721
G1 X108.267 Y117.807 E0.13944
G1 X107.525 Y117.614 E0.20064
G1 X106.674 Y117.273 E0.27382
G1 X105.995 Y116.927 E0.33466
G1 X105.302 Y116.476 E0.40066
G1 X104.644 Y115.946 E0.4681
G1 X104.05 Y115.352 E0.53516
G1 X103.568 Y114.754 E0.59647
G1 X103.074 Y114.016 E0.66736
G1 X102.721 Y113.318 E0.72979
G1 X102.384 Y112.47 E0.80263
G1 X102.162 Y111.612 E0.87338
G1 X102.037 Y110.76 E0.94212
G1 X102 Y110 E1.00286
G1 X102.037 Y109.233 E1.06415
G1 X102.169 Y108.341 E1.13613
G1 X102.384 Y107.526 E1.20341
G1 X102.723 Y106.674 E1.27661
G1 X103.069 Y105.995 E1.33744
G1 X103.49 Y105.348 E1.39906
G1 X104.046 Y104.648 E1.47042
G1 X104.644 Y104.05 E1.53793
G1 X105.302 Y103.519 E1.60542
G1 X105.995 Y103.069 E1.67138
G1 X106.744 Y102.688 E1.73846
G1 X107.528 Y102.387 E1.80549
G1 X108.389 Y102.162 E1.87653
G1 X109.155 Y102.042 E1.93842
G1 X110 Y102 E2.00596
G1 X110.838 Y102.042 E2.07293
G1 X111.664 Y102.17 E2.13965
G1 X112.469 Y102.387 E2.20621
G1 X113.251 Y102.687 E2.27306
G1 X114.002 Y103.068 E2.34029
G1 X114.634 Y103.48 E2.40051
G1 X115.348 Y104.046 E2.47324
G1 X115.948 Y104.646 E2.54097
G1 X116.51 Y105.348 E2.61275
G1 X116.928 Y105.997 E2.67437
G1 X117.307 Y106.741 E2.74103
G1 X117.617 Y107.541 E2.80951
G1 X117.837 Y108.407 E2.88084
G1 X117.958 Y109.15 E2.94093
G1 X118 Y110 E3.00886
G1 X117.958 Y110.847 E3.07655
G1 X117.834 Y111.612 E3.13842
G1 X117.613 Y112.467 E3.20891
G1 X117.275 Y113.318 E3.282
G1 X116.929 Y114 E3.34305
G1 X116.51 Y114.648 E3.40465
G1 X115.948 Y115.35 E3.47643
G1 X115.353 Y115.945 E3.5436
G1 X114.702 Y116.474 E3.61056
G1 X114.004 Y116.928 E3.67702
G1 X113.318 Y117.275 E3.73839
G1 X112.472 Y117.613 E3.81111
G1 X111.611 Y117.834 E3.88207
G1 X110.835 Y117.958 E3.9448
G1 X110 Y118 E4.01153
M204 S2000
G0 F7500 X110 Y117.4
M204 S500
G1 F1500 X109.172 Y117.353 E4.07773
G1 X108.419 Y117.227 E4.13868
G1 X107.664 Y117.023 E4.20111
G1 X107.029 Y116.775 E4.25552
G1 X106.253 Y116.379 E4.32507
G1 X105.693 Y116.015 E4.37838
G1 X105.011 Y115.465 E4.44832
G1 X104.467 Y114.913 E4.51018
G1 X103.988 Y114.314 E4.57141
G1 X103.618 Y113.749 E4.62532
G1 X103.22 Y112.966 E4.69543
G1 X102.972 Y112.326 E4.75022
G1 X102.75 Y111.49 E4.81927
G1 X102.646 Y110.818 E4.87355
G1 X102.6 Y110 E4.93895
G1 X102.646 Y109.172 E5.00514
G1 X102.769 Y108.418 E5.06613
G1 X102.972 Y107.67 E5.12799
G1 X103.22 Y107.03 E5.18278
G1 X103.617 Y106.253 E5.25243
G1 X103.988 Y105.682 E5.30679
G1 X104.531 Y105.011 E5.37569
G1 X105.083 Y104.467 E5.43756
G1 X105.693 Y103.981 E5.49981
G1 X106.335 Y103.57 E5.56066
G1 X107.033 Y103.219 E5.62303
G1 X107.758 Y102.946 E5.68487
G1 X108.509 Y102.75 E5.74682
G1 X109.177 Y102.646 E5.80079
G1 X110 Y102.6 E5.86659
G1 X110.818 Y102.646 E5.93199
G1 X111.49 Y102.75 E5.98627
G1 X112.327 Y102.975 E6.05545
G1 X112.963 Y103.219 E6.10983
G1 X113.663 Y103.569 E6.1723
G1 X114.306 Y103.982 E6.2333
G1 X114.985 Y104.531 E6.303
G1 X115.527 Y105.08 E6.36459
G1 X116.012 Y105.682 E6.4263
G1 X116.382 Y106.257 E6.48088
G1 X116.776 Y107.03 E6.55013
G1 X117.055 Y107.766 E6.61296
G1 X117.245 Y108.503 E6.67372
G1 X117.363 Y109.264 E6.73519
G1 X117.4 Y110 E6.79402
G1 X117.353 Y110.823 E6.85982
G1 X117.243 Y111.508 E6.9152
G1 X117.024 Y112.326 E6.98279
G1 X116.776 Y112.966 E7.03758
G1 X116.38 Y113.746 E7.10741
G1 X116.012 Y114.314 E7.16144
G1 X115.465 Y114.985 E7.23054
G1 X114.916 Y115.527 E7.29212
G1 X114.307 Y116.015 E7.35442
G1 X113.663 Y116.427 E7.41544
G1 X112.967 Y116.775 E7.47756
G1 X112.234 Y117.055 E7.54019
G1 X111.582 Y117.227 E7.59402
G1 X110.823 Y117.353 E7.65544
G1 X110 Y117.4 E7.72124
M204 S2000
G1 F2400 E6.92124
G0 F7500 X109.978 Y117.81
G0 X110 Y118.28
G0 X109.998 Y124.567
G0 X110 Y124.848
M204 S500
G1 F2400 E7.72124
G1 F1500 X128.5 Y124.848 E9.19799
G1 X128.5 Y95.148 E11.56877
G1 X91.501 Y95.149 E14.52219
G1 X91.501 Y124.847 E16.89281
G1 X110 Y124.848 E18.36948
M204 S2000
G0 F7500 X110 Y125.447
M204 S500
G1 F1500 X129.1 Y125.448 E19.89413
G1 X129.1 Y94.548 E22.3607
G1 X90.901 Y94.549 E25.40991
G1 X90.901 Y125.447 E27.87632
G1 X110 Y125.447 E29.40089
M204 S2000
G0 F7500 X110 Y126.048
M204 S500
;TYPE:WALL-OUTER
G1 F1500 X129.7 Y126.048 E30.97343
G1 X129.7 Y93.948 E33.53579
G1 X90.301 Y93.949 E36.68078
G1 X90.301 Y126.047 E39.24299
G1 X110 Y126.048 E40.81544
M204 S2000
G1 F2400 E40.01544
G0 F7500 X110 Y125.04
G0 X109.944 Y124.567
G0 X110 Y118.28
G0 X109.946 Y117.808
G0 X110 Y116.799
M204 S500
G1 F2400 E40.81544
G1 F1500 X109.984 Y116.8 E40.81672
G1 X109.268 Y116.761 E40.87396
G1 X108.571 Y116.647 E40.93034
G1 X107.915 Y116.475 E40.98448
G1 X107.219 Y116.204 E41.0441
G1 X106.58 Y115.876 E41.10143
G1 X105.995 Y115.494 E41.1572
G1 X105.435 Y115.041 E41.2147
G1 X104.955 Y114.561 E41.26888
G1 X104.486 Y113.98 E41.32849
G1 X104.12 Y113.421 E41.38182
G1 X103.78 Y112.749 E41.44194
G1 X103.532 Y112.109 E41.49673
G1 X103.343 Y111.398 E41.55546
G1 X103.236 Y110.696 E41.61214
G1 X103.2 Y109.984 E41.66905
G1 X103.239 Y109.265 E41.72652
G1 X103.349 Y108.571 E41.78261
G1 X103.521 Y107.919 E41.83644
G1 X103.792 Y107.219 E41.89636
G1 X104.12 Y106.58 E41.95369
G1 X104.486 Y106.016 E42.00736
G1 X104.955 Y105.435 E42.06697
G1 X105.435 Y104.955 E42.12115
G1 X106.02 Y104.484 E42.1811
G1 X106.607 Y104.104 E42.23692
G1 X107.248 Y103.779 E42.29429
G1 X107.884 Y103.535 E42.34867
G1 X108.601 Y103.343 E42.40792
G1 X109.3 Y103.236 E42.46436
G1 X110.016 Y103.2 E42.52159
G1 X110.726 Y103.239 E42.57835
G1 X111.431 Y103.35 E42.63532
G1 X112.112 Y103.535 E42.69165
G1 X112.748 Y103.779 E42.74603
G1 X113.392 Y104.104 E42.80361
G1 X114.001 Y104.502 E42.86168
G1 X114.561 Y104.955 E42.91918
G1 X115.041 Y105.435 E42.97337
G1 X115.517 Y106.021 E43.03363
G1 X115.892 Y106.607 E43.08917
G1 X116.216 Y107.247 E43.14643
G1 X116.475 Y107.919 E43.20392
G1 X116.653 Y108.599 E43.26003
G1 X116.761 Y109.263 E43.31372
G1 X116.8 Y110 E43.37264
G1 X116.761 Y110.728 E43.43083
G1 X116.652 Y111.404 E43.48549
G1 X116.464 Y112.109 E43.54373
G1 X116.204 Y112.776 E43.60088
G1 X115.876 Y113.42 E43.65857
G1 X115.514 Y113.98 E43.7118
G1 X115.041 Y114.561 E43.7716
G1 X114.561 Y115.041 E43.82579
G1 X113.98 Y115.512 E43.88549
G1 X113.392 Y115.892 E43.94138
G1 X112.749 Y116.216 E43.99885
G1 X112.081 Y116.475 E44.05604
G1 X111.4 Y116.653 E44.11223
G1 X110.728 Y116.761 E44.16656
G1 X110 Y116.799 E44.22475
M204 S2000
G1 F2400 E43.42475
G0 F7500 X109.946 Y117.808
G0 X110 Y118.28
G0 X109.998 Y124.567
G0 X110 Y124.306
M204 S500
;TYPE:SKIN
G1 F2400 E44.22475
G1 F1500 X92.041 Y124.304 E45.65831
G1 X92.04 Y95.688 E47.94257
G1 X127.96 Y95.688 E50.80986
G1 X127.96 Y124.307 E53.09435
G1 X110 Y124.306 E54.52799
M204 S2000
G1 F2400 E53.72799
G0 F7500 X109.999 Y124.647
G0 X110 Y118.28
G0 X110 Y118.539
M204 S500
G1 F2400 E54.52799
G1 F1500 X110.908 Y118.493 E54.60057
G1 X111.752 Y118.357 E54.66881
G1 X112.615 Y118.135 E54.73994
G1 X113.45 Y117.812 E54.81141
G1 X114.269 Y117.396 E54.88473
G1 X114.992 Y116.928 E54.95348
G1 X115.733 Y116.329 E55.02954
G1 X116.329 Y115.733 E55.09682
G1 X116.91 Y115.017 E55.17043
G1 X117.405 Y114.255 E55.24296
G1 X117.793 Y113.483 E55.31193
G1 X118.124 Y112.642 E55.38407
G1 X118.368 Y111.692 E55.46237
G1 X118.493 Y110.908 E55.52574
G1 X118.54 Y109.996 E55.59864
G1 X118.493 Y109.068 E55.67281
G1 X118.357 Y108.228 E55.74073
G1 X118.134 Y107.39 E55.80996
G1 X117.804 Y106.531 E55.88341
G1 X117.4 Y105.735 E55.95467
G1 X116.925 Y104.993 E56.02499
G1 X116.349 Y104.282 E56.09803
G1 X115.72 Y103.655 E56.16893
G1 X115.009 Y103.078 E56.24202
G1 X114.293 Y102.608 E56.31039
G1 X113.48 Y102.196 E56.38314
G1 X112.652 Y101.876 E56.454
G1 X111.755 Y101.635 E56.52814
G1 X110.907 Y101.503 E56.59665
G1 X110.014 Y101.46 E56.66802
G1 X109.118 Y101.5 E56.73961
G1 X108.234 Y101.635 E56.81099
G1 X107.377 Y101.866 E56.88184
G1 X106.536 Y102.187 E56.9537
G1 X105.724 Y102.596 E57.02628
G1 X105.008 Y103.06 E57.09438
G1 X104.271 Y103.655 E57.16999
G1 X103.655 Y104.271 E57.23953
G1 X103.035 Y105.052 E57.31913
G1 X102.612 Y105.7 E57.3809
G1 X102.2 Y106.503 E57.45295
G1 X101.857 Y107.391 E57.52893
G1 X101.641 Y108.215 E57.59693
G1 X101.503 Y109.072 E57.66622
G1 X101.46 Y109.986 E57.73926
G1 X101.5 Y110.871 E57.80998
G1 X101.623 Y111.686 E57.87577
G1 X101.861 Y112.608 E57.95178
G1 X102.188 Y113.457 E58.02441
G1 X102.596 Y114.268 E58.09687
G1 X103.033 Y114.937 E58.16066
G1 X103.655 Y115.721 E58.24055
G1 X104.271 Y116.337 E58.31009
G1 X104.983 Y116.914 E58.38324
G1 X105.696 Y117.38 E58.45123
G1 X106.504 Y117.792 E58.52363
G1 X107.388 Y118.135 E58.59932
G1 X108.216 Y118.351 E58.66763
G1 X109.084 Y118.493 E58.73784
G1 X109.984 Y118.54 E58.80978
G1 X110 Y118.539 E58.81106
M204 S2000
G1 F2400 E58.01106
G0 F7500 X110.001 Y118.2
G0 X107.446 Y117.882
G0 X107.444 Y124.567
G0 X92.607 Y124.647
G0 X92.608 Y124.004
M204 S500
G1 F2400 E58.81106
G1 F1500 X92.34 Y123.736 E58.84131
M204 S2000
G0 F7500 X92.34 Y122.887
M204 S500
G1 F1500 X93.457 Y124.004 E58.96741
M204 S2000
G0 F7500 X94.305 Y124.004
M204 S500
G1 F1500 X92.34 Y122.039 E59.18923
M204 S2000
G0 F7500 X92.34 Y121.19
M204 S500
G1 F1500 X95.154 Y124.004 E59.5069
M204 S2000
G0 F7500 X96.002 Y124.004
M204 S500
G1 F1500 X92.34 Y120.342 E59.9203
M204 S2000
G0 F7500 X92.34 Y119.493
M204 S500
G1 F1500 X96.851 Y124.004 E60.42954
M204 S2000
G0 F7500 X97.7 Y124.004
M204 S500
G1 F1500 X92.34 Y118.645 E61.03457
M204 S2000
G0 F7500 X92.34 Y117.796
M204 S500
G1 F1500 X98.548 Y124.004 E61.73538
M204 S2000
G0 F7500 X99.397 Y124.004
M204 S500
G1 F1500 X92.34 Y116.948 E62.53198
M204 S2000
G0 F7500 X92.34 Y116.099
M204 S500
G1 F1500 X100.245 Y124.004 E63.42436
M204 S2000
G0 F7500 X101.094 Y124.004
M204 S500
G1 F1500 X92.34 Y115.251 E64.41253
M204 S2000
G0 F7500 X92.34 Y114.402
M204 S500
G1 F1500 X101.943 Y124.005 E65.4966
M204 S2000
G0 F7500 X102.791 Y124.005
M204 S500
G1 F1500 X92.34 Y113.554 E66.6764
M204 S2000
G0 F7500 X92.34 Y112.705
M204 S500
G1 F1500 X103.64 Y124.005 E67.95205
M204 S2000
G0 F7500 X104.488 Y124.005
M204 S500
G1 F1500 X92.34 Y111.857 E69.32342
M204 S2000
G0 F7500 X92.34 Y111.008
M204 S500
G1 F1500 X105.337 Y124.005 E70.79063
M204 S2000
G0 F7500 X106.186 Y124.005
M204 S500
G1 F1500 X92.34 Y110.159 E72.35369
M204 S2000
G0 F7500 X92.34 Y109.31
M204 S500
G1 F1500 X107.034 Y124.005 E74.01253
M204 S2000
G0 F7500 X107.883 Y124.005
M204 S500
G1 F1500 X92.34 Y108.462 E75.76716
M204 S2000
G0 F7500 X92.34 Y107.613
M204 S500
G1 F1500 X108.731 Y124.005 E77.61757
M204 S2000
G0 F7500 X109.58 Y124.005
M204 S500
G1 F1500 X92.34 Y106.765 E79.56377
M204 S2000
G0 F7500 X92.34 Y105.916
M204 S500
G1 F1500 X110.429 Y124.005 E81.60581
M204 S2000
G0 F7500 X111.277 Y124.005
M204 S500
G1 F1500 X92.34 Y105.068 E83.74359
M204 S2000
G0 F7500 X92.34 Y104.219
M204 S500
G1 F1500 X102.132 Y114.011 E84.84899
M204 S2000
G0 F7500 X102.702 Y113.723
G0 X102.162 Y112.416
G0 X101.543 Y112.574
M204 S500
G1 F1500 X92.34 Y103.371 E85.88791
M204 S2000
G0 F7500 X92.34 Y102.522
M204 S500
G1 F1500 X101.287 Y111.469 E86.89792
M204 S2000
G0 F7500 X101.186 Y110.52
M204 S500
G1 F1500 X92.34 Y101.673 E87.89659
M204 S2000
G0 F7500 X92.34 Y100.825
M204 S500
G1 F1500 X101.176 Y109.661 E88.89407
M204 S2000
G0 F7500 X101.232 Y108.869
M204 S500
G1 F1500 X92.34 Y99.976 E89.89794
M204 S2000
G0 F7500 X92.34 Y99.128
M204 S500
G1 F1500 X101.351 Y108.139 E90.91518
M204 S2000
G0 F7500 X101.53 Y107.47
M204 S500
G1 F1500 X92.34 Y98.279 E91.95268
M204 S2000
G0 F7500 X92.34 Y97.431
M204 S500
G1 F1500 X101.748 Y106.84 E93.01479
M204 S2000
G0 F7500 X101.998 Y106.241
M204 S500
G1 F1500 X92.34 Y96.582 E94.10513
M204 S2000
G0 F7500 X92.594 Y95.988
M204 S500
G1 F1500 X102.287 Y105.681 E95.19936
M204 S2000
G0 F7500 X102.61 Y105.156
M204 S500
G1 F1500 X93.443 Y95.988 E96.23426
M204 S2000
G0 F7500 X94.291 Y95.988
M204 S500
G1 F1500 X102.964 Y104.661 E97.21335
M204 S2000
G0 F7500 X103.338 Y104.187
M204 S500
G1 F1500 X95.14 Y95.988 E98.13886
M204 S2000
G0 F7500 X95.988 Y95.988
M204 S500
G1 F1500 X103.752 Y103.752 E99.01533
M204 S2000
G0 F7500 X104.187 Y103.338
M204 S500
G1 F1500 X96.837 Y95.988 E99.84506
M204 S2000
G0 F7500 X97.685 Y95.988
M204 S500
G1 F1500 X104.655 Y102.958 E100.6319
M204 S2000
G0 F7500 X105.155 Y102.61
M204 S500
G1 F1500 X98.534 Y95.988 E101.37939
M204 S2000
G0 F7500 X99.382 Y95.988
M204 S500
G1 F1500 X105.678 Y102.284 E102.09013
M204 S2000
G0 F7500 X106.242 Y101.999
M204 S500
G1 F1500 X100.231 Y95.988 E102.76871
M204 S2000
G0 F7500 X101.08 Y95.988
M204 S500
G1 F1500 X106.84 Y101.748 E103.41895
M204 S2000
G0 F7500 X107.471 Y101.531
M204 S500
G1 F1500 X101.928 Y95.988 E104.04469
M204 S2000
G0 F7500 X102.777 Y95.988
M204 S500
G1 F1500 X108.138 Y101.35 E104.64994
M204 S2000
G0 F7500 X108.871 Y101.234
M204 S500
G1 F1500 X103.625 Y95.988 E105.24215
M204 S2000
G0 F7500 X104.474 Y95.988
M204 S500
G1 F1500 X109.66 Y101.175 E105.82765
M204 S2000
G0 F7500 X110.516 Y101.182
M204 S500
G1 F1500 X105.322 Y95.988 E106.414
M204 S2000
G0 F7500 X106.171 Y95.988
M204 S500
G1 F1500 X111.473 Y101.291 E107.01259
M204 S2000
G0 F7500 X111.375 Y101.922
G0 X112.403 Y102.162
G0 X112.572 Y101.541
M204 S500
G1 F1500 X107.019 Y95.988 E107.63946
M204 S2000
G0 F7500 X107.868 Y95.988
M204 S500
G1 F1500 X114.007 Y102.127 E108.33248
M204 S2000
G0 F7500 X113.717 Y102.699
G0 X117.291 Y106.269
G0 X117.86 Y105.98
M204 S500
G1 F1500 X127.66 Y115.78 E109.43879
M204 S2000
G0 F7500 X127.66 Y114.932
M204 S500
G1 F1500 X108.716 Y95.988 E111.57735
M204 S2000
G0 F7500 X109.565 Y95.988
M204 S500
G1 F1500 X127.66 Y114.083 E113.62007
M204 S2000
G0 F7500 X127.66 Y113.235
M204 S500
G1 F1500 X110.413 Y95.988 E115.56706
M204 S2000
G0 F7500 X111.262 Y95.988
M204 S500
G1 F1500 X127.66 Y112.386 E117.41821
M204 S2000
G0 F7500 X127.66 Y111.538
M204 S500
G1 F1500 X112.11 Y95.988 E119.17363
M204 S2000
G0 F7500 X112.959 Y95.988
M204 S500
G1 F1500 X127.66 Y110.689 E120.83321
M204 S2000
G0 F7500 X127.66 Y109.841
M204 S500
G1 F1500 X113.807 Y95.988 E122.39705
M204 S2000
G0 F7500 X114.656 Y95.988
M204 S500
G1 F1500 X127.66 Y108.992 E123.86506
M204 S2000
G0 F7500 X127.66 Y108.143
M204 S500
G1 F1500 X115.504 Y95.988 E125.23727
M204 S2000
G0 F7500 X116.353 Y95.988
M204 S500
G1 F1500 X127.66 Y107.295 E126.51371
M204 S2000
G0 F7500 X127.66 Y106.446
M204 S500
G1 F1500 X117.202 Y95.988 E127.69429
M204 S2000
G0 F7500 X118.05 Y95.988
M204 S500
G1 F1500 X127.66 Y105.598 E128.77915
M204 S2000
G0 F7500 X127.66 Y104.749
M204 S500
G1 F1500 X118.899 Y95.988 E129.76817
M204 S2000
G0 F7500 X119.747 Y95.988
M204 S500
G1 F1500 X127.66 Y103.901 E130.66146
M204 S2000
G0 F7500 X127.66 Y103.052
M204 S500
G1 F1500 X120.596 Y95.988 E131.45891
M204 S2000
G0 F7500 X121.444 Y95.988
M204 S500
G1 F1500 X127.66 Y102.204 E132.16062
M204 S2000
G0 F7500 X127.66 Y101.355
M204 S500
