;FLAVOR:Marlin
;TIME:1208
;Filament used: 1.74868m
;Layer height: 0.2
;MINX:75.301
;MINY:75.301
;MINZ:0.2
;MAXX:144.699
;MAXY:144.699
;MAXZ:7
;TARGET_MACHINE.NAME:Creality Ender-3 S1
;Generated with Cura_SteamEngine 5.9.0
M82 ;absolute extrusion mode
; Ender 3 S1 Start G-code
; M413 S0 ; Disable power loss recovery
M201 X500.00 Y500.00 Z100.00 E5000.00 ;Setup machine max acceleration
M203 X500.00 Y500.00 Z20.00 E50.00 ;Setup machine max feedrate
M204 P500.00 R1000.00 T500.00 ;Setup Print/Retract/Travel acceleration
M205 X8.00 Y8.00 Z0.40 E5.00 ;Setup Jerk
M220 S100 ;Reset Feedrate
M221 S100 ;Reset Flowrate
G92 E0 ; Reset Extruder

; Prep surfaces before auto home for better accuracy
M140 S0
M104 S228
G92 E0 ; Reset Extruder
G28 ; Home all axes
M420 S1 Z10; Use Level Mesh up to 2mm;
G1 Z10.0 F3000 ; Move Z Axis up little to prevent scratching of Heat Bed
G1 X0 Y0

M190 S0
M109 S228

G1 X0.1 Y20 Z0.3 F5000.0 ; Move to start position
G1 X0.1 Y200.0 Z0.3 F1500.0 E15 ; Draw the first line
G1 X0.4 Y200.0 Z0.3 F5000.0 ; Move to side a little
G1 X0.4 Y20 Z0.3 F1500.0 E30 ; Draw the second line
G92 E0 ; Reset Extruder
G1 Z2.0 F3000 ; Move Z Axis up little to prevent scratching of Heat Bed
G1 X5 Y20 Z0.3 F5000.0 ; Move over to prevent blob squish
G92 E0
G92 E0
G1 F2400 E-0.8
;LAYER_COUNT:35
;LAYER:0
M107
M204 S2000
;MESH:tire_7mm_65mm_rim.stl
G0 F7500 X110 Y142.785 Z0.2
M204 S500
;TYPE:WALL-INNER
G1 F2400 E0
G1 F1335.3 X106.567 Y142.604 E0.19266
G1 F1337.3 X103.185 Y142.072 E0.38425
G1 F1335.3 X99.861 Y141.18 E0.57713
G1 X96.664 Y139.953 E0.76904
G1 F1337.3 X93.609 Y138.396 E0.96092
G1 F1339.3 X90.722 Y136.52 E1.15331
G1 F1337.3 X88.058 Y134.364 E1.34509
G1 X85.632 Y131.938 E1.53708
G1 X83.476 Y129.274 E1.72886
G1 F1335.3 X81.603 Y126.387 E1.92173
G1 F1331.4 X80.045 Y123.329 E2.11464
G1 F1335.3 X78.818 Y120.135 E2.3064
G1 F1339.3 X77.927 Y116.81 E2.49874
G1 X77.391 Y113.437 E2.68958
G1 X77.212 Y110.007 E2.8815
G1 F1337.3 X77.392 Y106.563 E3.07449
G1 X77.927 Y103.186 E3.26583
G1 F1339.3 X78.818 Y99.861 E3.45817
G1 F1335.3 X80.045 Y96.667 E3.64993
G1 F1331.4 X81.603 Y93.609 E3.84284
G1 F1335.3 X83.476 Y90.722 E4.0357
G1 F1337.3 X85.632 Y88.058 E4.22749
G1 X88.058 Y85.632 E4.41948
G1 X90.722 Y83.476 E4.61126
G1 F1335.3 X93.609 Y81.603 E4.80413
G1 X96.663 Y80.047 E4.99622
G1 F1337.3 X99.86 Y78.817 E5.18791
G1 F1339.3 X103.186 Y77.927 E5.38029
G1 X106.559 Y77.391 E5.57113
G1 X110 Y77.211 E5.76367
G1 X113.429 Y77.391 E5.95553
G1 X116.81 Y77.927 E6.14681
G1 X120.136 Y78.818 E6.33921
G1 X123.333 Y80.047 E6.5306
G1 F1333.3 X126.387 Y81.603 E6.72297
G1 F1335.3 X129.274 Y83.476 E6.91584
G1 F1337.3 X131.938 Y85.632 E7.10762
G1 X134.364 Y88.058 E7.29961
G1 X136.52 Y90.722 E7.4914
G1 X138.396 Y93.608 E7.68402
G1 F1335.3 X139.954 Y96.667 E7.87641
G1 X141.182 Y99.862 E8.06824
G1 X142.072 Y103.185 E8.26104
G1 X142.604 Y106.563 E8.45268
G1 X142.786 Y109.993 E8.64518
G1 X142.604 Y113.429 E8.83802
G1 F1337.3 X142.072 Y116.811 E9.0296
G1 F1339.3 X141.183 Y120.134 E9.22181
G1 F1337.3 X139.954 Y123.329 E9.41337
G1 F1335.3 X138.396 Y126.388 E9.60577
G1 F1337.3 X136.52 Y129.274 E9.79839
G1 X134.364 Y131.938 E9.99017
G1 X131.938 Y134.364 E10.18217
G1 F1335.3 X129.274 Y136.52 E10.37423
G1 X126.387 Y138.396 E10.56719
G1 X123.331 Y139.953 E10.75941
G1 F1333.3 X120.135 Y141.179 E10.95153
G1 F1335.3 X116.811 Y142.072 E11.14442
G1 X113.429 Y142.604 E11.33629
G1 X110 Y142.785 E11.52873
M204 S2000
G0 F7500 X110 Y142.148
M204 S500
G1 F1500 X106.633 Y141.972 E11.69694
G1 X103.36 Y141.458 E11.86224
G1 X100.021 Y140.561 E12.03473
G1 X96.965 Y139.389 E12.19802
G1 X93.923 Y137.843 E12.36826
G1 X91.1 Y136.008 E12.53624
G1 X88.451 Y133.857 E12.70648
G1 X86.076 Y131.475 E12.8743
G1 X83.988 Y128.896 E13.03985
G1 X82.157 Y126.072 E13.20776
G1 X80.628 Y123.072 E13.37575
G1 X79.422 Y119.934 E13.54347
G1 X78.55 Y116.68 E13.71154
G1 X78.024 Y113.363 E13.87909
G1 X77.848 Y110.004 E14.0469
G1 X78.024 Y106.629 E14.21551
G1 X78.55 Y103.316 E14.38287
G1 X79.422 Y100.062 E14.55094
G1 X80.628 Y96.924 E14.71866
G1 X82.157 Y93.924 E14.88665
G1 X83.988 Y91.1 E15.05456
G1 X86.139 Y88.451 E15.2248
G1 X88.521 Y86.076 E15.39262
G1 X91.1 Y83.988 E15.55817
G1 X93.923 Y82.157 E15.72604
G1 X96.922 Y80.629 E15.89396
G1 X100.06 Y79.421 E16.06171
G1 X103.316 Y78.55 E16.22987
G1 X106.633 Y78.024 E16.39742
G1 X110 Y77.847 E16.56563
G1 X113.363 Y78.024 E16.73365
G1 X116.68 Y78.55 E16.9012
G1 X119.936 Y79.421 E17.06935
G1 X123.074 Y80.629 E17.23711
G1 X126.118 Y82.185 E17.40767
G1 X128.896 Y83.988 E17.57289
G1 X131.545 Y86.139 E17.74313
G1 X133.92 Y88.521 E17.91095
G1 X136.008 Y91.1 E18.0765
G1 X137.843 Y93.923 E18.24448
G1 X139.372 Y96.924 E18.41251
G1 X140.578 Y100.063 E18.58028
G1 X141.438 Y103.267 E18.74578
G1 X141.971 Y106.629 E18.91561
G1 X142.149 Y109.996 E19.08383
G1 X141.972 Y113.363 E19.25204
G1 X141.458 Y116.636 E19.41733
G1 X140.579 Y119.933 E19.58756
G1 X139.372 Y123.072 E19.75535
G1 X137.843 Y126.073 E19.92338
G1 X136.008 Y128.896 E20.09136
G1 X133.857 Y131.545 E20.2616
G1 X131.475 Y133.92 E20.42942
G1 X128.896 Y136.008 E20.59497
G1 X126.119 Y137.815 E20.76026
G1 X123.031 Y139.389 E20.93318
G1 X119.886 Y140.59 E21.10114
G1 X116.68 Y141.449 E21.26673
G1 X113.363 Y141.971 E21.43425
G1 X110 Y142.148 E21.60226
M204 S2000
G0 F7500 X109.978 Y142.56
G0 X110 Y143.461
M204 S500
G1 F1335.3 X113.499 Y143.274 E21.79864
G1 X116.948 Y142.73 E21.99432
G1 X120.344 Y141.82 E22.19136
G1 F1333.3 X123.605 Y140.57 E22.38737
G1 F1335.3 X126.721 Y138.98 E22.58342
G1 X129.672 Y137.062 E22.78067
G1 X132.394 Y134.859 E22.97692
G1 F1333.3 X134.859 Y132.394 E23.17258
G1 F1335.3 X137.063 Y129.672 E23.36887
G1 F1337.3 X138.98 Y126.722 E23.56574
G1 F1335.3 X140.57 Y123.602 E23.762
G1 F1337.3 X141.821 Y120.344 E23.95729
G1 F1339.3 X142.731 Y116.948 E24.15375
G1 F1337.3 X143.274 Y113.499 E24.34913
G1 F1335.3 X143.46 Y109.992 E24.54595
G1 X143.274 Y106.493 E24.74232
G1 X142.73 Y103.048 E24.93778
G1 X141.821 Y99.652 E25.13481
G1 X140.57 Y96.394 E25.33039
G1 X138.98 Y93.274 E25.52665
G1 F1337.3 X137.063 Y90.324 E25.72352
G1 F1335.3 X134.859 Y87.602 E25.91981
G1 F1333.3 X132.394 Y85.137 E26.11547
G1 F1335.3 X129.672 Y82.933 E26.31176
G1 X126.722 Y81.018 E26.50886
G1 F1333.3 X123.606 Y79.431 E26.70513
G1 F1339.3 X120.344 Y78.179 E26.90036
G1 X116.948 Y77.269 E27.09682
G1 X113.499 Y76.723 E27.29194
G1 X110 Y76.539 E27.48772
G1 X106.497 Y76.722 E27.68373
G1 F1337.3 X103.048 Y77.269 E27.87914
G1 F1339.3 X99.652 Y78.179 E28.0756
G1 F1337.3 X96.39 Y79.431 E28.27112
G1 F1335.3 X93.275 Y81.018 E28.46705
G1 X90.324 Y82.933 E28.6642
G1 X87.602 Y85.137 E28.86049
G1 F1333.3 X85.137 Y87.602 E29.05615
G1 F1335.3 X82.933 Y90.324 E29.25244
G1 X81.017 Y93.274 E29.44957
G1 F1331.4 X79.427 Y96.394 E29.64641
G1 F1335.3 X78.18 Y99.652 E29.84192
G1 F1339.3 X77.269 Y103.048 E30.03838
G1 F1337.3 X76.722 Y106.493 E30.23358
G1 X76.538 Y110.008 E30.43055
G1 X76.722 Y113.499 E30.62618
G1 X77.269 Y116.948 E30.8216
G1 F1339.3 X78.18 Y120.344 E31.01806
G1 F1335.3 X79.427 Y123.602 E31.21357
G1 F1331.4 X81.017 Y126.722 E31.41041
G1 F1335.3 X82.933 Y129.672 E31.60754
G1 X85.137 Y132.394 E31.80383
G1 F1333.3 X87.602 Y134.859 E31.99949
G1 F1335.3 X90.324 Y137.063 E32.19578
G1 F1339.3 X93.275 Y138.979 E32.39238
G1 F1337.3 X96.391 Y140.569 E32.58814
G1 F1335.3 X99.669 Y141.824 E32.78485
G1 X103.048 Y142.731 E32.98093
G1 F1337.3 X106.497 Y143.274 E33.17631
G1 F1335.3 X110 Y143.461 E33.37291
M204 S2000
G0 F7500 X110 Y144.099
M204 S500
G1 F1500 X113.565 Y143.908 E33.55102
G1 X117.081 Y143.354 E33.7286
G1 X120.541 Y142.427 E33.90731
G1 X123.865 Y141.152 E34.08492
G1 X127.041 Y139.532 E34.2628
G1 X130.046 Y137.578 E34.44163
G1 X132.821 Y135.333 E34.6197
G1 X135.333 Y132.821 E34.79694
G1 X137.578 Y130.046 E34.97502
G1 X139.531 Y127.041 E35.15382
G1 X141.152 Y123.861 E35.33189
G1 X142.426 Y120.541 E35.5093
G1 X143.354 Y117.081 E35.68803
G1 X143.907 Y113.565 E35.8656
G1 X144.098 Y109.992 E36.04411
G1 X143.908 Y106.427 E36.22222
G1 X143.354 Y102.915 E36.3996
G1 X142.427 Y99.455 E36.57831
G1 X141.152 Y96.135 E36.75574
G1 X139.531 Y92.955 E36.93381
G1 X137.578 Y89.95 E37.11261
G1 X135.333 Y87.175 E37.29069
G1 X132.821 Y84.663 E37.46793
G1 X130.046 Y82.418 E37.64601
G1 X127.041 Y80.465 E37.82481
G1 X123.865 Y78.848 E38.00261
G1 X120.541 Y77.574 E38.18021
G1 X117.08 Y76.646 E38.35898
G1 X113.565 Y76.089 E38.53653
G1 X110 Y75.902 E38.71463
G1 X106.431 Y76.089 E38.89294
G1 X102.916 Y76.646 E39.07049
G1 X99.455 Y77.574 E39.24926
G1 X96.131 Y78.848 E39.42686
G1 X92.955 Y80.465 E39.60466
G1 X89.95 Y82.418 E39.78346
G1 X87.175 Y84.663 E39.96154
G1 X84.663 Y87.175 E40.13878
G1 X82.418 Y89.95 E40.31685
G1 X80.464 Y92.955 E40.49568
G1 X78.844 Y96.135 E40.67373
G1 X77.574 Y99.455 E40.85107
G1 X76.646 Y102.916 E41.02984
G1 X76.089 Y106.427 E41.2072
G1 X75.901 Y110.008 E41.3861
G1 X76.089 Y113.565 E41.56381
G1 X76.646 Y117.08 E41.74136
G1 X77.574 Y120.541 E41.92013
G1 X78.844 Y123.861 E42.09747
G1 X80.464 Y127.041 E42.27552
G1 X82.418 Y130.046 E42.45435
G1 X84.663 Y132.821 E42.63243
G1 X87.175 Y135.333 E42.80966
G1 X89.95 Y137.578 E42.98774
G1 X92.956 Y139.531 E43.16658
G1 X96.131 Y141.152 E43.34444
G1 X99.455 Y142.426 E43.52203
G1 X102.915 Y143.354 E43.70076
G1 X106.431 Y143.907 E43.87833
G1 X110 Y144.099 E44.05664
M204 S2000
G0 F7500 X110 Y144.699
M204 S500
;TYPE:WALL-OUTER
G1 F1500 X113.628 Y144.505 E44.2379
G1 X117.205 Y143.942 E44.41856
G1 X120.727 Y142.998 E44.60047
G1 X124.109 Y141.701 E44.78118
G1 X127.341 Y140.052 E44.9622
G1 X130.399 Y138.064 E45.14417
G1 X133.223 Y135.78 E45.32537
G1 X135.78 Y133.223 E45.50578
G1 X138.064 Y130.399 E45.68699
G1 X140.051 Y127.341 E45.86893
G1 X141.701 Y124.105 E46.05015
G1 X142.998 Y120.727 E46.23067
G1 X143.942 Y117.205 E46.41259
G1 X144.505 Y113.628 E46.59324
G1 X144.699 Y109.992 E46.7749
G1 X144.505 Y106.364 E46.95616
G1 X143.942 Y102.791 E47.13662
G1 X142.998 Y99.269 E47.31854
G1 X141.701 Y95.891 E47.49906
G1 X140.051 Y92.655 E47.68028
G1 X138.064 Y89.597 E47.86222
G1 X135.78 Y86.773 E48.04343
G1 X133.223 Y84.216 E48.22384
G1 X130.399 Y81.932 E48.40504
G1 X127.341 Y79.945 E48.58698
G1 X124.109 Y78.299 E48.76793
G1 X120.727 Y77.002 E48.94864
G1 X117.205 Y76.058 E49.13056
G1 X113.628 Y75.491 E49.31124
G1 X110 Y75.301 E49.49249
G1 X106.368 Y75.491 E49.67394
G1 X102.791 Y76.058 E49.85463
G1 X99.269 Y77.002 E50.03654
G1 X95.887 Y78.299 E50.21725
G1 X92.655 Y79.945 E50.39821
G1 X89.597 Y81.932 E50.58015
G1 X86.773 Y84.216 E50.76135
G1 X84.216 Y86.773 E50.94176
G1 X81.932 Y89.597 E51.12296
G1 X79.944 Y92.655 E51.30493
G1 X78.295 Y95.891 E51.48613
G1 X77.002 Y99.269 E51.66658
G1 X76.058 Y102.791 E51.8485
G1 X75.491 Y106.364 E52.02899
G1 X75.301 Y110.008 E52.21103
G1 X75.491 Y113.628 E52.39189
G1 X76.058 Y117.205 E52.57257
G1 X77.002 Y120.727 E52.75449
G1 X78.295 Y124.105 E52.93494
G1 X79.944 Y127.341 E53.11614
G1 X81.932 Y130.399 E53.29811
G1 X84.216 Y133.223 E53.47931
G1 X86.773 Y135.78 E53.65972
G1 X89.597 Y138.064 E53.84092
G1 X92.655 Y140.051 E54.02286
G1 X95.887 Y141.701 E54.20391
G1 X99.269 Y142.998 E54.38462
G1 X102.791 Y143.942 E54.56653
G1 X106.368 Y144.505 E54.74719
G1 X110 Y144.699 E54.92865
M204 S2000
G1 F2400 E54.12865
G0 F7500 X110 Y143.689
G0 X109.947 Y142.558
G0 X110 Y141.547
M204 S500
G1 F2400 E54.92865
G1 F1502.5 X109.984 Y141.548 E54.92944
G1 F1500 X106.696 Y141.375 E55.09371
G1 X103.438 Y140.862 E55.25826
G1 X100.236 Y140.001 E55.42368
G1 X97.166 Y138.823 E55.58773
G1 X94.219 Y137.321 E55.75275
G1 X91.457 Y135.526 E55.91709
G1 X88.875 Y133.433 E56.08291
G1 X86.553 Y131.11 E56.24678
G1 X84.47 Y128.539 E56.41186
G1 X82.672 Y125.765 E56.57679
G1 X81.177 Y122.83 E56.74112
G1 X79.991 Y119.744 E56.90605
G1 X79.135 Y116.543 E57.07136
G1 X78.621 Y113.3 E57.23518
G1 X78.448 Y109.984 E57.40084
G1 X78.621 Y106.692 E57.5653
G1 X79.138 Y103.438 E57.72968
G1 X79.991 Y100.252 E57.89423
G1 X81.177 Y97.166 E58.05917
G1 X82.688 Y94.204 E58.22506
G1 X84.47 Y91.457 E58.38842
G1 X86.563 Y88.875 E58.55425
G1 X88.886 Y86.553 E58.71811
G1 X91.457 Y84.47 E58.88319
G1 X94.231 Y82.672 E59.04812
G1 X97.166 Y81.177 E59.21245
G1 X100.249 Y79.991 E59.37725
G1 X103.453 Y79.135 E59.5427
G1 X106.696 Y78.621 E59.70651
G1 X110 Y78.447 E59.87158
G1 X113.3 Y78.621 E60.03645
G1 X116.558 Y79.138 E60.20102
G1 X119.747 Y79.991 E60.36572
G1 X122.83 Y81.177 E60.53052
G1 X125.792 Y82.688 E60.69641
G1 X128.539 Y84.47 E60.85977
G1 X131.121 Y86.563 E61.02559
G1 X133.443 Y88.886 E61.18945
G1 X135.526 Y91.457 E61.35454
G1 X137.328 Y94.231 E61.51957
G1 X138.823 Y97.166 E61.6839
G1 X140.009 Y100.253 E61.84889
G1 X140.865 Y103.453 E62.01415
G1 X141.375 Y106.692 E62.17773
G1 X141.549 Y109.998 E62.3429
G1 X141.375 Y113.3 E62.50786
G1 X140.862 Y116.558 E62.67241
G1 X140.005 Y119.756 E62.83759
G1 X138.823 Y122.83 E63.0019
G1 X137.321 Y125.777 E63.16692
G1 X135.526 Y128.539 E63.33126
G1 X133.433 Y131.121 E63.49708
G1 X131.11 Y133.443 E63.66095
G1 X128.539 Y135.526 E63.82603
G1 X125.765 Y137.328 E63.99106
G1 X122.83 Y138.823 E64.15539
G1 X119.747 Y140.005 E64.32012
G1 X116.543 Y140.865 E64.48562
G1 X113.3 Y141.375 E64.64941
G1 F1502.5 X110 Y141.547 E64.81399
M204 S2000
G0 F7500 X109.921 Y143.058
M104 S228
;MESH:NONMESH
G0 F300 X109.921 Y143.058 Z0.4
G0 F7500 X110 Y142.785
;TIME_ELAPSED:57.121511
;LAYER:1
M106 S85
M204 S500
;TYPE:WALL-INNER
;MESH:tire_7mm_65mm_rim.stl
G1 F1468.8 X106.567 Y142.604 E65.00666
G1 F1471 X103.185 Y142.072 E65.19824
G1 F1468.8 X99.861 Y141.18 E65.39112
G1 X96.664 Y139.953 E65.58303
G1 F1471 X93.609 Y138.396 E65.77492
G1 F1473.2 X90.722 Y136.52 E65.9673
G1 F1471 X88.058 Y134.364 E66.15908
G1 X85.632 Y131.938 E66.35108
G1 X83.476 Y129.274 E66.54286
G1 F1468.8 X81.603 Y126.387 E66.73572
G1 F1464.5 X80.045 Y123.329 E66.92863
G1 F1468.8 X78.818 Y120.135 E67.12039
G1 F1473.2 X77.927 Y116.81 E67.31274
G1 X77.391 Y113.437 E67.50358
G1 X77.212 Y110.007 E67.69549
G1 F1471 X77.392 Y106.563 E67.88848
G1 X77.927 Y103.186 E68.07982
G1 F1473.2 X78.818 Y99.861 E68.27216
G1 F1468.8 X80.045 Y96.667 E68.46392
G1 F1464.5 X81.603 Y93.609 E68.65683
G1 F1468.8 X83.476 Y90.722 E68.8497
G1 F1471 X85.632 Y88.058 E69.04148
G1 X88.058 Y85.632 E69.23347
G1 X90.722 Y83.476 E69.42526
G1 F1468.8 X93.609 Y81.603 E69.61812
G1 X96.663 Y80.047 E69.81021
G1 F1471 X99.86 Y78.817 E70.0019
G1 F1473.2 X103.186 Y77.927 E70.19429
G1 X106.559 Y77.391 E70.38513
G1 X110 Y77.211 E70.57766
G1 X113.429 Y77.391 E70.76953
G1 X116.81 Y77.927 E70.96081
G1 X120.136 Y78.818 E71.15321
G1 X123.333 Y80.047 E71.34459
G1 F1466.7 X126.387 Y81.603 E71.53697
G1 F1468.8 X129.274 Y83.476 E71.72983
G1 F1471 X131.938 Y85.632 E71.92161
G1 X134.364 Y88.058 E72.11361
G1 X136.52 Y90.722 E72.30539
G1 X138.396 Y93.608 E72.49801
G1 F1468.8 X139.954 Y96.667 E72.6904
G1 X141.182 Y99.862 E72.88223
G1 X142.072 Y103.185 E73.07503
G1 X142.604 Y106.563 E73.26668
G1 X142.786 Y109.993 E73.45918
G1 X142.604 Y113.429 E73.65201
G1 F1471 X142.072 Y116.811 E73.8436
G1 F1473.2 X141.183 Y120.134 E74.0358
G1 F1471 X139.954 Y123.329 E74.22737
G1 F1468.8 X138.396 Y126.388 E74.41976
G1 F1471 X136.52 Y129.274 E74.61238
G1 X134.364 Y131.938 E74.80417
G1 X131.938 Y134.364 E74.99616
G1 F1468.8 X129.274 Y136.52 E75.18823
G1 X126.387 Y138.396 E75.38118
G1 X123.331 Y139.953 E75.5734
G1 F1466.7 X120.135 Y141.179 E75.76552
G1 F1468.8 X116.811 Y142.072 E75.95842
G1 X113.429 Y142.604 E76.15029
G1 X110 Y142.785 E76.34273
M204 S2000
G0 F8250 X110 Y142.148
M204 S500
G1 F1650 X106.633 Y141.972 E76.51094
G1 X103.36 Y141.458 E76.67623
G1 X100.021 Y140.561 E76.84872
G1 X96.965 Y139.389 E77.01201
G1 X93.923 Y137.843 E77.18225
G1 X91.1 Y136.008 E77.35023
G1 X88.451 Y133.857 E77.52047
G1 X86.076 Y131.475 E77.68829
G1 X83.988 Y128.896 E77.85384
G1 X82.157 Y126.072 E78.02175
G1 X80.628 Y123.072 E78.18974
G1 X79.422 Y119.934 E78.35746
G1 X78.55 Y116.68 E78.52553
G1 X78.024 Y113.363 E78.69308
G1 X77.848 Y110.004 E78.8609
G1 X78.024 Y106.629 E79.0295
G1 X78.55 Y103.316 E79.19686
G1 X79.422 Y100.062 E79.36493
G1 X80.628 Y96.924 E79.53265
G1 X82.157 Y93.924 E79.70064
G1 X83.988 Y91.1 E79.86855
G1 X86.139 Y88.451 E80.03879
G1 X88.521 Y86.076 E80.20661
