; generated by PrusaSlicer 2.9.0 on 2025-06-12 at 18:03:27 UTC

; 

; external perimeters extrusion width = 0.63mm
; perimeters extrusion width = 0.66mm
; infill extrusion width = 0.66mm
; solid infill extrusion width = 0.66mm
; top infill extrusion width = 0.60mm
; first layer extrusion width = 0.63mm

M201 X500 Y500 Z100 E5000 ; sets maximum accelerations, mm/sec^2
M203 X500 Y500 Z10 E60 ; sets maximum feedrates, mm / sec
M204 S500 T1000 ; sets acceleration (S) and retract acceleration (R), mm/sec^2
M205 X8.00 Y8.00 Z0.40 E5.00 ; sets the jerk limits, mm/sec
M205 S0 T0 ; sets the minimum extruding and travel feed rate, mm/sec

; printing object tire_7mm_65mm_rim.stl id:0 copy 0
; stop printing object tire_7mm_65mm_rim.stl id:0 copy 0

;TYPE:Custom
G90 ; use absolute coordinates
M83 ; extruder relative mode
M104 S150 ; set temporary nozzle temp to prevent oozing during homing
M140 S60 ; set final bed temp
G4 S30 ; allow partial nozzle warmup
G28 ; home all axis and restore leveling
G1 Z50 F240
G1 X2.0 Y10 F3000
M104 S210 ; set final nozzle temp
M190 S60 ; wait for bed temp to stabilize
M109 S210 ; wait for nozzle temp to stabilize
G1 Z0.28 F240
G92 E0
G1 X2.0 Y140 E10 F1500 ; prime the nozzle
G1 X2.3 Y140 F5000
G92 E0
G1 X2.3 Y10 E10 F1200 ; prime the nozzle
G92 E0
G21 ; set units to millimeters
G90 ; use absolute coordinates
M83 ; use relative distances for extrusion
; Filament gcode
M107
;LAYER_CHANGE
;Z:0.3
;HEIGHT:0.3
G1 E-.8 F1800
G1 Z.3 F9000
G1 X86.109 Y81.58
G1 Z.3
G1 E.8 F1800
M204 S500
;TYPE:Skirt/Brim
;WIDTH:0.63
G1 F1200
G1 X89.171 Y78.493 E.30674
G1 X92.8 Y75.519 E.331
G1 X96.583 Y73.046 E.31885
G1 X100.604 Y70.982 E.31886
G1 X104.657 Y69.407 E.30676
G1 X109.606 Y68.08 E.36147
G1 X113.904 Y67.418 E.30679
G1 X118.59 Y67.2 E.33094
G1 X122.932 Y67.445 E.3068
G1 X127.394 Y68.166 E.31886
G1 X131.507 Y69.268 E.30039
G1 X135.732 Y70.875 E.31889
G1 X139.766 Y72.915 E.31891
G1 X143.564 Y75.365 E.31885
G1 X147.085 Y78.199 E.31886
G1 X150.173 Y81.261 E.30679
G1 X153.397 Y85.243 E.36145
G1 X155.75 Y88.9 E.30678
G1 X157.856 Y93.092 E.33096
G1 X159.397 Y97.158 E.30675
G1 X160.554 Y101.528 E.31891
G1 X161.247 Y105.994 E.31883
G1 X161.47 Y110.509 E.31891
G1 X161.247 Y114.761 E.30038
G1 X160.554 Y119.228 E.3189
G1 X159.397 Y123.598 E.31891
G1 X157.79 Y127.822 E.31883
G1 X155.75 Y131.856 E.31891
G1 X153.3 Y135.654 E.31885
G1 X150.466 Y139.175 E.31886
G1 X147.404 Y142.263 E.30679
G1 X143.422 Y145.488 E.36149
G1 X139.766 Y147.841 E.30672
G1 X135.573 Y149.946 E.33099
G1 X131.507 Y151.488 E.30678
G1 X127.138 Y152.644 E.31883
G1 X122.671 Y153.338 E.31891
G1 X118.157 Y153.561 E.31884
G1 X113.644 Y153.31 E.31887
G1 X109.437 Y152.644 E.30049
G1 X105.068 Y151.488 E.31883
G1 X100.843 Y149.88 E.31892
G1 X96.81 Y147.841 E.31881
G1 X93.011 Y145.39 E.31895
G1 X89.49 Y142.556 E.31886
G1 X86.403 Y139.495 E.30669
G1 X83.178 Y135.512 E.36155
G1 X80.825 Y131.856 E.30672
G1 X78.719 Y127.663 E.33102
G1 X77.178 Y123.598 E.30669
G1 X76.021 Y119.228 E.31891
G1 X75.328 Y114.761 E.3189
G1 X75.105 Y110.247 E.31884
G1 X75.355 Y105.734 E.31887
G1 X76.076 Y101.272 E.31886
G1 X77.178 Y97.158 E.30046
G1 X78.785 Y92.934 E.31883
G1 X80.825 Y88.9 E.31891
G1 X83.275 Y85.102 E.31885
G1 X86.053 Y81.65 E.31259
;WIPE_START
G1 F7200
G1 X86.109 Y81.58 E-.02129
G1 X88.418 Y79.252 E-.77871
;WIPE_END
G1 X89.138 Y84.256 F9000
G1 E.8 F1800
G1 F1200
G1 X92.005 Y81.373 E.28684
G1 X95.181 Y78.785 E.28903
G1 X98.61 Y76.542 E.28906
G1 X102.254 Y74.671 E.28898
G1 X106.074 Y73.19 E.28903
G1 X110.028 Y72.118 E.28901
G1 X114.076 Y71.463 E.28929
G1 X118.486 Y71.24 E.31151
G1 X122.502 Y71.464 E.28376
G1 X126.546 Y72.117 E.28899
G1 X130.443 Y73.172 E.28482
G1 X134.238 Y74.633 E.28688
G1 X137.834 Y76.466 E.28474
G1 X141.246 Y78.676 E.28679
G1 X144.41 Y81.229 E.28681
G1 X147.293 Y84.096 E.28684
G1 X149.881 Y87.271 E.28897
G1 X152.123 Y90.7 E.28902
G1 X153.995 Y94.344 E.28901
G1 X155.475 Y98.166 E.28914
G1 X156.599 Y102.36 E.30632
G1 X157.228 Y106.41 E.28914
G1 X157.429 Y110.501 E.28896
G1 X157.205 Y114.562 E.28693
G1 X156.561 Y118.577 E.28687
G1 X155.504 Y122.503 E.28683
G1 X154.045 Y126.298 E.28683
G1 X152.201 Y129.921 E.28679
G1 X149.99 Y133.335 E.28695
G1 X147.437 Y136.5 E.28687
G1 X144.57 Y139.383 E.28684
G1 X141.395 Y141.971 E.28897
G1 X137.966 Y144.213 E.28902
G1 X134.321 Y146.085 E.28907
G1 X130.501 Y147.565 E.28901
G1 X126.547 Y148.638 E.28903
G1 X122.501 Y149.292 E.28914
G1 X118.161 Y149.519 E.30659
G1 X114.088 Y149.29 E.28779
G1 X110.06 Y148.645 E.28778
G1 X106.162 Y147.594 E.28481
G1 X102.367 Y146.135 E.28683
G1 X98.744 Y144.291 E.28679
G1 X95.331 Y142.08 E.28689
G1 X92.166 Y139.528 E.28682
G1 X89.283 Y136.66 E.28689
G1 X86.694 Y133.485 E.28902
G1 X84.452 Y130.056 E.28902
G1 X82.581 Y126.411 E.28904
G1 X81.1 Y122.59 E.2891
G1 X79.976 Y118.396 E.30632
G1 X79.348 Y114.346 E.28913
G1 X79.146 Y110.255 E.28896
G1 X79.37 Y106.194 E.28693
G1 X80.014 Y102.179 E.28687
G1 X81.071 Y98.253 E.28683
G1 X82.53 Y94.458 E.28683
G1 X84.374 Y90.834 E.28686
G1 X86.585 Y87.421 E.28689
G1 X89.081 Y84.326 E.2805
G1 X89.081 Y84.326 F9000
G1 X89.521 Y84.681
G1 F1200
G1 X89.569 Y84.623 E.00531
G1 X92.395 Y81.782 E.2827
G1 X95.526 Y79.233 E.28483
G1 X98.906 Y77.024 E.28486
G1 X102.499 Y75.181 E.28488
G1 X106.265 Y73.723 E.2849
G1 X110.162 Y72.667 E.28484
G1 X114.151 Y72.024 E.28505
G1 X118.469 Y71.806 E.30501
G1 X122.427 Y72.025 E.27965
G1 X126.413 Y72.667 E.28483
G1 X130.281 Y73.714 E.2827
G1 X134.02 Y75.156 E.28271
G1 X137.564 Y76.963 E.28064
G1 X140.926 Y79.143 E.28268
G1 X144.044 Y81.66 E.28269
G1 X146.883 Y84.486 E.2826
G1 X149.433 Y87.616 E.28482
G1 X151.641 Y90.997 E.28488
G1 X153.485 Y94.589 E.28485
G1 X154.942 Y98.356 E.28494
G1 X156.043 Y102.462 E.2999
G1 X156.663 Y106.453 E.28493
G1 X156.863 Y110.485 E.2848
G1 X156.644 Y114.487 E.28275
G1 X156.011 Y118.444 E.2827
G1 X154.971 Y122.314 E.2827
G1 X153.535 Y126.055 E.28269
G1 X151.718 Y129.626 E.28266
G1 X149.524 Y133.015 E.28481
G1 X147.007 Y136.133 E.28269
G1 X144.18 Y138.973 E.2827
G1 X141.049 Y141.523 E.28487
G1 X137.669 Y143.732 E.28486
G1 X134.076 Y145.575 E.28488
G1 X130.311 Y147.032 E.28481
G1 X126.413 Y148.088 E.28491
G1 X122.426 Y148.731 E.28491
G1 X118.177 Y148.954 E.30017
G1 X114.163 Y148.729 E.28362
G1 X110.193 Y148.095 E.28362
G1 X106.323 Y147.052 E.28276
G1 X102.584 Y145.613 E.28264
G1 X99.014 Y143.794 E.28266
G1 X95.651 Y141.614 E.28274
G1 X92.532 Y139.097 E.28275
G1 X89.692 Y136.27 E.2827
G1 X87.142 Y133.139 E.28487
G1 X84.934 Y129.759 E.28482
G1 X83.091 Y126.167 E.28481
G1 X81.633 Y122.4 E.28496
G1 X80.532 Y118.294 E.2999
G1 X79.912 Y114.303 E.28493
G1 X79.712 Y110.271 E.2848
G1 X79.931 Y106.269 E.28275
G1 X80.564 Y102.312 E.2827
G1 X81.605 Y98.442 E.28272
G1 X83.041 Y94.701 E.28269
G1 X84.857 Y91.129 E.28269
G1 X87.052 Y87.741 E.28479
G1 X89.465 Y84.751 E.27106
G1 X89.465 Y84.751 F9000
G1 X89.905 Y85.107
G1 F1200
G1 X89.999 Y84.99 E.01059
G1 X92.786 Y82.192 E.2786
G1 X95.872 Y79.681 E.28067
G1 X99.203 Y77.506 E.28065
G1 X102.744 Y75.691 E.28071
G1 X106.455 Y74.256 E.28069
G1 X110.295 Y73.217 E.28064
G1 X114.225 Y72.585 E.28081
G1 X118.453 Y72.371 E.29866
G1 X122.352 Y72.585 E.27548
G1 X126.28 Y73.217 E.28067
G1 X130.092 Y74.247 E.27857
G1 X133.776 Y75.666 E.27851
G1 X137.293 Y77.46 E.27853
G1 X140.605 Y79.609 E.27853
G1 X143.677 Y82.09 E.27857
G1 X146.474 Y84.876 E.27851
G1 X148.985 Y87.962 E.28067
G1 X151.16 Y91.293 E.28065
G1 X152.974 Y94.834 E.28068
G1 X154.409 Y98.545 E.28069
G1 X155.486 Y102.564 E.29353
G1 X156.099 Y106.496 E.28074
G1 X156.298 Y110.469 E.28064
G1 X156.083 Y114.412 E.27858
G1 X155.455 Y118.34 E.28063
G1 X154.428 Y122.152 E.27851
G1 X153.012 Y125.838 E.27856
G1 X151.221 Y129.357 E.27856
G1 X149.057 Y132.695 E.28064
G1 X146.576 Y135.766 E.27852
G1 X143.789 Y138.564 E.2786
G1 X140.704 Y141.075 E.28062
G1 X137.372 Y143.25 E.28071
G1 X133.832 Y145.065 E.28065
G1 X130.121 Y146.499 E.28067
G1 X126.28 Y147.539 E.28073
G1 X122.351 Y148.17 E.28073
G1 X118.193 Y148.388 E.29374
G1 X114.238 Y148.168 E.27945
G1 X110.325 Y147.545 E.27953
G1 X106.513 Y146.518 E.27851
G1 X102.827 Y145.102 E.27856
G1 X99.309 Y143.311 E.2785
G1 X95.971 Y141.147 E.28064
G1 X92.899 Y138.666 E.27857
G1 X90.102 Y135.88 E.27851
G1 X87.591 Y132.794 E.28067
G1 X85.416 Y129.462 E.28071
G1 X83.601 Y125.922 E.28065
G1 X82.166 Y122.21 E.28076
G1 X81.089 Y118.192 E.29346
G1 X80.476 Y114.26 E.28074
G1 X80.277 Y110.287 E.28064
G1 X80.492 Y106.344 E.27858
G1 X81.12 Y102.416 E.28063
G1 X82.147 Y98.603 E.27858
G1 X83.563 Y94.918 E.2785
G1 X85.354 Y91.399 E.27856
G1 X87.518 Y88.061 E.28064
G1 X89.848 Y85.177 E.26156
G1 X89.848 Y85.177 F9000
G1 X90.288 Y85.532
G1 F1200
G1 X90.43 Y85.357 E.0159
G1 X93.176 Y82.602 E.27441
G1 X96.217 Y80.129 E.27652
G1 X99.5 Y77.988 E.27651
G1 X102.988 Y76.201 E.27648
G1 X106.644 Y74.789 E.27649
G1 X110.428 Y73.767 E.27652
G1 X114.3 Y73.146 E.27665
G1 X118.437 Y72.937 E.29223
G1 X122.277 Y73.146 E.2713
G1 X126.147 Y73.767 E.27651
G1 X129.902 Y74.78 E.27437
G1 X133.559 Y76.189 E.27648
G1 X137.023 Y77.957 E.27437
G1 X140.285 Y80.076 E.27442
G1 X143.309 Y82.521 E.27434
G1 X146.064 Y85.266 E.27436
G1 X148.536 Y88.307 E.27647
G1 X150.678 Y91.59 E.27654
G1 X152.464 Y95.079 E.27651
G1 X153.876 Y98.735 E.27649
G1 X154.93 Y102.667 E.28718
G1 X155.535 Y106.539 E.27647
G1 X155.732 Y110.454 E.27654
G1 X155.522 Y114.338 E.27441
G1 X154.905 Y118.208 E.27647
G1 X153.895 Y121.963 E.27432
G1 X152.489 Y125.621 E.27647
G1 X150.724 Y129.087 E.27439
G1 X148.591 Y132.374 E.27643
G1 X146.145 Y135.399 E.27444
G1 X143.399 Y138.154 E.27441
G1 X140.358 Y140.627 E.27652
G1 X137.076 Y142.768 E.27645
G1 X133.587 Y144.554 E.27651
G1 X129.931 Y145.966 E.27649
G1 X126.147 Y146.989 E.27653
G1 X122.277 Y147.61 E.27651
G1 X118.209 Y147.823 E.28738
G1 X114.284 Y147.604 E.27733
G1 X110.429 Y146.989 E.2754
G1 X106.674 Y145.976 E.27437
G1 X103.044 Y144.58 E.27437
G1 X99.579 Y142.814 E.27436
G1 X96.291 Y140.681 E.27649
G1 X93.266 Y138.236 E.2744
G1 X90.512 Y135.49 E.27436
G1 X88.039 Y132.449 E.27652
G1 X85.897 Y129.166 E.27654
G1 X84.111 Y125.677 E.27651
G1 X82.699 Y122.021 E.27649
G1 X81.645 Y118.089 E.28718
G1 X81.04 Y114.217 E.27647
G1 X80.843 Y110.302 E.27654
G1 X81.053 Y106.418 E.27441
G1 X81.671 Y102.548 E.27648
G1 X82.68 Y98.793 E.2743
G1 X84.086 Y95.135 E.27647
G1 X85.852 Y91.669 E.27443
G1 X87.985 Y88.382 E.27643
G1 X90.231 Y85.602 E.25213
G1 X90.231 Y85.602 F9000
G1 X90.67 Y85.957
G1 F1200
G1 X90.841 Y85.746 E.01916
G1 X93.566 Y83.012 E.27232
G1 X96.562 Y80.577 E.27236
G1 X99.796 Y78.47 E.2723
G1 X103.233 Y76.712 E.27235
G1 X106.834 Y75.322 E.27231
G1 X110.561 Y74.317 E.27232
G1 X114.374 Y73.707 E.27242
G1 X118.422 Y73.503 E.28594
G1 X122.202 Y73.707 E.26706
G1 X126.014 Y74.317 E.27235
G1 X129.713 Y75.313 E.27025
G1 X133.315 Y76.699 E.27227
G1 X136.727 Y78.44 E.27023
G1 X139.964 Y80.542 E.27228
G1 X142.942 Y82.951 E.27022
G1 X145.654 Y85.656 E.27022
G1 X148.088 Y88.652 E.27232
G1 X150.196 Y91.886 E.27234
G1 X151.954 Y95.323 E.27235
G1 X153.343 Y98.924 E.27228
G1 X154.373 Y102.769 E.28082
G1 X154.971 Y106.583 E.27235
G1 X155.167 Y110.438 E.27231
G1 X154.962 Y114.263 E.27023
G1 X154.355 Y118.075 E.27231
G1 X153.362 Y121.774 E.27019
G1 X151.978 Y125.378 E.27235
G1 X150.241 Y128.791 E.27017
G1 X148.141 Y132.03 E.27233
G1 X145.734 Y135.01 E.27024
G1 X143.009 Y137.744 E.27232
G1 X140.013 Y140.178 E.27232
G1 X136.779 Y142.286 E.27234
G1 X133.343 Y144.044 E.27229
G1 X129.741 Y145.433 E.27235
G1 X126.014 Y146.439 E.27234
G1 X122.202 Y147.049 E.27235
G1 X118.225 Y147.257 E.28095
G1 X114.358 Y147.043 E.27322
G1 X110.562 Y146.439 E.27117
G1 X106.863 Y145.443 E.27025
G1 X103.288 Y144.069 E.27019
G1 X99.874 Y142.331 E.27026
G1 X96.635 Y140.232 E.27229
G1 X93.655 Y137.825 E.27024
G1 X90.921 Y135.1 E.27232
G1 X88.487 Y132.104 E.27232
G1 X86.379 Y128.87 E.27234
G1 X84.621 Y125.433 E.27235
G1 X83.232 Y121.831 E.27235
G1 X82.202 Y117.987 E.28075
G1 X81.604 Y114.173 E.27235
G1 X81.409 Y110.318 E.27231
G1 X81.614 Y106.492 E.2703
G1 X82.221 Y102.681 E.27224
G1 X83.214 Y98.981 E.27026
G1 X84.597 Y95.378 E.27226
G1 X86.334 Y91.964 E.27023
G1 X88.434 Y88.725 E.27233
G1 X90.614 Y86.027 E.2447
G1 X90.614 Y86.027 F9000
G1 X91.054 Y86.382
G1 F1200
G1 X91.271 Y86.113 E.02438
G1 X93.956 Y83.422 E.26818
G1 X96.907 Y81.026 E.26816
G1 X100.092 Y78.952 E.26813
G1 X103.477 Y77.222 E.26818
G1 X107.024 Y75.856 E.26815
G1 X110.694 Y74.867 E.26814
G1 X114.448 Y74.268 E.26818
G1 X118.406 Y74.068 E.27958
G1 X122.128 Y74.268 E.26296
G1 X125.881 Y74.867 E.26811
G1 X129.552 Y75.856 E.26821
G1 X133.098 Y77.222 E.26808
G1 X136.457 Y78.937 E.26607
G1 X139.644 Y81.008 E.26814
G1 X142.575 Y83.381 E.26605
G1 X145.244 Y86.046 E.26608
G1 X147.64 Y88.997 E.26816
G1 X149.714 Y92.182 E.26813
G1 X151.443 Y95.567 E.26815
G1 X152.81 Y99.114 E.26817
G1 X153.817 Y102.872 E.27447
G1 X154.407 Y106.627 E.26815
G1 X154.601 Y110.423 E.26815
G1 X154.397 Y114.218 E.26811
G1 X153.798 Y117.971 E.26811
G1 X152.819 Y121.613 E.26605
G1 X151.456 Y125.161 E.26814
G1 X149.744 Y128.521 E.26603
G1 X147.675 Y131.71 E.26818
G1 X145.304 Y134.643 E.26607
G1 X142.619 Y137.334 E.26818
G1 X139.668 Y139.73 E.26816
G1 X136.483 Y141.804 E.26813
G1 X133.099 Y143.534 E.26812
G1 X129.552 Y144.9 E.26815
G1 X125.881 Y145.889 E.26821
G1 X122.128 Y146.488 E.26811
G1 X118.241 Y146.691 E.27459
G1 X114.433 Y146.482 E.26905
G1 X110.694 Y145.889 E.26707
G1 X107.052 Y144.91 E.26605
G1 X103.504 Y143.546 E.26816
G1 X100.144 Y141.834 E.26603
G1 X96.955 Y139.765 E.26818
G1 X94.022 Y137.394 E.26607
G1 X91.331 Y134.71 E.26813
G1 X88.936 Y131.759 E.26812
G1 X86.862 Y128.573 E.26819
G1 X85.132 Y125.189 E.26812
G1 X83.765 Y121.642 E.26817
G1 X82.758 Y117.884 E.27447
G1 X82.168 Y114.129 E.26815
G1 X81.974 Y110.333 E.26815
G1 X82.178 Y106.538 E.26811
G1 X82.777 Y102.784 E.26818
G1 X83.756 Y99.143 E.26599
G1 X85.119 Y95.595 E.26814
G1 X86.831 Y92.234 E.2661
G1 X88.9 Y89.046 E.26812
G1 X90.997 Y86.452 E.23532
G1 X90.997 Y86.452 F9000
G1 X91.437 Y86.808
G1 F1200
G1 X91.702 Y86.48 E.02975
G1 X94.346 Y83.832 E.26399
G1 X97.252 Y81.475 E.26397
G1 X100.388 Y79.434 E.26397
G1 X103.721 Y77.733 E.26398
G1 X107.213 Y76.389 E.26397
G1 X110.826 Y75.417 E.26395
G1 X114.522 Y74.829 E.26402
G1 X118.391 Y74.634 E.27329
G1 X122.054 Y74.829 E.25878
G1 X125.749 Y75.417 E.26395
G1 X129.362 Y76.389 E.26395
G1 X132.855 Y77.733 E.26403
G1 X136.161 Y79.419 E.26181
G1 X139.3 Y81.457 E.26403
G1 X142.186 Y83.792 E.26189
G1 X144.834 Y86.436 E.26399
G1 X147.191 Y89.342 E.26397
G1 X149.231 Y92.478 E.26393
G1 X150.933 Y95.811 E.26402
G1 X152.277 Y99.303 E.26397
G1 X153.26 Y102.975 E.26817
G1 X153.843 Y106.671 E.26397
G1 X154.036 Y110.408 E.26399
G1 X153.837 Y114.144 E.26394
G1 X153.248 Y117.839 E.26396
G1 X152.286 Y121.424 E.26186
G1 X150.945 Y124.918 E.26402
G1 X149.261 Y128.226 E.26187
G1 X147.226 Y131.366 E.26397
G1 X144.873 Y134.276 E.26401
G1 X142.23 Y136.924 E.26394
G1 X139.324 Y139.281 E.26397
G1 X136.187 Y141.322 E.26402
G1 X132.855 Y143.023 E.26392
G1 X129.362 Y144.367 E.26403
G1 X125.749 Y145.338 E.26393
G1 X122.054 Y145.927 E.26396
G1 X118.257 Y146.126 E.26824
G1 X114.507 Y145.921 E.26495
G1 X110.826 Y145.338 E.26292
G1 X107.241 Y144.376 E.26186
G1 X103.748 Y143.035 E.26396
G1 X100.439 Y141.351 E.26193
G1 X97.299 Y139.316 E.26397
G1 X94.39 Y136.964 E.26391
G1 X91.742 Y134.32 E.26399
G1 X89.384 Y131.414 E.26401
G1 X87.344 Y128.277 E.26399
G1 X85.642 Y124.945 E.26395
G1 X84.299 Y121.453 E.26394
G1 X83.315 Y117.781 E.26819
G1 X82.732 Y114.085 E.26397
G1 X82.54 Y110.348 E.26398
G1 X82.739 Y106.612 E.26394
G1 X83.327 Y102.917 E.26395
G1 X84.289 Y99.331 E.26193
G1 X85.63 Y95.838 E.26396
G1 X87.314 Y92.53 E.26187
G1 X89.35 Y89.39 E.26401
G1 X91.38 Y86.878 E.22785
G1 X91.38 Y86.878 F9000
G1 X91.82 Y87.233
G1 F1200
G1 X92.132 Y86.847 E.03501
G1 X94.735 Y84.242 E.2598
G1 X97.596 Y81.923 E.25981
G1 X100.684 Y79.916 E.25982
G1 X103.964 Y78.243 E.25976
G1 X107.402 Y76.922 E.25983
G1 X110.958 Y75.967 E.25976
G1 X114.595 Y75.39 E.25979
G1 X118.376 Y75.199 E.26708
G1 X121.98 Y75.39 E.25461
G1 X125.617 Y75.967 E.25979
G1 X129.174 Y76.922 E.25982
G1 X132.611 Y78.243 E.25976
