; generated by PrusaSlicer 2.9.0 on 2025-06-15 at 21:32:49 UTC

; 

; external perimeters extrusion width = 0.63mm
; perimeters extrusion width = 0.66mm
; infill extrusion width = 0.66mm
; solid infill extrusion width = 0.66mm
; top infill extrusion width = 0.60mm
; first layer extrusion width = 0.63mm

M201 X500 Y500 Z100 E5000 ; sets maximum accelerations, mm/sec^2
M203 X500 Y500 Z10 E60 ; sets maximum feedrates, mm / sec
M204 S500 T1000 ; sets acceleration (S) and retract acceleration (R), mm/sec^2
M205 X8.00 Y8.00 Z0.40 E5.00 ; sets the jerk limits, mm/sec
M205 S0 T0 ; sets the minimum extruding and travel feed rate, mm/sec

; printing object tmptfgp__xfAA_Battery_socket id:0 copy 0
; stop printing object tmptfgp__xfAA_Battery_socket id:0 copy 0
; printing object tmptfgp__xfAA_Battery_socket id:0 copy 1
; stop printing object tmptfgp__xfAA_Battery_socket id:0 copy 1
; printing object tmptfgp__xfAA_Battery_socket id:0 copy 2
; stop printing object tmptfgp__xfAA_Battery_socket id:0 copy 2

;TYPE:Custom
G90 ; use absolute coordinates
M83 ; extruder relative mode
M104 S150 ; set temporary nozzle temp to prevent oozing during homing
M140 S60 ; set final bed temp
G4 S30 ; allow partial nozzle warmup
G28 ; home all axis and restore leveling
G1 Z50 F240
G1 X2.0 Y10 F3000
M104 S210 ; set final nozzle temp
M190 S60 ; wait for bed temp to stabilize
M109 S210 ; wait for nozzle temp to stabilize
G1 Z0.28 F240
G92 E0
G1 X2.0 Y140 E10 F1500 ; prime the nozzle
G1 X2.3 Y140 F5000
G92 E0
G1 X2.3 Y10 E10 F1200 ; prime the nozzle
G92 E0
G21 ; set units to millimeters
G90 ; use absolute coordinates
M83 ; use relative distances for extrusion
; Filament gcode
M107
;LAYER_CHANGE
;Z:0.3
;HEIGHT:0.3
G1 E-.8 F1800
G1 Z.3 F9000
G1 X80.055 Y86.636
G1 Z.3
G1 E.8 F1800
M204 S500
;TYPE:Skirt/Brim
;WIDTH:0.63
G1 F1200
G1 X80.996 Y86.023 E.07923
G1 X82.077 Y85.612 E.08159
G1 X83.239 Y85.45 E.08277
G1 X140.966 Y85.45 E4.07248
G1 X141.885 Y85.555 E.06525
G1 X142.856 Y85.858 E.07176
G1 X143.663 Y86.284 E.06438
G1 X144.538 Y86.98 E.07888
G1 X145.237 Y87.8 E.07601
G1 X145.775 Y88.729 E.07574
G1 X146.138 Y89.709 E.07373
G1 X146.355 Y90.891 E.08478
G1 X148.284 Y142.983 E3.67746
G1 X148.256 Y155.662 E.89447
G1 X148.085 Y156.674 E.07241
G1 X147.817 Y157.499 E.0612
G1 X147.438 Y158.282 E.06137
G1 X146.934 Y159.025 E.06334
G1 X146.05 Y159.918 E.08865
G1 X145.107 Y160.532 E.07939
G1 X144.029 Y160.941 E.08134
G1 X142.741 Y161.106 E.09161
G1 X85.141 Y161.103 E4.06352
G1 X84.36 Y161.024 E.05538
G1 X83.47 Y160.782 E.06507
G1 X82.77 Y160.463 E.05427
G1 X81.959 Y159.919 E.06889
G1 X81.18 Y159.155 E.07698
G1 X80.57 Y158.282 E.07513
G1 X80.127 Y157.335 E.07376
G1 X79.818 Y156.172 E.08489
G1 X77.02 Y130.868 E1.79601
G1 X77.016 Y118.451 E.87598
G1 X77.828 Y91.22 E1.92192
G1 X77.946 Y90.22 E.07104
G1 X78.224 Y89.224 E.07295
G1 X78.667 Y88.274 E.07395
G1 X79.178 Y87.521 E.0642
G1 X79.991 Y86.7 E.08151
;WIPE_START
G1 F7200
G1 X80.055 Y86.636 E-.0215
G1 X80.996 Y86.023 E-.26673
G1 X82.077 Y85.612 E-.27467
G1 X83.066 Y85.474 E-.2371
;WIPE_END
; printing object tmptfgp__xfAA_Battery_socket id:0 copy 0
G1 X86.201 Y95.722 F9000
G1 E.8 F1800
;TYPE:Perimeter
;WIDTH:0.672348
G1 F1200
G1 X86.259 Y95.077 E.04911
G1 X87.053 Y95.06 E.06022
;WIDTH:0.677136
G1 X87.93 Y95.014 E.06712
;WIDTH:0.710946
G1 X88.107 Y94.983 E.01449
;WIDTH:0.744756
G1 X88.284 Y94.951 E.01526
G1 X88.439 Y94.837 E.01633
G1 X88.593 Y94.951 E.01626
G1 X88.77 Y94.983 E.01526
;WIDTH:0.711598
G1 X88.947 Y95.015 E.01452
;WIDTH:0.678441
G1 X89.919 Y95.065 E.07454
;WIDTH:0.672348
G1 X90.618 Y95.077 E.05301
G1 X90.676 Y95.722 E.04911
G1 X89.8 Y95.645 E.06668
;WIDTH:0.697462
G1 X89.119 Y95.619 E.05381
;WIDTH:0.744756
G1 X88.437 Y95.594 E.05791
G1 X88.195 Y95.61 E.02058
;WIDTH:0.710946
G1 X87.952 Y95.626 E.01964
;WIDTH:0.677136
G1 X86.989 Y95.65 E.07362
;WIDTH:0.672348
G1 X86.29 Y95.714 E.05323
;WIPE_START
G1 F7200
G1 X86.201 Y95.722 E-.02122
G1 X86.259 Y95.077 E-.15381
G1 X87.053 Y95.06 E-.18862
G1 X87.93 Y95.014 E-.20857
G1 X88.107 Y94.983 E-.04268
G1 X88.284 Y94.951 E-.04272
G1 X88.439 Y94.837 E-.0457
G1 X88.593 Y94.951 E-.04551
G1 X88.77 Y94.983 E-.04272
G1 X88.805 Y94.989 E-.00845
;WIPE_END
G1 X86.201 Y99.333 F9000
G1 E.8 F1800
G1 F1200
G1 X87.074 Y99.41 E.06646
;WIDTH:0.697408
G1 X87.756 Y99.435 E.05388
;WIDTH:0.744756
G1 X88.437 Y99.461 E.05783
G1 X88.681 Y99.444 E.02076
;WIDTH:0.711598
G1 X88.925 Y99.427 E.01974
;WIDTH:0.678441
G1 X89.888 Y99.405 E.07377
;WIDTH:0.672348
G1 X90.676 Y99.333 E.06
G1 X90.618 Y99.978 E.04911
G1 X89.821 Y99.995 E.06045
;WIDTH:0.678441
G1 X88.947 Y100.04 E.06703
;WIDTH:0.711598
G1 X88.77 Y100.072 E.01452
;WIDTH:0.744756
G1 X88.593 Y100.104 E.01526
G1 X88.439 Y100.218 E.01626
G1 X88.284 Y100.104 E.01633
G1 X88.107 Y100.072 E.01526
;WIDTH:0.710946
G1 X87.93 Y100.041 E.01449
;WIDTH:0.677136
G1 X86.958 Y99.99 E.07439
;WIDTH:0.672348
G1 X86.259 Y99.978 E.05301
G1 X86.209 Y99.422 E.04233
;WIPE_START
G1 F7200
G1 X86.201 Y99.333 E-.02122
G1 X87.074 Y99.41 E-.20814
G1 X87.756 Y99.435 E-.16208
G1 X88.437 Y99.461 E-.16186
G1 X88.681 Y99.444 E-.05809
G1 X88.925 Y99.427 E-.05809
G1 X89.474 Y99.415 E-.13052
;WIPE_END
G1 X96.924 Y99.999 F9000
G1 E.8 F1800
;WIDTH:0.63
G1 F1200
G1 X96.924 Y95.056 E.34871
G1 X97.694 Y95.053 E.05432
G1 X98.707 Y94.977 E.07167
G1 X99.059 Y94.821 E.02716
G1 X99.116 Y94.719 E.00824
G1 X99.172 Y94.821 E.00821
G1 X99.383 Y94.937 E.01699
G1 X99.625 Y94.99 E.01748
G1 X100.593 Y95.055 E.06844
G1 X101.308 Y95.056 E.05044
G1 X101.308 Y99.999 E.34871
G1 X100.537 Y100.002 E.05439
G1 X99.525 Y100.078 E.07159
G1 X99.172 Y100.234 E.02723
G1 X99.116 Y100.345 E.00877
G1 X99.059 Y100.234 E.0088
G1 X98.849 Y100.118 E.01692
G1 X98.606 Y100.065 E.01755
G1 X97.638 Y100 E.06844
G1 X97.014 Y99.999 E.04402
;WIPE_START
G1 F7200
G1 X96.924 Y99.999 E-.02137
G1 X96.924 Y96.721 E-.77863
;WIPE_END
G1 X83.334 Y104.672 F9000
G1 E.8 F1800
;WIDTH:0.694061
G1 F1200
G1 X83.293 Y104.664 E.00328
G1 X83.029 Y104.467 E.02587
;WIDTH:0.689202
G1 X82.848 Y104.162 E.02764
;WIDTH:0.710606
G1 X82.784 Y103.756 E.03313
;WIDTH:0.716375
G1 X82.781 Y92.548 E.91144
G1 X82.929 Y92.246 E.02735
;WIDTH:0.673187
G1 X83.077 Y91.944 E.02554
;WIDTH:0.63
G1 X84.644 Y90.551 E.14791
;WIDTH:0.669022
G1 X85.057 Y90.33 E.03532
G1 X85.21 Y90.322 E.01155
;WIDTH:0.662862
G1 X87.005 Y90.326 E.13399
;WIDTH:0.689457
G1 X87.504 Y90.365 E.03902
;WIDTH:0.716052
G1 X88.003 Y90.404 E.04068
;WIDTH:0.743379
G1 X88.147 Y90.43 E.01239
;WIDTH:0.770707
G1 X88.29 Y90.455 E.01279
G1 X88.438 Y90.554 E.01569
G1 X88.586 Y90.455 E.01569
G1 X89.016 Y90.413 E.03806
;WIDTH:0.735673
G1 X89.447 Y90.371 E.03626
;WIDTH:0.700639
G1 X89.877 Y90.329 E.03429
;WIDTH:0.665605
G1 X89.961 Y90.326 E.0063
;WIDTH:0.662727
G1 X92.977 Y90.322 E.22508
;WIDTH:0.659887
G1 X93.397 Y90.448 E.03257
;WIDTH:0.63
G1 X93.68 Y90.71 E.02721
G1 X93.826 Y91.185 E.03506
G1 X93.826 Y91.926 E.05228
G1 X94.768 Y90.675 E.11048
;WIDTH:0.668553
G1 X95.296 Y90.331 E.04749
G1 X95.448 Y90.322 E.01147
;WIDTH:0.662376
G1 X97.686 Y90.326 E.16692
;WIDTH:0.688991
G1 X98.183 Y90.365 E.03884
;WIDTH:0.715605
G1 X98.681 Y90.404 E.04057
;WIDTH:0.742921
G1 X98.824 Y90.43 E.0123
;WIDTH:0.770236
G1 X98.968 Y90.456 E.01288
G1 X99.116 Y90.554 E.01563
G1 X99.263 Y90.455 E.0156
G1 X99.412 Y90.429 E.01332
;WIDTH:0.742405
G1 X99.561 Y90.403 E.01279
;WIDTH:0.714575
G1 X100.57 Y90.329 E.08205
;WIDTH:0.665034
G1 X100.653 Y90.326 E.00622
;WIDTH:0.662242
G1 X103.712 Y90.322 E.22811
;WIDTH:0.6594
G1 X104.211 Y90.499 E.03929
;WIDTH:0.63
G1 X104.488 Y90.842 E.0311
G1 X104.561 Y91.185 E.02474
G1 X104.561 Y94.898 E.26194
G1 X104.798 Y94.388 E.03967
G1 X105.275 Y93.648 E.06211
G1 X105.786 Y93.064 E.05474
G1 X106.545 Y92.453 E.06874
G1 X107.211 Y92.088 E.05358
G1 X107.904 Y91.849 E.05171
G1 X108.844 Y91.723 E.06691
G1 X121.718 Y91.722 E.90822
G1 X122.322 Y91.77 E.04274
G1 X123.202 Y91.932 E.06312
G1 X124.079 Y92.205 E.0648
G1 X124.662 Y92.454 E.04472
G1 X125.212 Y92.743 E.04383
G1 X125.742 Y93.075 E.04412
G1 X126.25 Y93.45 E.04454
G1 X126.955 Y94.074 E.06642
G1 X127.409 Y94.554 E.04661
G1 X127.824 Y95.057 E.046
G1 X128.379 Y95.858 E.06875
G1 X128.722 Y96.445 E.04796
G1 X129.023 Y97.046 E.04742
G1 X129.289 Y97.669 E.04779
G1 X129.616 Y98.626 E.07135
G1 X129.795 Y99.303 E.0494
G1 X129.983 Y100.31 E.07227
G1 X130.064 Y101.011 E.04978
G1 X130.104 Y101.705 E.04904
G1 X130.098 Y102.636 E.06568
G1 X129.972 Y102.953 E.02407
G1 X129.663 Y103.237 E.02961
G1 X129.262 Y103.338 E.02917
G1 X108.939 Y103.338 E1.43373
G1 X108.698 Y103.303 E.01718
G1 X106.847 Y102.755 E.13619
G1 X106.583 Y102.622 E.02085
G1 X106.072 Y102.243 E.04488
G1 X105.375 Y101.524 E.07064
G1 X104.92 Y100.871 E.05615
G1 X104.561 Y100.135 E.05777
G1 X104.561 Y103.87 E.26349
G1 X104.488 Y104.213 E.02474
;WIDTH:0.632318
G1 X104.212 Y104.557 E.03124
;WIDTH:0.669096
G1 X103.862 Y104.725 E.02928
G1 X103.711 Y104.733 E.0114
;WIDTH:0.663025
G1 X100.653 Y104.729 E.22833
;WIDTH:0.677934
G1 X100.115 Y104.707 E.04121
;WIDTH:0.718052
G1 X99.527 Y104.65 E.04816
;WIDTH:0.744471
G1 X99.395 Y104.625 E.0114
;WIDTH:0.77089
G1 X99.263 Y104.6 E.01184
G1 X99.116 Y104.501 E.01562
G1 X98.968 Y104.6 E.01569
G1 X98.563 Y104.642 E.03588
;WIDTH:0.736047
G1 X98.158 Y104.684 E.03411
;WIDTH:0.701205
G1 X97.753 Y104.726 E.03234
;WIDTH:0.666363
G1 X97.662 Y104.729 E.00684
;WIDTH:0.663025
G1 X94.408 Y104.733 E.24296
;WIDTH:0.697004
G1 X94.236 Y104.699 E.01383
;WIDTH:0.733713
G1 X94.063 Y104.664 E.01474
;WIDTH:0.770422
G1 X93.891 Y104.629 E.01546
G1 X93.693 Y104.438 E.02423
G1 X93.494 Y104.629 E.02429
G1 X93.322 Y104.664 E.01546
;WIDTH:0.733712
G1 X93.149 Y104.699 E.01474
;WIDTH:0.697003
G1 X92.977 Y104.733 E.01383
;WIDTH:0.663025
G1 X89.961 Y104.729 E.22519
;WIDTH:0.677965
G1 X89.43 Y104.707 E.04067
;WIDTH:0.718248
G1 X88.848 Y104.649 E.0477
;WIDTH:0.744569
G1 X88.717 Y104.625 E.0113
;WIDTH:0.77089
G1 X88.586 Y104.6 E.01175
G1 X88.438 Y104.501 E.01569
G1 X88.29 Y104.6 E.01569
G1 X88.061 Y104.646 E.02058
;WIDTH:0.721749
G1 X87.561 Y104.686 E.04113
;WIDTH:0.694008
G1 X87.062 Y104.726 E.03931
;WIDTH:0.666268
G1 X86.972 Y104.729 E.00676
;WIDTH:0.663025
G1 X83.673 Y104.733 E.24632
;WIDTH:0.694061
G1 X83.422 Y104.688 E.02003
;WIPE_START
G1 F7200
G1 X83.334 Y104.672 E-.02124
G1 X83.293 Y104.664 E-.00992
G1 X83.029 Y104.467 E-.07823
G1 X82.848 Y104.162 E-.08423
G1 X82.784 Y103.756 E-.09762
G1 X82.783 Y101.614 E-.50876
;WIPE_END
G1 X106.754 Y102.033 F9000
G1 E.8 F1800
;TYPE:External perimeter
;WIDTH:0.63
G1 F1200
G1 X106.409 Y101.789 E.02981
G1 X105.786 Y101.136 E.06367
G1 X105.388 Y100.554 E.04974
G1 X104.981 Y99.701 E.06668
;WIDTH:0.673419
G1 X104.852 Y99.358 E.02784
;WIDTH:0.716838
G1 X104.723 Y99.015 E.02982
;WIDTH:0.730765
G1 X104.707 Y98.977 E.00343
G1 X104.652 Y98.51 E.03908
;WIDTH:0.693654
G1 X104.597 Y98.043 E.03691
;WIDTH:0.656544
G1 X104.585 Y97.282 E.05621
;WIDTH:0.674451
G1 X104.626 Y96.798 E.03696
;WIDTH:0.70279
G1 X104.668 Y96.313 E.03876
G1 X104.813 Y95.857 E.0381
;WIDTH:0.666395
G1 X104.959 Y95.401 E.03595
;WIDTH:0.63
G1 X105.253 Y94.732 E.05155
G1 X105.75 Y93.954 E.06513
G1 X106.206 Y93.443 E.04832
G1 X106.894 Y92.898 E.06192
G1 X107.473 Y92.59 E.04627
G1 X108.08 Y92.387 E.04515
G1 X108.942 Y92.282 E.06126
G1 X121.717 Y92.288 E.90124
G1 X122.275 Y92.334 E.0395
G1 X123.097 Y92.488 E.059
G1 X123.906 Y92.744 E.05986
G1 X124.437 Y92.973 E.0408
G1 X124.947 Y93.242 E.04068
G1 X125.44 Y93.553 E.04112
G1 X125.913 Y93.904 E.04155
G1 X126.578 Y94.496 E.06281
G1 X126.997 Y94.941 E.04312
G1 X127.386 Y95.416 E.04331
G1 X127.914 Y96.179 E.06546
G1 X128.233 Y96.728 E.04479
G1 X128.517 Y97.298 E.04493
G1 X128.769 Y97.89 E.04539
G1 X129.081 Y98.808 E.0684
G1 X129.247 Y99.446 E.04651
G1 X129.427 Y100.413 E.06939
G1 X129.502 Y101.075 E.047
G1 X129.539 Y101.737 E.04678
G1 X129.545 Y102.488 E.05298
G1 X129.499 Y102.644 E.01147
G1 X129.311 Y102.768 E.01589
G1 X129.262 Y102.772 E.00347
G1 X108.939 Y102.772 E1.43373
G1 X107.008 Y102.213 E.14182
G1 X106.827 Y102.085 E.01564
;WIPE_START
G1 F7200
G1 X106.754 Y102.033 E-.02129
G1 X106.409 Y101.789 E-.10036
G1 X105.786 Y101.136 E-.21435
G1 X105.388 Y100.554 E-.16745
G1 X104.981 Y99.701 E-.22447
G1 X104.874 Y99.417 E-.07208
;WIPE_END
G1 X103.91 Y104.06 F9000
G1 E.8 F1800
G1 F1200
G1 X103.878 Y104.098 E.0035
G1 X103.712 Y104.153 E.01234
G1 X100.654 Y104.147 E.21573
G1 X100.149 Y104.119 E.03568
G1 X99.61 Y104.046 E.03837
G1 X99.457 Y103.971 E.01202
;WIDTH:0.62626
G1 X99.382 Y103.762 E.01556
;WIDTH:0.631965
G1 X99.4 Y100.908 E.20204
G1 X99.513 Y100.685 E.0177
;WIDTH:0.63
G1 X99.664 Y100.629 E.01136
G1 X100.576 Y100.567 E.06449
G1 X101.873 Y100.563 E.0915
G1 X101.873 Y94.492 E.42829
G1 X100.595 Y94.489 E.09016
G1 X99.664 Y94.426 E.06583
G1 X99.513 Y94.37 E.01136
;WIDTH:0.631965
G1 X99.4 Y94.147 E.0177
G1 X99.382 Y91.293 E.20204
;WIDTH:0.62892
G1 X99.456 Y91.083 E.01568
;WIDTH:0.63
G1 X99.621 Y91.008 E.01279
G1 X100.654 Y90.908 E.07322
G1 X103.712 Y90.902 E.21573
G1 X103.878 Y90.956 E.01231
G1 X103.971 Y91.071 E.01043
G1 X103.995 Y92.317 E.08792
G1 X103.995 Y95.268 E.20818
;WIDTH:0.660202
G1 X104.01 Y95.721 E.03368
;WIDTH:0.690405
G1 X104.025 Y96.174 E.03539
G1 X104.004 Y97.209 E.08083
;WIDTH:0.652978
G1 X104.007 Y98.008 E.05866
;WIDTH:0.6914
G1 X104.026 Y98.516 E.03976
;WIDTH:0.729822
G1 X104.045 Y99.023 E.04211
G1 X104.02 Y99.415 E.0326
;WIDTH:0.679911
G1 X103.995 Y99.808 E.03023
;WIDTH:0.63
G1 X103.995 Y103.87 E.28656
G1 X103.971 Y103.984 E.00822
G1 X103.966 Y103.99 E.00055
;WIPE_START
G1 F7200
G1 X103.91 Y104.06 E-.02129
G1 X103.878 Y104.098 E-.0118
G1 X103.712 Y104.153 E-.04153
G1 X100.658 Y104.147 E-.72538
;WIPE_END
G1 X98.791 Y103.925 F9000
G1 E.8 F1800
;WIDTH:0.62626
G1 F1200
G1 X98.774 Y103.971 E.00344
;WIDTH:0.63
G1 X98.614 Y104.046 E.01247
G1 X97.661 Y104.147 E.06761
G1 X94.408 Y104.153 E.22949
;WIDTH:0.664771
G1 X94.166 Y104.047 E.01978
;WIDTH:0.703077
G1 X94.127 Y103.988 E.00563
;WIDTH:0.741384
G1 X94.089 Y103.929 E.00593
;WIDTH:0.779691
G1 X94.05 Y103.87 E.00631
G1 X94.05 Y92.563 E1.00878
G1 X94.274 Y92.267 E.03312
;WIDTH:0.729794
G1 X94.499 Y91.971 E.03086
;WIDTH:0.679897
G1 X94.723 Y91.675 E.0285
;WIDTH:0.63
G1 X95.22 Y91.015 E.05829
G1 X95.447 Y90.902 E.01789
G1 X97.684 Y90.908 E.15781
G1 X98.614 Y91.009 E.06599
G1 X98.775 Y91.083 E.0125
;WIDTH:0.62892
G1 X98.85 Y91.293 E.0157
;WIDTH:0.631965
G1 X98.832 Y94.147 E.20204
G1 X98.719 Y94.37 E.0177
;WIDTH:0.63
G1 X98.568 Y94.426 E.01136
G1 X97.656 Y94.488 E.06449
G1 X96.359 Y94.492 E.0915
G1 X96.359 Y100.563 E.42829
G1 X97.637 Y100.566 E.09016
G1 X98.568 Y100.629 E.06583
G1 X98.719 Y100.685 E.01136
;WIDTH:0.631965
G1 X98.832 Y100.908 E.0177
G1 X98.85 Y103.762 E.20204
;WIDTH:0.62626
G1 X98.821 Y103.84 E.00583
;WIPE_START
G1 F7200
G1 X98.791 Y103.925 E-.02141
G1 X98.774 Y103.971 E-.01165
G1 X98.614 Y104.046 E-.04197
G1 X97.661 Y104.147 E-.22761
G1 X95.567 Y104.151 E-.49736
;WIPE_END
G1 X91.154 Y98.526 F9000
G1 E.8 F1800
;WIDTH:0.918433
G1 F1200
G1 X91.158 Y98.452 E.00789
;WIDTH:0.912011
G1 X91.158 Y96.603 E.19548
;WIPE_START
G1 F7200
G1 X91.154 Y98.526 E-.45671
G1 X91.158 Y98.452 E-.0176
G1 X91.158 Y97.08 E-.32569
;WIPE_END
G1 X85.719 Y96.603 F9000
G1 E.8 F1800
G1 F1200
G1 X85.719 Y98.452 E.19548
;WIDTH:0.918433
G1 X85.723 Y98.526 E.00789
G1 X85.723 Y98.526 F9000
G1 X85.985 Y98.718
;WIDTH:0.73501
G1 F1200
G1 X85.947 Y98.69 E.00395
;WIDTH:0.780866
G1 X85.891 Y98.649 E.0062
;WIDTH:0.826721
G1 X85.835 Y98.608 E.0066
;WIDTH:0.872577
G1 X85.779 Y98.567 E.007
;WIDTH:0.918433
G1 X85.723 Y98.526 E.00739
G1 X85.7 Y98.621 E.01041
;WIDTH:0.872577
G1 X85.677 Y98.716 E.00985
;WIDTH:0.826721
G1 X85.655 Y98.812 E.00936
;WIDTH:0.780866
G1 X85.632 Y98.907 E.00873
;WIDTH:0.73501
G1 X85.609 Y99.002 E.00818
;WIDTH:0.689155
G1 X85.631 Y99.381 E.02958
;WIDTH:0.659577
G1 X85.652 Y99.759 E.0281
;WIDTH:0.63
G1 X85.676 Y100.563 E.05675
G1 X86.959 Y100.566 E.09051
G1 X87.89 Y100.628 E.06582
;WIDTH:0.630162
G1 X88.073 Y100.712 E.01421
;WIDTH:0.631998
G1 X88.155 Y100.907 E.01498
G1 X88.172 Y103.762 E.20213
;WIDTH:0.626258
G1 X88.097 Y103.971 E.01556
;WIDTH:0.63
G1 X87.936 Y104.046 E.01253
G1 X86.971 Y104.147 E.06845
