;FLAVOR:Marlin
;TIME:1812
;Filament used: 1.93945m
;Layer height: 0.2
;MINX:79.291
;MINY:101.294
;MINZ:0.2
;MAXX:140.696
;MAXY:118.704
;MAXZ:14
;TARGET_MACHINE.NAME:Creality Ender-3 S1
;Generated with Cura_SteamEngine 5.9.0
M82 ;absolute extrusion mode
; Ender 3 S1 Start G-code
; M413 S0 ; Disable power loss recovery
M201 X500.00 Y500.00 Z100.00 E5000.00 ;Setup machine max acceleration
M203 X500.00 Y500.00 Z20.00 E50.00 ;Setup machine max feedrate
M204 P500.00 R1000.00 T500.00 ;Setup Print/Retract/Travel acceleration
M205 X8.00 Y8.00 Z0.40 E5.00 ;Setup Jerk
M220 S100 ;Reset Feedrate
M221 S100 ;Reset Flowrate
G92 E0 ; Reset Extruder

; Prep surfaces before auto home for better accuracy
M140 S60
M104 S200
G92 E0 ; Reset Extruder
G28 ; Home all axes
M420 S1 Z10; Use Level Mesh up to 2mm;
G1 Z10.0 F3000 ; Move Z Axis up little to prevent scratching of Heat Bed
G1 X0 Y0

M190 S60
M109 S200

G1 X0.1 Y20 Z0.3 F5000.0 ; Move to start position
G1 X0.1 Y200.0 Z0.3 F1500.0 E15 ; Draw the first line
G1 X0.4 Y200.0 Z0.3 F5000.0 ; Move to side a little
G1 X0.4 Y20 Z0.3 F1500.0 E30 ; Draw the second line
G92 E0 ; Reset Extruder
G1 Z2.0 F3000 ; Move Z Axis up little to prevent scratching of Heat Bed
G1 X5 Y20 Z0.3 F5000.0 ; Move over to prevent blob squish
G92 E0
G92 E0
G1 F2400 E-0.8
;LAYER_COUNT:70
;LAYER:0
M107
M204 S2000
;MESH:tmptfgp__xfAA_Battery_socket.stl
G0 F7500 X88.57 Y108.162 Z0.2
M204 S500
;TYPE:WALL-INNER
G1 F2400 E0
G1 F1331.4 X88.57 Y107.486 E0.038
G1 X86.968 Y107.486 E0.12805
G1 F1257 X86.51 Y107.412 E0.15567
G1 F1192.1 X86.334 Y107.279 E0.16952
G1 X86.158 Y107.412 E0.18336
G1 F1253.5 X85.827 Y107.486 E0.20361
G1 F1327.4 X84.098 Y107.486 E0.30109
G1 F1331.4 X84.098 Y108.162 E0.33909
G1 F1321.6 X85.922 Y108.157 E0.44237
G1 F1250 X86.334 Y108.123 E0.46712
G1 F1257 X86.968 Y108.162 E0.50494
G1 F1331.4 X88.57 Y108.162 E0.59498
M204 S2000
G1 F2400 E-0.20502
G0 F7500 X88.231 Y107.823
G0 X86.334 Y108.473
G0 X86.334 Y111.527
G0 X86.334 Y112.14
G0 X86.334 Y112.717
M204 S500
G1 F2400 E0.59498
G1 F1192.1 X86.51 Y112.584 E0.60883
G1 F1253.5 X86.841 Y112.51 E0.62908
G1 F1327.4 X88.57 Y112.51 E0.72656
G1 F1331.4 X88.57 Y111.834 E0.76455
G1 F1321.6 X86.746 Y111.839 E0.86784
G1 F1250 X86.334 Y111.873 E0.89259
G1 F1257 X85.7 Y111.834 E0.93041
G1 F1331.4 X84.098 Y111.834 E1.02045
G1 X84.098 Y112.51 E1.05845
G1 X85.7 Y112.51 E1.1485
G1 F1257 X86.158 Y112.584 E1.17612
G1 F1192.1 X86.334 Y112.717 E1.18997
M204 S2000
G1 F2400 E0.38997
G0 F7500 X86.334 Y112.14
G0 X88.887 Y112.826
G0 X91.352 Y112.826
G0 X91.787 Y112.903
G0 X91.799 Y116.848
G0 X102.115 Y116.848
G0 X102.126 Y114.949
G0 X109.999 Y116.135
G0 X110 Y115.725
M204 S500
G1 F2400 E1.18997
G1 F1500 X106.672 Y115.725 E1.356
G1 X106.191 Y115.675 E1.38013
G1 X105.563 Y115.537 E1.41221
G1 X104.887 Y115.25 E1.44885
G1 X104.263 Y114.859 E1.48559
G1 X103.762 Y114.424 E1.51869
G1 X103.413 Y114.049 E1.54425
G1 X103.114 Y113.658 E1.5688
G1 X102.841 Y113.228 E1.59421
G1 X102.557 Y112.695 E1.62435
G1 X102.376 Y112.21 E1.65017
G1 X102.374 Y116.277 E1.85308
G1 X102.281 Y116.611 E1.87037
G1 F1497.5 X101.985 Y116.952 E1.89294
G1 F1384.6 X101.627 Y117.154 E1.91515
G1 F1293.1 X97.576 Y117.154 E2.1496
G1 F1243.1 X97.169 Y117.097 E2.17434
G1 F1192.1 X97.012 Y116.993 E2.18616
G1 X96.855 Y117.097 E2.19798
G1 F1238 X96.574 Y117.154 E2.21532
G1 F1293.1 X92.436 Y117.155 E2.45479
G1 F1178 X91.834 Y117.027 E2.49389
G1 F1080.4 X91.584 Y116.768 E2.51882
G1 X91.342 Y117.027 E2.54338
G1 F1174.9 X90.872 Y117.155 E2.5744
G1 F1293.1 X86.9 Y117.155 E2.80427
G1 F1241.4 X86.491 Y117.097 E2.82917
G1 F1190.5 X86.334 Y116.992 E2.84105
G1 X86.177 Y117.097 E2.85292
G1 F1236.3 X85.888 Y117.155 E2.87076
G1 F1293.1 X81.7 Y117.155 E3.11313
G1 F1271.2 X81.422 Y117.129 E3.12957
G1 F1219.5 X81.212 Y117.055 E3.14323
G1 F1196.8 X80.944 Y116.825 E3.16532
G1 F1209.7 X80.794 Y116.555 E3.18443
G1 F1217.9 X80.728 Y116.296 E3.20085
G1 F1214.6 X80.728 Y103.725 E3.9754
G1 X80.774 Y103.499 E3.98961
G1 F1212.9 X80.895 Y103.241 E4.0072
G1 F1200 X81.041 Y103.065 E4.02146
G1 F1208.1 X81.346 Y102.886 E4.04336
G1 F1257 X81.579 Y102.843 E4.05747
G1 F1300.6 X85.768 Y102.843 E4.29851
G1 F1248.3 X86.177 Y102.901 E4.32327
G1 F1196.8 X86.334 Y103.006 E4.33508
G1 X86.491 Y102.901 E4.34689
G1 F1243.1 X86.775 Y102.843 E4.36434
G1 F1298.7 X90.74 Y102.843 E4.59282
G1 F1184.2 X91.342 Y102.971 E4.63171
G1 F1084.3 X91.588 Y103.212 E4.65548
G1 X91.834 Y102.971 E4.67924
G1 F1179.6 X92.301 Y102.843 E4.70997
G1 F1296.8 X96.448 Y102.843 E4.94927
G1 F1246.5 X96.855 Y102.9 E4.97395
G1 F1195.2 X97.012 Y103.004 E4.98574
G1 X97.169 Y102.9 E4.99753
G1 F1243.1 X97.452 Y102.843 E5.01491
G1 F1296.8 X101.476 Y102.843 E5.24712
G1 F1393.2 X101.984 Y103.045 E5.27648
G1 F1500 X102.281 Y103.385 E5.29901
G1 X102.374 Y103.719 E5.3163
G1 X102.376 Y107.776 E5.51871
G1 X102.572 Y107.27 E5.54578
G1 X102.863 Y106.716 E5.577
G1 X103.196 Y106.199 E5.60768
G1 X103.624 Y105.706 E5.64025
G1 X103.991 Y105.36 E5.66542
G1 X104.311 Y105.108 E5.68574
G1 X104.857 Y104.755 E5.71818
G1 X105.537 Y104.467 E5.75502
G1 X106.116 Y104.333 E5.78467
G1 X106.588 Y104.272 E5.80841
G1 X119.666 Y104.275 E6.46088
G1 X120.279 Y104.328 E6.49157
G1 X120.799 Y104.416 E6.51788
G1 X121.155 Y104.497 E6.5361
G1 X121.716 Y104.667 E6.56534
G1 X121.976 Y104.763 E6.57917
G1 X122.555 Y105.01 E6.61058
G1 X122.856 Y105.163 E6.62742
G1 X123.32 Y105.435 E6.65426
G1 X123.874 Y105.811 E6.68766
G1 X124.103 Y105.987 E6.70207
G1 X124.563 Y106.381 E6.73229
G1 X124.814 Y106.62 E6.74958
G1 X125.239 Y107.07 E6.78046
G1 X125.692 Y107.62 E6.81601
G1 X126.055 Y108.137 E6.84752
G1 X126.409 Y108.705 E6.88091
G1 X126.719 Y109.285 E6.91372
G1 X126.998 Y109.897 E6.94728
G1 X127.222 Y110.465 E6.97774
G1 X127.452 Y111.174 E7.01493
G1 X127.615 Y111.81 E7.04768
G1 X127.692 Y112.159 E7.06551
G1 X127.807 Y112.838 E7.09987
G1 X127.883 Y113.521 E7.13416
G1 X127.919 Y114.161 E7.16614
G1 X127.93 Y114.949 E7.20545
G1 X127.791 Y115.308 E7.22466
G1 X127.472 Y115.612 E7.24665
G1 X127.148 Y115.728 E7.26381
G1 X110 Y115.725 E8.11933
M204 S2000
G0 F7500 X109.999 Y116.135
G0 X110 Y117.201
M204 S500
G1 F1150.9 X127.028 Y117.201 E9.22655
G1 F1139.2 X127.373 Y117.194 E9.24922
G1 F1289.4 X128.072 Y117.293 E9.29019
G1 F1500 X128.696 Y117.293 E9.32133
G1 X128.692 Y115.74 E9.39881
G1 F1298.7 X128.599 Y115.103 E9.4359
G1 X128.299 Y115.627 E9.47069
G1 F1500 X127.767 Y116.134 E9.50736
G1 F1289.4 X127.305 Y116.402 E9.53836
G1 F1139.2 X127.028 Y116.419 E9.55659
G1 F1149.4 X106.672 Y116.417 E10.8819
G1 F1127.8 X106.109 Y116.376 E10.91936
G1 F1274.8 X105.506 Y116.139 E10.95739
G1 F1500 X105.252 Y116.057 E10.97071
G1 X104.613 Y115.785 E11.00535
G1 X103.914 Y115.349 E11.04645
G1 X103.375 Y114.888 E11.08184
G1 X102.976 Y114.459 E11.11107
G1 X102.972 Y116.322 E11.20401
G1 X102.818 Y116.879 E11.23285
G1 X102.455 Y117.294 E11.26035
G1 X105.376 Y117.294 E11.40608
G1 F1347.3 X105.844 Y117.228 E11.43233
G1 F1162.8 X106.062 Y117.187 E11.44661
G1 F1127.8 X106.672 Y117.201 E11.4871
G1 F1149.4 X110 Y117.201 E11.70377
M204 S2000
G1 F2400 E10.90377
G0 F7500 X105.003 Y115.028
G0 X104.418 Y114.661
G0 X103.638 Y113.926
G0 X103.122 Y113.167
G0 X102.087 Y112.561
G0 X99.556 Y112.561
G0 X99.297 Y112.561
M204 S500
G1 F2400 E11.70377
G1 F1567.9 X99.297 Y111.783 E11.7409
G1 X98.723 Y111.783 E11.7683
G1 X98.723 Y112.456 E11.80042
G1 X98.635 Y112.561 E11.80696
G1 X99.297 Y112.561 E11.83856
M204 S2000
G1 F2400 E11.03856
G0 F7500 X98.468 Y112.561
G0 X95.558 Y112.561
G0 X95.406 Y112.561
M204 S500
G1 F2400 E11.83856
G1 F1567.9 X95.301 Y112.456 E11.84564
G1 X95.301 Y111.783 E11.87777
G1 X94.727 Y111.783 E11.90516
G1 X94.727 Y112.561 E11.94229
G1 X95.406 Y112.561 E11.9747
M204 S2000
G1 F2400 E11.1747
G0 F7500 X95.301 Y111.527
G0 X95.301 Y108.473
G0 X95.301 Y108.213
M204 S500
G1 F2400 E11.9747
G1 F1567.9 X95.301 Y107.544 E12.00663
G1 X95.392 Y107.435 E12.01341
G1 X94.727 Y107.435 E12.04515
G1 X94.727 Y108.213 E12.08228
G1 X95.301 Y108.213 E12.10968
M204 S2000
G1 F2400 E11.30968
G0 F7500 X95.558 Y108.213
G0 X98.468 Y108.213
G0 X99.297 Y108.213
M204 S500
G1 F2400 E12.10968
G1 F1567.9 X99.297 Y107.435 E12.14681
G1 X98.614 Y107.435 E12.17941
G1 X98.723 Y107.544 E12.18676
G1 X98.723 Y108.213 E12.2187
G1 X99.297 Y108.213 E12.24609
M204 S2000
G1 F2400 E11.44609
G0 F7500 X99.562 Y108.479
G0 X102.368 Y108.986
G0 X102.563 Y108
G0 X103.065 Y106.872
G0 X103.392 Y106.362
G0 X104.123 Y105.577
G0 X104.978 Y104.98
G0 X105.606 Y104.713
G0 X106.608 Y104.526
G0 X119.626 Y104.526
G0 X121.066 Y104.736
G0 X122.429 Y105.231
G0 X123.71 Y106.003
G0 X124.648 Y106.809
G0 X125.313 Y107.567
G0 X128.486 Y112.023
M204 S500
G1 F2400 E12.24609
G1 F1053.9 X128.644 Y111.565 E12.28049
G1 F1388.9 X128.692 Y110.941 E12.31422
G1 F1500 X128.698 Y102.701 E12.72531
G1 X122.035 Y102.702 E13.05773
G1 F1456.3 X121.505 Y102.721 E13.08498
G1 F1198.4 X120.993 Y102.835 E13.11774
G1 F1067.6 X120.465 Y102.812 E13.15478
G1 F1120.8 X119.592 Y102.794 E13.21309
G1 F1148 X106.648 Y102.796 E14.0569
G1 F1119.4 X105.923 Y102.815 E14.10539
G1 F1264 X105.334 Y102.706 E14.14085
G1 F1497.5 X102.458 Y102.705 E14.28457
G1 F1500 X102.818 Y103.116 E14.31183
G1 X102.972 Y103.673 E14.34066
G1 X102.977 Y105.534 E14.43351
G1 X103.208 Y105.273 E14.4509
G1 X103.62 Y104.889 E14.479
G1 X104.061 Y104.551 E14.50672
G1 X104.578 Y104.222 E14.53729
G1 X105.224 Y103.948 E14.5723
G1 F1497.5 X105.468 Y103.866 E14.58516
G1 F1264 X105.994 Y103.632 E14.61925
G1 F1116.6 X106.528 Y103.58 E14.6552
G1 F1140.7 X119.723 Y103.583 E15.52087
G1 F1119.4 X120.397 Y103.628 E15.56603
G1 F1067.6 X120.921 Y103.694 E15.60305
G1 F1149.4 X121.238 Y103.848 E15.62599
G1 F1345.3 X121.332 Y103.905 E15.63211
G1 F1456.3 X121.924 Y104.105 E15.66422
G1 F1500 X122.253 Y104.228 E15.68174
G1 X122.741 Y104.435 E15.70819
G1 X123.159 Y104.645 E15.73153
G1 X123.623 Y104.917 E15.75836
G1 X124.167 Y105.282 E15.79104
G1 X124.469 Y105.512 E15.80998
G1 X124.954 Y105.925 E15.84176
G1 X125.276 Y106.234 E15.86403
G1 X125.742 Y106.734 E15.89813
G1 X126.182 Y107.274 E15.93288
G1 X126.563 Y107.818 E15.96602
G1 X126.938 Y108.421 E16.00144
G1 X127.222 Y108.949 E16.03135
G1 X127.556 Y109.677 E16.07131
G1 X127.78 Y110.245 E16.10177
G1 F1388.9 X128.235 Y111.617 E16.17966
G1 F1053.9 X128.486 Y112.023 E16.21355
G1 F946.4 X128.547 Y112.754 E16.27156
G1 F1053.9 X128.583 Y113.39 E16.31679
G1 F1130.7 X128.605 Y114.123 E16.36533
G1 F1170.4 X128.61 Y114.807 E16.40907
G1 F1161.3 X128.599 Y115.103 E16.42816
M204 S2000
G0 F7500 X128.277 Y115.806
G0 X128.275 Y116.068
G0 X126.283 Y116.061
G0 X110 Y117.484
G0 X110 Y117.894
M204 S500
G1 F1500 X129.618 Y117.893 E17.4069
G1 X129.471 Y117.821 E17.41507
G1 X129.292 Y117.28 E17.4435
G1 X129.292 Y102.72 E18.1699
G1 X129.472 Y102.179 E18.19835
G1 X129.599 Y102.101 E18.20578
G1 X102.274 Y102.105 E19.56903
G1 F1393.2 X101.476 Y102.151 E19.61197
G1 F1293.1 X97.352 Y102.155 E19.85063
G1 F1238 X97.012 Y102.181 E19.87125
G1 F1246.5 X96.448 Y102.151 E19.90515
G1 F1293.1 X92.212 Y102.156 E20.1503
G1 F1174.9 X91.588 Y102.222 E20.19027
G1 F1184.2 X90.74 Y102.151 E20.24405
G1 F1293.1 X86.676 Y102.157 E20.47924
G1 F1239.7 X86.334 Y102.184 E20.49995
G1 F1248.3 X85.768 Y102.153 E20.53393
G1 F1295 X81.476 Y102.157 E20.78197
G1 F1253.5 X81.186 Y102.176 E20.79932
G1 F1209.7 X80.915 Y102.249 E20.81668
G1 F1193.6 X80.649 Y102.408 E20.83611
G1 X80.381 Y102.674 E20.85978
G1 F1206.4 X80.162 Y103.037 E20.88608
G1 F1216.2 X80.066 Y103.284 E20.90239
G1 F1212.9 X79.978 Y103.703 E20.9288
G1 F1206.4 X79.978 Y116.146 E21.70064
G1 F1209.7 X80.008 Y116.457 E21.71997
G1 F1219.5 X80.101 Y116.809 E21.74231
G1 F1214.6 X80.283 Y117.208 E21.76933
G1 F1203.2 X80.619 Y117.585 E21.80074
G1 F1198.4 X80.992 Y117.776 E21.82691
G1 F1222.8 X81.304 Y117.835 E21.84634
G1 F1271.2 X81.7 Y117.849 E21.86967
G1 F1285.7 X85.993 Y117.845 E22.11955
G1 F1232.9 X86.334 Y117.818 E22.14031
G1 F1241.4 X86.9 Y117.849 E22.17448
G1 F1285.7 X90.965 Y117.845 E22.41109
G1 F1170.4 X91.588 Y117.78 E22.45114
G1 F1178 X92.436 Y117.849 E22.50519
G1 F1287.6 X96.673 Y117.843 E22.75145
G1 F1232.9 X97.012 Y117.818 E22.77208
G1 F1243.1 X97.576 Y117.848 E22.80608
G1 F1289.4 X101.701 Y117.843 E23.0455
G1 F1378.3 X102.275 Y117.894 E23.07678
G1 F1497.5 X110 Y117.894 E23.46283
M204 S2000
G1 F2400 E22.66283
G0 F7500 X110 Y117.484
G0 X129.554 Y117.918
G0 X139.348 Y117.918
G0 X139.502 Y117.607
M204 S500
G1 F2400 E23.46283
G1 F1698.1 X139.597 Y117.52 E23.46851
G1 X139.8 Y117.255 E23.48322
G1 X139.928 Y117.007 E23.49552
G1 X140.031 Y116.738 E23.50821
G1 X140.1 Y116.413 E23.52285
G1 F1679.1 X140.121 Y116.158 E23.53426
G1 F1660.5 X140.121 Y114.584 E23.60519
G1 F1535.8 X140.078 Y113.952 E23.63606
G1 F1525.4 X140.117 Y113.518 E23.65744
G1 F1648.4 X140.121 Y103.84 E24.09682
G1 F1682.2 X140.095 Y103.515 E24.11132
G1 F1704.5 X140.009 Y103.193 E24.12595
G1 X139.774 Y102.681 E24.15069
G1 X139.501 Y102.39 E24.1682
G1 X139.571 Y102.652 E24.18011
G1 F1682.2 X139.579 Y103.853 E24.23354
G1 F1654.4 X139.579 Y113.438 E24.6671
G1 F1530.6 X139.493 Y113.791 E24.68487
G1 F1430.8 X139.354 Y113.952 E24.69599
G1 X139.493 Y114.113 E24.70712
G1 F1535.8 X139.579 Y114.584 E24.73045
G1 F1679.1 X139.573 Y117.28 E24.8506
G1 F1698.1 X139.502 Y117.607 E24.86535
M204 S2000
G1 F2400 E24.06535
G0 F7500 X139.348 Y117.918
G0 X130.192 Y117.99
G0 X130.192 Y117.658
M204 S500
;TYPE:WALL-OUTER
G1 F2400 E24.86535
G1 F1327.4 X129.951 Y117.461 E24.8829
G1 F1500 X129.892 Y117.28 E24.8924
G1 X129.892 Y102.72 E25.6188
G1 X129.952 Y102.539 E25.62831
G1 F1319.6 X130.126 Y102.343 E25.64317
G1 F1178 X138.777 Y102.34 E26.19275
G1 F1165.8 X138.91 Y102.386 E26.20178
G1 F1274.8 X139.008 Y102.576 E26.21433
G1 F1437.7 X139.006 Y107.974 E26.49531
G1 F1480.3 X139.004 Y113.372 E26.7682
G1 F1495 X138.903 Y113.551 E26.77849
G1 F1456.3 X138.713 Y113.636 E26.78919
G1 F1428.6 X138.224 Y113.632 E26.81481
G1 F1463.4 X137.91 Y113.617 E26.83088
G1 F1530.6 X137.537 Y113.514 E26.8498
G1 F1639.3 X137.257 Y113.343 E26.86478
G1 F1768.2 X136.911 Y113.002 E26.88534
G1 F1829.3 X136.666 Y112.618 E26.90397
G1 X136.543 Y112.191 E26.92215
G1 F1792.8 X136.497 Y111.905 E26.93424
G1 F1724.1 X136.485 Y111.498 E26.95192
G1 F1685.4 X136.477 Y106.726 E27.1638
G1 F1691.7 X136.404 Y106.315 E27.18227
G1 X136.191 Y105.892 E27.20322
G1 F1679.1 X135.978 Y105.675 E27.21677
G1 F1666.7 X135.735 Y105.513 E27.22989
G1 F1648.4 X135.368 Y105.406 E27.24724
G1 F1636.4 X133.777 Y105.403 E27.32
G1 F1595.7 X133.42 Y105.527 E27.33773
G1 F1500 X133.01 Y105.821 E27.3629
G1 F1415.1 X132.782 Y106.184 E27.38556
G1 F1351.4 X132.665 Y106.482 E27.40329
G1 F1293.1 X132.582 Y106.841 E27.42462
G1 F1243.1 X132.562 Y107.248 E27.44915
G1 F1219.5 X132.564 Y113.822 E27.85256
G1 F1222.8 X132.609 Y114.064 E27.86763
G1 X132.742 Y114.338 E27.88627
G1 X132.926 Y114.528 E27.90245
G1 X133.3 Y114.706 E27.9278
G1 F1219.5 X133.302 Y107.248 E28.38546
G1 F1243.1 X133.32 Y106.619 E28.42334
G1 F1376.1 X133.457 Y106.234 E28.44557
G1 F1530.6 X133.729 Y106.006 E28.46292
G1 F1595.7 X133.871 Y105.949 E28.47009
G1 F1636.4 X135.32 Y105.954 E28.53636
G1 F1648.4 X135.526 Y106.017 E28.54614
G1 F1679.1 X135.798 Y106.248 E28.56205
G1 F1701.3 X135.939 Y106.625 E28.57975
G1 F1694.9 X135.952 Y111.522 E28.79597
G1 F1711 X135.977 Y111.862 E28.81088
G1 F1764.7 X136.042 Y112.226 E28.82656
G1 F1814.5 X136.176 Y112.697 E28.84675
G1 F1829.3 X136.363 Y113.069 E28.86379
G1 F1785.7 X136.655 Y113.476 E28.88478
G1 F1737.5 X136.925 Y113.746 E28.90123
G1 F1685.4 X137.161 Y113.924 E28.91435
G1 F1618.7 X137.431 Y114.07 E28.92854
G1 F1551.7 X137.683 Y114.17 E28.94162
G1 F1492.5 X137.937 Y114.234 E28.95475
G1 F1446.9 X138.199 Y114.262 E28.96838
G1 F1428.6 X138.713 Y114.268 E28.99531
G1 F1456.3 X138.903 Y114.353 E29.006
G1 F1495 X139.008 Y114.584 E29.0187
G1 F1500 X139.008 Y117.326 E29.1555
G1 F1419.6 X138.95 Y117.511 E29.16572
G1 F1257 X138.831 Y117.656 E29.17689
G1 F1185.8 X130.192 Y117.658 E29.72211
M204 S2000
G1 F2400 E28.92211
G0 F7500 X130.192 Y117.99
G0 X110 Y117.484
G0 X110 Y118.494
M204 S500
G1 F2400 E29.72211
G1 F1500 X129.435 Y118.493 E30.69172
G1 F1327.4 X130.192 Y118.414 E30.73463
G1 F1187.3 X138.85 Y118.412 E31.28033
