;FLAVOR:Marlin
;TIME:1728
;Filament used: 1.95244m
;Layer height: 0.2
;MINX:77.068
;MINY:99.816
;MINZ:0.2
;MAXX:142.928
;MAXY:127.608
;MAXZ:11.2
;TARGET_MACHINE.NAME:Creality Ender-3 S1
;Generated with Cura_SteamEngine 5.9.0
M82 ;absolute extrusion mode
; Ender 3 S1 Start G-code
; M413 S0 ; Disable power loss recovery
M201 X500.00 Y500.00 Z100.00 E5000.00 ;Setup machine max acceleration
M203 X500.00 Y500.00 Z20.00 E50.00 ;Setup machine max feedrate
M204 P500.00 R1000.00 T500.00 ;Setup Print/Retract/Travel acceleration
M205 X8.00 Y8.00 Z0.40 E5.00 ;Setup Jerk
M220 S100 ;Reset Feedrate
M221 S100 ;Reset Flowrate
G92 E0 ; Reset Extruder

; Prep surfaces before auto home for better accuracy
M140 S60
M104 S200
G92 E0 ; Reset Extruder
G28 ; Home all axes
M420 S1 Z10; Use Level Mesh up to 2mm;
G1 Z10.0 F3000 ; Move Z Axis up little to prevent scratching of Heat Bed
G1 X0 Y0

M190 S60
M109 S200

G1 X0.1 Y20 Z0.3 F5000.0 ; Move to start position
G1 X0.1 Y200.0 Z0.3 F1500.0 E15 ; Draw the first line
G1 X0.4 Y200.0 Z0.3 F5000.0 ; Move to side a little
G1 X0.4 Y20 Z0.3 F1500.0 E30 ; Draw the second line
G92 E0 ; Reset Extruder
G1 Z2.0 F3000 ; Move Z Axis up little to prevent scratching of Heat Bed
G1 X5 Y20 Z0.3 F5000.0 ; Move over to prevent blob squish
G92 E0
G92 E0
G1 F2400 E-0.8
;LAYER_COUNT:56
;LAYER:0
M107
M204 S2000
;MESH:vl530lo_sensor_mount.stl
G0 F7500 X89.303 Y111.123 Z0.2
M204 S500
;TYPE:WALL-INNER
G1 F2400 E0
G1 F1500 X88.542 Y110.939 E0.03906
G1 X87.984 Y110.663 E0.07012
G1 X87.352 Y110.183 E0.10971
G1 X86.905 Y109.515 E0.14981
G1 X86.677 Y108.944 E0.18049
G1 X86.538 Y108.17 E0.21972
G1 X86.609 Y107.601 E0.24833
G1 X86.736 Y107.084 E0.27489
G1 X87.011 Y106.523 E0.30606
G1 X87.285 Y106.144 E0.32939
G1 X87.659 Y105.779 E0.35546
G1 X87.865 Y105.629 E0.36817
G1 X88.446 Y105.321 E0.40098
G1 X88.681 Y105.235 E0.41347
G1 F1243.1 X89.21 Y105.001 E0.44829
G1 F1051.4 X89.745 Y104.981 E0.4864
G1 F1155.3 X89.988 Y105.09 E0.50365
G1 F1388.9 X90.666 Y105.324 E0.54229
G1 F1500 X91.123 Y105.543 E0.56758
G1 X91.518 Y105.819 E0.59162
G1 X91.897 Y106.207 E0.61868
G1 X92.049 Y106.417 E0.63161
G1 X92.346 Y106.983 E0.6635
G1 X92.565 Y107.741 E0.70286
G1 X92.535 Y108.535 E0.7425
G1 X92.381 Y109.144 E0.77384
G1 X92.114 Y109.701 E0.80466
G1 X91.737 Y110.191 E0.8355
G1 X91.248 Y110.594 E0.86712
G1 X90.686 Y110.895 E0.89892
G1 X90.091 Y111.068 E0.92984
G1 X89.303 Y111.123 E0.96925
M204 S2000
G1 F2400 E0.16925
G0 F7500 X89.203 Y111.524
G0 X91.742 Y111.311
G0 X93.41 Y107.65
G0 X91.537 Y104.753
G0 X107.127 Y103.675
G0 X105.686 Y107.187
G0 X107.513 Y109.68
G0 X109.524 Y110.158
G0 X109.567 Y109.753
M204 S500
G1 F2400 E0.96925
G1 F1500 X109.019 Y109.683 E0.99681
G1 X108.501 Y109.552 E1.02347
G1 X107.78 Y109.211 E1.06326
G1 X107.208 Y108.654 E1.10309
G1 X106.87 Y108.142 E1.1337
G1 X106.633 Y107.56 E1.16505
G1 X106.516 Y106.946 E1.19623
G1 X106.538 Y106.341 E1.22644
G1 X106.604 Y105.956 E1.24592
G1 X106.685 Y105.708 E1.25894
G1 X106.97 Y105.134 E1.29091
G1 X107.351 Y104.639 E1.32208
G1 X107.837 Y104.239 E1.35348
G1 X108.389 Y103.941 E1.38477
G1 X108.985 Y103.772 E1.41568
G1 X109.756 Y103.717 E1.45424
G1 X110.277 Y103.824 E1.48078
G1 X110.834 Y104.026 E1.51034
G1 X111.369 Y104.366 E1.54197
G1 X111.821 Y104.801 E1.57326
G1 X112.168 Y105.32 E1.60441
G1 X112.406 Y105.899 E1.63564
G1 X112.515 Y106.521 E1.66715
G1 X112.494 Y107.121 E1.6971
G1 X112.396 Y107.637 E1.7233
G1 X112.05 Y108.333 E1.76208
G1 X111.582 Y108.933 E1.80004
G1 X111.037 Y109.342 E1.83404
G1 X110.345 Y109.614 E1.87113
G1 X109.567 Y109.753 E1.91056
M204 S2000
G0 F7500 X109.524 Y110.158
G0 X108.382 Y109.889
G0 X107.584 Y109.503
G0 X106.944 Y108.885
G0 X106.553 Y108.304
G0 X106.289 Y107.653
G0 X106.175 Y106.994
G0 X106.165 Y106.457
G0 X106.294 Y105.723
G0 X106.672 Y104.951
G0 X107.104 Y104.398
G0 X107.408 Y104.143
G0 X108.737 Y103.247
M204 S500
G1 F1694.9 X109.035 Y103.21 E1.92382
G1 F1747.6 X109.591 Y103.171 E1.94769
G1 F1663.6 X109.994 Y103.17 E1.96582
M204 S2000
G0 F7500 X127.074 Y102.294
G0 X125.603 Y105.289
G0 X126.454 Y107.765
G0 X128.331 Y108.506
G0 X128.874 Y108.641
G0 X129.961 Y108.744
G0 X129.847 Y108.343
M204 S500
G1 F1500 X129.054 Y108.32 E2.0054
G1 X128.437 Y108.17 E2.03708
G1 X127.881 Y107.901 E2.06789
G1 X127.399 Y107.52 E2.09854
G1 X126.982 Y107.031 E2.13061
G1 X126.675 Y106.455 E2.16317
G1 X126.514 Y105.875 E2.1932
G1 X126.451 Y105.081 E2.23294
G1 X126.652 Y104.296 E2.27336
G1 X126.757 Y104.048 E2.2868
G1 X127.098 Y103.493 E2.3193
G1 X127.537 Y103.044 E2.35063
G1 X128.056 Y102.697 E2.38177
G1 X128.538 Y102.499 E2.40777
G1 F1216.2 X128.692 Y102.309 E2.42282
G1 F1032.1 X129.241 Y102.224 E2.4631
G1 X129.798 Y102.23 E2.50349
G1 F1219.5 X129.983 Y102.395 E2.5187
G1 F1500 X130.492 Y102.525 E2.54491
G1 X131.057 Y102.796 E2.57617
G1 X131.558 Y103.185 E2.60782
G1 X131.973 Y103.685 E2.64024
G1 X132.114 Y103.921 E2.65395
G1 X132.358 Y104.522 E2.68631
G1 X132.489 Y105.273 E2.72435
G1 X132.425 Y105.91 E2.75629
G1 X132.241 Y106.552 E2.7896
G1 X131.83 Y107.194 E2.82764
G1 X131.272 Y107.777 E2.8679
G1 X130.578 Y108.141 E2.90699
G1 X129.847 Y108.343 E2.94483
M204 S2000
G1 F2400 E2.14483
G0 F7500 X129.961 Y108.744
G0 X132.518 Y107.726
G0 X133.119 Y104.107
G0 X131.417 Y101.994
G0 X139.946 Y101.386
G0 X141.358 Y121.794
G0 X110 Y124.238
M204 S500
G1 F2400 E2.94483
G1 F1500 X141.648 Y122.047 E4.52753
G1 X140.199 Y101.096 E5.57528
G1 X130.069 Y101.798 E6.08188
G1 X130.555 Y101.922 E6.1069
G1 X130.834 Y102.024 E6.12173
G1 X131.233 Y102.215 E6.14379
G1 X131.506 Y102.384 E6.15981
G1 X131.85 Y102.652 E6.18157
G1 X132.083 Y102.877 E6.19773
G1 X132.435 Y103.302 E6.22526
G1 X132.67 Y103.695 E6.2481
G1 X132.878 Y104.207 E6.27568
G1 X132.967 Y104.518 E6.29181
G1 X133.079 Y105.172 E6.32492
G1 X133.073 Y105.459 E6.33924
G1 X133.029 Y105.901 E6.3614
G1 X132.978 Y106.158 E6.37447
G1 X132.815 Y106.728 E6.40405
G1 X132.682 Y106.975 E6.41804
G1 X132.303 Y107.564 E6.45299
G1 X131.739 Y108.168 E6.49422
G1 X131.516 Y108.332 E6.50803
G1 X130.814 Y108.692 E6.54739
G1 X129.924 Y108.943 E6.59352
G1 X128.969 Y108.925 E6.64117
G1 X128.183 Y108.714 E6.68178
G1 X127.529 Y108.392 E6.71814
G1 X126.943 Y107.922 E6.75562
G1 X126.486 Y107.374 E6.79122
G1 X126.11 Y106.666 E6.83122
G1 X125.913 Y105.943 E6.8686
G1 X125.852 Y105.118 E6.90987
G1 X125.906 Y104.787 E6.92661
G1 X126.07 Y104.147 E6.95957
G1 X126.246 Y103.733 E6.98201
G1 X126.534 Y103.265 E7.00943
G1 X126.738 Y103.005 E7.02591
G1 X127.041 Y102.692 E7.04765
G1 X127.28 Y102.493 E7.06316
G1 X127.645 Y102.25 E7.08504
G1 X127.911 Y102.107 E7.10011
G1 X128.386 Y101.913 E7.1257
G1 F1502.5 X110.559 Y103.148 E8.01574
G1 F1543.7 X109.994 Y103.17 E8.04315
G1 F1562.5 X110.463 Y103.254 E8.06597
G1 F1520.3 X110.948 Y103.429 E8.09135
G1 F1500 X111.241 Y103.573 E8.10764
G1 X111.612 Y103.809 E8.12958
G1 X111.849 Y103.994 E8.14458
G1 X112.169 Y104.303 E8.16677
G1 X112.377 Y104.551 E8.18292
G1 X112.617 Y104.911 E8.20451
G1 X112.756 Y105.172 E8.21926
G1 X112.924 Y105.58 E8.24127
G1 X113.014 Y105.892 E8.25747
G1 X113.09 Y106.324 E8.27936
G1 X113.111 Y106.639 E8.29511
G1 X113.092 Y107.185 E8.32236
G1 X112.987 Y107.731 E8.3501
G1 X112.885 Y108.006 E8.36473
G1 X112.572 Y108.643 E8.40014
G1 X112.018 Y109.346 E8.4448
G1 X111.351 Y109.854 E8.48663
G1 X110.656 Y110.141 E8.52414
G1 X110.359 Y110.225 E8.53954
G1 X109.61 Y110.351 E8.57743
G1 X108.985 Y110.292 E8.60875
G1 X108.291 Y110.123 E8.64439
G1 X107.55 Y109.763 E8.68549
G1 X107.35 Y109.623 E8.69767
G1 X106.822 Y109.116 E8.73419
G1 X106.655 Y108.909 E8.74746
G1 X106.312 Y108.378 E8.779
G1 X106.041 Y107.69 E8.81589
G1 X105.943 Y107.139 E8.84381
G1 X105.92 Y106.821 E8.85971
G1 X105.941 Y106.276 E8.88692
G1 X106.013 Y105.855 E8.90823
G1 X106.147 Y105.441 E8.92994
G1 X106.392 Y104.949 E8.95736
G1 X106.547 Y104.7 E8.972
G1 X106.815 Y104.352 E8.99391
G1 X107.05 Y104.109 E9.01078
G1 X107.39 Y103.829 E9.03275
G1 X107.634 Y103.666 E9.04739
G1 X108.023 Y103.457 E9.06942
G1 F1520.3 X108.324 Y103.345 E9.08523
G1 F1592.9 X108.737 Y103.247 E9.10517
G1 F1570.7 X107.986 Y103.327 E9.14116
G1 F1500 X90.143 Y104.561 E10.03347
G1 X90.629 Y104.677 E10.0584
G1 X90.925 Y104.783 E10.07409
G1 X91.426 Y105.023 E10.1018
G1 X91.79 Y105.277 E10.12395
G1 X92.006 Y105.46 E10.13807
G1 X92.326 Y105.788 E10.16093
G1 X92.581 Y106.139 E10.18258
G1 X92.837 Y106.627 E10.21007
G1 X92.95 Y106.909 E10.22523
G1 X93.102 Y107.437 E10.25264
G1 X93.164 Y107.748 E10.26846
G1 X93.14 Y108.575 E10.30973
G1 X92.99 Y109.202 E10.3419
G1 X92.884 Y109.492 E10.3573
G1 X92.619 Y110.029 E10.38718
G1 X92.16 Y110.616 E10.42435
G1 X91.62 Y111.072 E10.45962
G1 X90.916 Y111.461 E10.49974
G1 X90.201 Y111.653 E10.53668
G1 X89.394 Y111.725 E10.5771
G1 X89.115 Y111.701 E10.59107
G1 X88.369 Y111.513 E10.62945
G1 X87.67 Y111.184 E10.668
G1 X86.971 Y110.645 E10.71203
G1 X86.769 Y110.391 E10.72822
G1 X86.461 Y109.931 E10.75584
G1 X86.316 Y109.656 E10.77135
G1 X86.099 Y109.116 E10.80039
G1 X85.96 Y108.34 E10.83972
G1 X85.956 Y107.986 E10.85738
G1 X86.002 Y107.56 E10.87876
G1 X86.13 Y107.034 E10.90577
G1 X86.241 Y106.732 E10.92182
G1 X86.437 Y106.332 E10.94404
G1 X86.565 Y106.116 E10.95657
G1 X86.749 Y105.86 E10.9723
G1 X86.92 Y105.661 E10.98539
G1 X87.241 Y105.35 E11.00768
G1 X87.584 Y105.099 E11.02889
G1 F1510.1 X88.166 Y104.794 E11.06145
G1 F1535.8 X88.559 Y104.659 E11.0817
G1 F1528 X87.484 Y104.746 E11.13452
G1 F1500 X78.348 Y105.377 E11.5914
G1 X79.797 Y126.328 E12.63915
G1 X110 Y124.238 E14.14959
M204 S2000
G0 F7500 X110 Y124.839
M204 S500
G1 F1500 X142.288 Y122.604 E15.7643
G1 X140.756 Y100.456 E16.8719
G1 X130.091 Y101.195 E17.40526
G1 F1219.5 X129.783 Y101.354 E17.42653
G1 F1041.7 X129.186 Y101.382 E17.46947
G1 X128.583 Y101.438 E17.51297
G1 F1216.2 X128.265 Y101.321 E17.53382
G1 F1500 X90.601 Y103.928 E19.41738
G1 F1388.9 X90.079 Y104.012 E19.44587
G1 F1155.3 X89.709 Y104.12 E19.47084
G1 F1051.4 X89.136 Y104.154 E19.51169
G1 F1243.1 X88.519 Y104.072 E19.54916
G1 F1500 X77.708 Y104.82 E20.08982
G1 X79.24 Y126.968 E21.19743
G1 X110 Y124.839 E22.73572
M204 S2000
G0 F7500 X110 Y125.44
M204 S500
;TYPE:WALL-OUTER
G1 F1500 X142.928 Y123.161 E24.38243
G1 X141.313 Y99.816 E25.5499
G1 X77.068 Y104.263 E28.76277
G1 X78.683 Y127.608 E29.93024
G1 X110 Y125.44 E31.49639
M204 S2000
G1 F2400 E30.69639
G0 F7500 X109.932 Y124.435
G0 X80.05 Y126.038
G0 X78.638 Y105.63
G0 X87.132 Y105.056
G0 X85.701 Y108.375
G0 X87.583 Y111.43
G0 X91.068 Y111.674
G0 X93.405 Y108.455
G0 X91.938 Y105.062
G0 X91.537 Y104.753
G0 X107.127 Y103.675
G0 X105.686 Y107.187
G0 X107.246 Y109.708
G0 X109.751 Y110.14
G0 X109.577 Y109.144
M204 S500
G1 F2400 E31.49639
G1 F1500 X109.198 Y109.107 E31.51539
G1 X108.703 Y108.987 E31.5408
G1 X108.135 Y108.714 E31.57224
G1 X107.679 Y108.276 E31.60379
G1 X107.399 Y107.858 E31.62889
G1 X107.208 Y107.39 E31.6541
G1 X107.124 Y106.929 E31.67748
G1 X107.14 Y106.385 E31.70463
G1 X107.204 Y106.012 E31.72352
G1 X107.498 Y105.432 E31.75596
G1 X107.787 Y105.057 E31.77958
G1 X108.202 Y104.723 E31.80615
G1 X108.649 Y104.491 E31.83128
G1 X109.067 Y104.372 E31.85296
G1 X109.714 Y104.321 E31.88534
G1 X110.131 Y104.409 E31.9066
G1 X110.569 Y104.568 E31.92985
G1 X111.017 Y104.859 E31.9565
G1 X111.36 Y105.189 E31.98025
G1 X111.646 Y105.629 E32.00643
G1 X111.814 Y106.037 E32.02844
G1 X111.908 Y106.532 E32.05358
G1 X111.892 Y107.074 E32.08063
G1 X111.827 Y107.425 E32.09844
G1 X111.548 Y108.005 E32.13055
G1 X111.159 Y108.498 E32.16188
G1 X110.741 Y108.812 E32.18797
G1 X110.169 Y109.04 E32.21869
G1 X109.577 Y109.144 E32.24867
M204 S2000
G1 F2400 E31.44867
G0 F7500 X109.751 Y110.14
G0 X112.203 Y109.529
G0 X113.271 Y105.849
G0 X111.463 Y103.375
G0 X127.074 Y102.294
G0 X125.603 Y105.289
G0 X127.409 Y108.623
G0 X130.057 Y108.717
G0 X129.779 Y107.745
M204 S500
G1 F2400 E32.24867
G1 F1500 X129.138 Y107.726 E32.28067
G1 X128.636 Y107.598 E32.30651
G1 X128.183 Y107.377 E32.33166
G1 X127.807 Y107.08 E32.35557
G1 X127.497 Y106.713 E32.37953
G1 X127.244 Y106.252 E32.40577
G1 X127.104 Y105.767 E32.43095
G1 X127.06 Y105.136 E32.46251
G1 X127.244 Y104.401 E32.50031
G1 X127.573 Y103.866 E32.53165
G1 X127.948 Y103.49 E32.55814
G1 X128.366 Y103.218 E32.58302
G1 X128.807 Y103.04 E32.60675
G1 X129.261 Y102.956 E32.62978
G1 X129.804 Y102.969 E32.65688
G1 X130.314 Y103.105 E32.68321
G1 X130.769 Y103.331 E32.70856
G1 X131.113 Y103.599 E32.73031
G1 X131.541 Y104.103 E32.7633
G1 X131.784 Y104.721 E32.79643
G1 X131.88 Y105.292 E32.82532
G1 X131.825 Y105.827 E32.85215
G1 X131.686 Y106.3 E32.87675
G1 X131.357 Y106.825 E32.90766
G1 X130.919 Y107.287 E32.93942
G1 X130.377 Y107.57 E32.96992
G1 X129.779 Y107.745 E33.00101
M204 S2000
G1 F2400 E32.20101
G0 F7500 X130.057 Y108.717
G0 X127.409 Y108.623
G0 X125.604 Y105.022
G0 X127.074 Y102.294
G0 X111.463 Y103.375
G0 X113.372 Y106.65
G0 X111.636 Y109.992
G0 X107.911 Y110.25
G0 X105.686 Y107.187
G0 X107.127 Y103.675
G0 X91.537 Y104.753
G0 X93.42 Y107.905
G0 X91.85 Y111.026
G0 X89.432 Y111.529
G0 X89.36 Y110.524
M204 S500
G1 F2400 E33.00101
G1 F1500 X88.747 Y110.37 E33.03254
G1 X88.298 Y110.152 E33.05744
G1 X87.797 Y109.762 E33.08912
G1 X87.458 Y109.263 E33.11921
G1 X87.252 Y108.761 E33.14629
G1 X87.144 Y108.155 E33.177
G1 X87.192 Y107.744 E33.19764
G1 X87.304 Y107.289 E33.22102
G1 X87.54 Y106.816 E33.24739
G1 X87.724 Y106.56 E33.26312
G1 X88.107 Y106.18 E33.29004
G1 X88.767 Y105.83 E33.32731
G1 X89.299 Y105.72 E33.35441
G1 X89.801 Y105.711 E33.37946
G1 X90.406 Y105.865 E33.4106
G1 X90.84 Y106.077 E33.4347
G1 X91.147 Y106.298 E33.45357
G1 X91.499 Y106.659 E33.47873
G1 X91.797 Y107.241 E33.51135
G1 X91.959 Y107.817 E33.5412
G1 X91.941 Y108.448 E33.5727
G1 X91.818 Y108.936 E33.5978
G1 X91.601 Y109.38 E33.62246
G1 X91.285 Y109.788 E33.64821
G1 X90.912 Y110.097 E33.67237
G1 X90.461 Y110.339 E33.69791
G1 X90.009 Y110.468 E33.72136
G1 X89.36 Y110.524 E33.75386
M204 S2000
G1 F2400 E32.95386
G0 F7500 X89.432 Y111.529
G0 X86.735 Y110.764
G0 X85.877 Y106.974
G0 X87.132 Y105.056
G0 X78.638 Y105.63
G0 X80.05 Y126.038
G0 X110.022 Y124.035
G0 X110 Y123.693
M204 S500
;TYPE:SKIN
G1 F2400 E33.75386
G1 F1500 X80.299 Y125.747 E35.23918
G1 X78.924 Y105.879 E36.23277
G1 X86.444 Y105.356 E36.60885
G1 X86.128 Y105.792 E36.63572
G1 X85.95 Y106.092 E36.65312
G1 X85.754 Y106.492 E36.67534
G1 X85.609 Y106.89 E36.69648
G1 X85.465 Y107.472 E36.72639
G1 X85.417 Y107.924 E36.74907
G1 X85.422 Y108.407 E36.77316
G1 X85.576 Y109.257 E36.81626
G1 X85.809 Y109.848 E36.84796
G1 X85.994 Y110.204 E36.86797
G1 X86.318 Y110.691 E36.89715
G1 X86.547 Y110.972 E36.91524
G1 X86.747 Y111.152 E36.92866
G1 X87.195 Y111.505 E36.95712
G1 X87.457 Y111.679 E36.97281
G1 X88.15 Y112.011 E37.01115
G1 X88.998 Y112.227 E37.0548
G1 X89.401 Y112.264 E37.07499
G1 X90.101 Y112.208 E37.11003
G1 X90.421 Y112.156 E37.1262
G1 X90.896 Y112.026 E37.15077
G1 X91.206 Y111.913 E37.16723
G1 X91.893 Y111.545 E37.20612
G1 X92.499 Y111.034 E37.24566
G1 X92.686 Y110.822 E37.25977
G1 X93.087 Y110.291 E37.29296
G1 X93.467 Y109.512 E37.33621
G1 X93.648 Y108.789 E37.37339
G1 X93.683 Y108.489 E37.38846
G1 X93.705 Y107.701 E37.42779
G1 X93.617 Y107.276 E37.44944
G1 X93.469 Y106.764 E37.47603
G1 X93.323 Y106.396 E37.49578
G1 X93.063 Y105.893 E37.52403
G1 X92.74 Y105.44 E37.55179
G1 X92.265 Y104.955 E37.58566
G1 X106.426 Y103.977 E38.29383
G1 X106.121 Y104.365 E38.31846
G1 X105.917 Y104.688 E38.33752
G1 X105.646 Y105.238 E38.36811
G1 X105.486 Y105.726 E38.39373
G1 X105.404 Y106.193 E38.41738
G1 X105.38 Y106.797 E38.44754
G1 X105.404 Y107.207 E38.46803
G1 X105.48 Y107.652 E38.49055
G1 X105.558 Y107.963 E38.50655
G1 X105.86 Y108.687 E38.54569
G1 X106.337 Y109.396 E38.58832
G1 X107.005 Y110.041 E38.63464
G1 X107.295 Y110.238 E38.65214
G1 X108.103 Y110.636 E38.69707
G1 X108.865 Y110.82 E38.73618
G1 X109.661 Y110.892 E38.77606
G1 X110.661 Y110.72 E38.82668
G1 X111.508 Y110.369 E38.87242
G1 X111.827 Y110.175 E38.89105
G1 X112.403 Y109.73 E38.92736
G1 X113.039 Y108.918 E38.97882
G1 X113.37 Y108.235 E39.01668
G1 X113.508 Y107.876 E39.03587
G1 X113.603 Y107.37 E39.06156
G1 X113.631 Y107.118 E39.07421
G1 X113.648 Y106.659 E39.09712
G1 X113.62 Y106.218 E39.11917
G1 X113.544 Y105.802 E39.14027
