;FLAVOR:Marlin
;TIME:648
;Filament used: 0.732733m
;Layer height: 0.2
;MINX:64.643
;MINY:103.173
;MINZ:0.2
;MAXX:155.184
;MAXY:116.827
;MAXZ:4.2
;TARGET_MACHINE.NAME:Creality Ender-3 S1
;Generated with Cura_SteamEngine 5.9.0
M82 ;absolute extrusion mode
; Ender 3 S1 Start G-code
; M413 S0 ; Disable power loss recovery
M201 X500.00 Y500.00 Z100.00 E5000.00 ;Setup machine max acceleration
M203 X500.00 Y500.00 Z20.00 E50.00 ;Setup machine max feedrate
M204 P500.00 R1000.00 T500.00 ;Setup Print/Retract/Travel acceleration
M205 X8.00 Y8.00 Z0.40 E5.00 ;Setup Jerk
M220 S100 ;Reset Feedrate
M221 S100 ;Reset Flowrate
G92 E0 ; Reset Extruder

; Prep surfaces before auto home for better accuracy
M140 S60
M104 S200
G92 E0 ; Reset Extruder
G28 ; Home all axes
M420 S1 Z10; Use Level Mesh up to 2mm;
G1 Z10.0 F3000 ; Move Z Axis up little to prevent scratching of Heat Bed
G1 X0 Y0

M190 S60
M109 S200

G1 X0.1 Y20 Z0.3 F5000.0 ; Move to start position
G1 X0.1 Y200.0 Z0.3 F1500.0 E15 ; Draw the first line
G1 X0.4 Y200.0 Z0.3 F5000.0 ; Move to side a little
G1 X0.4 Y20 Z0.3 F1500.0 E30 ; Draw the second line
G92 E0 ; Reset Extruder
G1 Z2.0 F3000 ; Move Z Axis up little to prevent scratching of Heat Bed
G1 X5 Y20 Z0.3 F5000.0 ; Move over to prevent blob squish
G92 E0
G92 E0
G1 F2400 E-0.8
;LAYER_COUNT:21
;LAYER:0
M107
M204 S2000
;MESH:wrench_M3.stl
G0 F7500 X67.117 Y106.284 Z0.2
M204 S500
;TYPE:WALL-INNER
G1 F2400 E0
G1 F1612.9 X67.572 Y106.142 E0.02212
G1 F1562.5 X68.955 Y106.138 E0.08835
G1 F1510.1 X69.58 Y106.121 E0.11934
G1 F1490.1 X70.186 Y106.128 E0.14978
G1 F1217.9 X70.813 Y105.988 E0.18925
G1 F951.4 X71 Y105.921 E0.20488
G1 X70.845 Y105.797 E0.22049
G1 F1217.9 X70.243 Y105.536 E0.26081
G1 F1490.1 X69.571 Y105.508 E0.29459
G1 F1510.1 X68.905 Y105.562 E0.3277
G1 F1551.7 X68.27 Y105.723 E0.3593
G1 X67.654 Y105.979 E0.39147
G1 F1601.4 X67.117 Y106.284 E0.42033
G1 F1639.3 X66.906 Y106.458 E0.43281
G1 F1444.6 X66.619 Y106.786 E0.45539
G1 F1182.7 X66.234 Y107.315 E0.49679
G1 F1057.6 X65.897 Y107.856 E0.54189
G1 F1063.8 X65.6 Y108.424 E0.58698
M204 S2000
G0 F7500 X65.115 Y110
G0 X65.601 Y111.576
M204 S500
G1 F1062.6 X65.897 Y112.141 E0.6319
G1 F1055.1 X66.235 Y112.685 E0.67733
G1 F1181.1 X66.619 Y113.21 E0.71854
G1 F1395.3 X66.794 Y113.418 E0.73312
G1 F1538.5 X67.052 Y113.675 E0.75083
G1 F1590.1 X67.253 Y113.788 E0.76168
M204 S2000
G0 F7500 X69.591 Y114.23
G0 X70.221 Y114.465
M204 S500
G1 F1339.3 X70.87 Y114.262 E0.79968
G1 F1050.2 X71.173 Y114.039 E0.82649
G1 X70.816 Y113.94 E0.85289
G1 F1339.3 X70.186 Y113.867 E0.88833
G1 F1485.1 X69.58 Y113.875 E0.91887
G1 F1510.1 X68.955 Y113.858 E0.94985
G1 F1567.9 X67.572 Y113.852 E1.01586
G1 F1592.9 X67.253 Y113.788 E1.03115
G1 F1587.3 X67.656 Y114.021 E1.05309
G1 F1562.5 X68.27 Y114.273 E1.08488
G1 F1554.4 X68.905 Y114.434 E1.11642
G1 F1510.1 X69.571 Y114.487 E1.14953
G1 F1485.1 X70.221 Y114.465 E1.1823
M204 S2000
G0 F7500 X69.591 Y114.23
G0 X71.173 Y114.039
M204 S500
G1 F933.6 X71.419 Y113.961 E1.20299
G1 F942.4 X71.507 Y113.917 E1.2108
M204 S2000
G0 F7500 X72.241 Y113.287
G0 X74.155 Y110
G0 X72.241 Y106.713
G0 X71.661 Y106.17
M204 S500
G1 F925 X71.396 Y106.023 E1.23532
G1 F902.7 X71 Y105.921 E1.26922
M204 S2000
G1 F2400 E0.46922
G0 F7500 X73.917 Y107.722
G0 X110 Y111.42
M204 S500
G1 F2400 E1.26922
G1 F1500 X142.704 Y111.42 E2.90083
G1 X143.03 Y111.455 E2.91718
G1 X143.314 Y111.549 E2.93211
G1 X143.628 Y111.722 E2.94999
G1 X143.88 Y111.986 E2.9682
G1 X144.03 Y112.218 E2.98199
G1 X144.414 Y112.942 E3.02287
G1 X144.817 Y113.515 E3.05782
G1 X145.311 Y114.057 E3.09441
G1 X145.841 Y114.505 E3.12903
G1 X146.455 Y114.902 E3.16551
G1 X147.098 Y115.214 E3.20117
G1 X147.761 Y115.433 E3.236
G1 X148.141 Y115.489 E3.25516
G1 F1323.5 X148.457 Y115.489 E3.27303
G1 F1184.2 X148.521 Y115.498 E3.27712
G1 F1101.6 X148.811 Y115.448 E3.29711
G1 F1027.4 X149.188 Y115.485 E3.3247
G1 F1036.9 X149.881 Y115.453 E3.37477
G1 F1047.7 X150.566 Y115.323 E3.42457
G1 X151.242 Y115.102 E3.47537
G1 X151.862 Y114.811 E3.52429
G1 X152.197 Y114.597 E3.55268
G1 F1044.1 X148.965 Y114.604 E3.78434
G1 F1107 X148.72 Y114.47 E3.80322
G1 F1323.5 X148.339 Y114.192 E3.82988
G1 F1500 X148.048 Y113.921 E3.84972
G1 X147.85 Y113.607 E3.86824
G1 X147.741 Y113.282 E3.88534
G1 X147.708 Y113.004 E3.89931
G1 X147.708 Y106.992 E4.19925
G1 X147.741 Y106.713 E4.21327
G1 X147.85 Y106.39 E4.23027
G1 X148.047 Y106.077 E4.24872
G1 X148.342 Y105.802 E4.26885
G1 X148.49 Y105.71 E4.27754
G1 F1285.7 X148.71 Y105.507 E4.29496
G1 F1079.1 X148.907 Y105.393 E4.31075
G1 F1042.9 X152.197 Y105.399 E4.54683
G1 F1051.4 X151.859 Y105.185 E4.57531
G1 X151.241 Y104.893 E4.62396
G1 X150.566 Y104.673 E4.67449
G1 X149.885 Y104.545 E4.72381
G1 F1039.3 X149.188 Y104.514 E4.77405
G1 F1022.7 X148.732 Y104.549 E4.80751
G1 F1068.9 X148.456 Y104.527 E4.8269
G1 F1285.7 X148.061 Y104.515 E4.8499
G1 F1500 X147.765 Y104.562 E4.86485
G1 X147.097 Y104.786 E4.9
G1 X146.455 Y105.091 E4.93546
G1 X145.841 Y105.491 E4.97202
G1 X145.311 Y105.939 E5.00665
G1 X144.817 Y106.481 E5.04323
G1 X144.414 Y107.054 E5.07818
G1 X144.03 Y107.778 E5.11907
G1 X143.88 Y108.01 E5.13285
G1 X143.628 Y108.274 E5.15106
G1 X143.314 Y108.447 E5.16895
G1 X143.03 Y108.541 E5.18387
G1 X142.704 Y108.576 E5.20023
G1 X74.236 Y108.576 E8.61611
G1 X73.612 Y108.44 E8.64797
G1 X73.493 Y108.349 E8.65545
G1 X74.016 Y109.249 E8.70738
G1 X74.175 Y109.649 E8.72885
G1 X74.216 Y109.998 E8.74639
G1 X74.176 Y110.35 E8.76406
G1 X74.015 Y110.751 E8.78562
G1 X73.492 Y111.652 E8.83759
G1 X73.609 Y111.557 E8.84511
G1 X74.236 Y111.42 E8.87713
G1 X110 Y111.42 E10.6614
M204 S2000
G0 F7500 X110 Y112.02
M204 S500
G1 F1500 X142.851 Y112.02 E12.30035
G1 X143.204 Y112.17 E12.31948
G1 X143.443 Y112.391 E12.33572
G1 X143.901 Y113.256 E12.38455
G1 X144.348 Y113.891 E12.4233
G1 X144.894 Y114.49 E12.46373
G1 X145.482 Y114.987 E12.50214
G1 X146.159 Y115.426 E12.5424
G1 X146.872 Y115.772 E12.58194
G1 X147.609 Y116.015 E12.62065
G1 X148.024 Y116.085 E12.64165
G1 X148.399 Y116.17 E12.66083
G1 X148.758 Y116.188 E12.67877
G1 X149.184 Y116.226 E12.7001
G1 X149.972 Y116.177 E12.73949
G1 X150.748 Y116.03 E12.7789
G1 X151.511 Y115.781 E12.81894
G1 X152.215 Y115.45 E12.85775
G1 X152.885 Y115.021 E12.89744
G1 X153.498 Y114.506 E12.93738
G1 X154.093 Y113.868 E12.98091
G1 X149.144 Y113.866 E13.22782
G1 X148.93 Y113.825 E13.23869
G1 X148.687 Y113.703 E13.25225
G1 X148.512 Y113.54 E13.26418
G1 X148.393 Y113.351 E13.27533
G1 X148.308 Y113.101 E13.2885
G1 X148.308 Y106.895 E13.59812
G1 X148.393 Y106.645 E13.61129
G1 X148.511 Y106.457 E13.62237
G1 X148.688 Y106.292 E13.63444
G1 X148.885 Y106.187 E13.64558
G1 X149.147 Y106.13 E13.65895
G1 X154.09 Y106.128 E13.90556
G1 X153.498 Y105.489 E13.94902
G1 X152.886 Y104.975 E13.98889
G1 X152.211 Y104.546 E14.02879
G1 X151.51 Y104.215 E14.06747
G1 X150.748 Y103.966 E14.10746
G1 X149.974 Y103.82 E14.14676
G1 X149.184 Y103.774 E14.18624
G1 X148.397 Y103.827 E14.22559
G1 X147.611 Y103.981 E14.26555
G1 X146.871 Y104.229 E14.30449
G1 X146.161 Y104.567 E14.34372
G1 X145.483 Y105.009 E14.3841
G1 X144.894 Y105.506 E14.42255
G1 X144.348 Y106.105 E14.46298
G1 X143.901 Y106.74 E14.50172
G1 X143.443 Y107.605 E14.55056
G1 X143.204 Y107.826 E14.5668
G1 X142.851 Y107.976 E14.58593
G1 X74.236 Y107.976 E18.00915
G1 X73.861 Y107.895 E18.02829
G1 F1285.7 X73.469 Y107.718 E18.05332
G1 F1158.3 X73.024 Y107.089 E18.1031
G1 F1195.2 X72.557 Y106.629 E18.14415
G1 F1164.3 X72.044 Y106.29 E18.18367
G1 F1025.1 X71.661 Y106.17 E18.21297
G1 F1001.1 X71.846 Y106.464 E18.23893
G1 F1096.2 X71.868 Y106.526 E18.24343
G1 F1153.8 X72.112 Y106.999 E18.27794
G1 F1195.2 X72.414 Y107.525 E18.31592
G1 F1158.3 X72.816 Y108.175 E18.3653
G1 F1285.7 X73.052 Y108.784 E18.40331
G1 F1500 X73.496 Y109.549 E18.44744
G1 X73.592 Y109.789 E18.46034
G1 X73.592 Y110.21 E18.48134
G1 X73.496 Y110.451 E18.49428
G1 X73.053 Y111.215 E18.53835
G1 F1291.2 X72.777 Y111.887 E18.58045
G1 F1162.8 X72.412 Y112.476 E18.62504
G1 F1182.7 X71.82 Y113.51 E18.70044
G1 F1046.5 X71.507 Y113.917 E18.73715
G1 F1051.4 X72.058 Y113.732 E18.77852
G1 F1188.9 X72.558 Y113.369 E18.81741
G1 F1195.2 X73.022 Y112.912 E18.85819
G1 F1162.8 X73.437 Y112.322 E18.90462
G1 F1291.2 X73.86 Y112.102 E18.93225
G1 F1500 X74.236 Y112.02 E18.95145
G1 X110 Y112.02 E20.73572
M204 S2000
G0 F7500 X110 Y112.62
M204 S500
;TYPE:WALL-OUTER
G1 F1500 X142.748 Y112.62 E22.36953
G1 X142.933 Y112.709 E22.37977
G1 X143.389 Y113.57 E22.42838
G1 X143.879 Y114.267 E22.47088
G1 X144.477 Y114.923 E22.51517
G1 X145.124 Y115.47 E22.55744
G1 X145.864 Y115.95 E22.60144
G1 X146.646 Y116.329 E22.6448
G1 X147.457 Y116.597 E22.68741
G1 X148.32 Y116.766 E22.73128
G1 X149.182 Y116.827 E22.7744
G1 X150.046 Y116.773 E22.81759
G1 X150.897 Y116.612 E22.86079
G1 X151.733 Y116.34 E22.90466
G1 X152.506 Y115.976 E22.94728
G1 X153.241 Y115.505 E22.99083
G1 X153.912 Y114.942 E23.03453
G1 X154.499 Y114.313 E23.07746
G1 X155 Y113.609 E23.12057
G1 X155.184 Y113.268 E23.1399
G1 X149.186 Y113.268 E23.43914
G1 X149.034 Y113.213 E23.4472
G1 X148.914 Y113.031 E23.45808
G1 X148.908 Y106.983 E23.75981
G1 X148.975 Y106.837 E23.76783
G1 X149.126 Y106.728 E23.77712
G1 X155.183 Y106.728 E24.07931
G1 X155.001 Y106.392 E24.09837
G1 X154.491 Y105.678 E24.14215
G1 X153.912 Y105.054 E24.18461
G1 X153.242 Y104.491 E24.22827
G1 X152.502 Y104.02 E24.27204
G1 X151.732 Y103.656 E24.31453
G1 X150.897 Y103.384 E24.35834
G1 X150.047 Y103.223 E24.4015
G1 X149.182 Y103.173 E24.44473
G1 X148.319 Y103.231 E24.48788
G1 X147.457 Y103.399 E24.5317
G1 X146.645 Y103.671 E24.57442
G1 X145.867 Y104.043 E24.61744
G1 X145.124 Y104.526 E24.66166
G1 X144.477 Y105.073 E24.70392
G1 X143.879 Y105.729 E24.74821
G1 X143.389 Y106.426 E24.79072
G1 X142.94 Y107.263 E24.8381
G1 X142.754 Y107.376 E24.84896
G1 X74.236 Y107.376 E28.26734
G1 X74.111 Y107.349 E28.27372
G1 X74.006 Y107.269 E28.2803
G1 X73.533 Y106.643 E28.31945
G1 X72.996 Y106.113 E28.35709
G1 X72.4 Y105.676 E28.39396
G1 X71.731 Y105.324 E28.43168
G1 X71.033 Y105.079 E28.46858
G1 X70.292 Y104.935 E28.50624
G1 X69.553 Y104.901 E28.54315
G1 X68.801 Y104.98 E28.58087
G1 X68.083 Y105.162 E28.61783
G1 X67.385 Y105.452 E28.65554
G1 X66.755 Y105.838 E28.6924
G1 X66.172 Y106.318 E28.73007
G1 X65.67 Y106.874 E28.76745
G1 X65.255 Y107.493 E28.80463
G1 X64.937 Y108.169 E28.8419
G1 X64.718 Y108.886 E28.8793
G1 F1456.3 X64.643 Y109.616 E28.91701
G1 F1341.3 X64.709 Y110.08 E28.94316
G1 F1267.6 X64.668 Y110.346 E28.95905
G1 F1369.9 X64.718 Y111.11 E29.00088
G1 F1500 X64.937 Y111.831 E29.03847
G1 X65.254 Y112.504 E29.07558
G1 X65.67 Y113.126 E29.11292
G1 X66.172 Y113.678 E29.15014
G1 X66.755 Y114.162 E29.18794
G1 X67.384 Y114.543 E29.22463
G1 X68.084 Y114.834 E29.26245
G1 X68.801 Y115.015 E29.29935
G1 X69.553 Y115.095 E29.33708
G1 X70.292 Y115.061 E29.37398
G1 X71.033 Y114.917 E29.41164
G1 X71.731 Y114.676 E29.44848
G1 X72.404 Y114.317 E29.48654
G1 X72.997 Y113.886 E29.52311
G1 X73.533 Y113.358 E29.56065
G1 X73.995 Y112.74 E29.59914
G1 X74.11 Y112.647 E29.60652
G1 X74.236 Y112.62 E29.61295
G1 X110 Y112.62 E31.39722
M204 S2000
G1 F2400 E30.59722
G0 F7500 X110 Y111.613
G0 X73.618 Y111.678
G0 X72.241 Y113.287
G0 X71.048 Y113.265
M204 S500
G1 F2400 E31.39722
G1 F1500 X67.572 Y113.268 E31.57064
G1 X67.353 Y113.191 E31.58222
G1 X65.888 Y110.655 E31.72834
G1 F1397.5 X65.472 Y110.052 E31.76757
G1 F1343.3 X65.573 Y109.837 E31.7808
G1 F1437.7 X65.888 Y109.343 E31.8113
G1 F1500 X67.312 Y106.878 E31.95332
G1 X67.415 Y106.772 E31.9607
G1 X67.572 Y106.728 E31.96883
G1 X71.078 Y106.727 E32.14375
G1 X71.25 Y106.861 E32.15463
G1 X73.008 Y109.904 E32.32996
G1 X73.008 Y110.096 E32.33953
G1 X71.25 Y113.134 E32.51465
G1 X71.048 Y113.265 E32.52666
M204 S2000
G0 F7500 X72.241 Y113.287
G0 X73.618 Y111.678
G0 X74.758 Y111.3
M204 S500
;TYPE:FILL
G1 F1500 X77.362 Y108.696 E32.71039
M204 S2000
G0 F7500 X77.359 Y111.3
M204 S500
G1 F1500 X74.755 Y108.696 E32.89411
M204 S2000
G0 F7500 X91.726 Y108.696
M204 S500
G1 F1500 X94.329 Y111.3 E33.0778
M204 S2000
G0 F7500 X91.729 Y111.3
M204 S500
G1 F1500 X94.333 Y108.696 E33.26153
M204 S2000
G0 F7500 X108.696 Y108.696
M204 S500
G1 F1500 X111.3 Y111.3 E33.44526
M204 S2000
G0 F7500 X108.699 Y111.3
M204 S500
G1 F1500 X111.304 Y108.696 E33.62902
M204 S2000
G0 F7500 X125.667 Y108.696
M204 S500
G1 F1500 X128.271 Y111.3 E33.81274
M204 S2000
G0 F7500 X125.67 Y111.3
M204 S500
G1 F1500 X128.274 Y108.696 E33.99647
M204 S2000
G0 F7500 X142.638 Y108.696
M204 S500
G1 F1500 X149.015 Y115.074 E34.44644
M204 S2000
G0 F7500 X143.456 Y111.679
G0 X142.64 Y111.3
M204 S500
G1 F1500 X148.957 Y104.983 E34.89214
M104 S200
M204 S2000
G1 F2400 E34.09214
;MESH:NONMESH
G0 F300 X148.957 Y104.983 Z0.4
G0 F7500 X143.095 Y107.721
G0 X73.917 Y107.722
G0 X72.682 Y106.35
G0 X67.117 Y106.284
;TIME_ELAPSED:39.118788
;LAYER:1
M106 S85
M204 S500
;TYPE:WALL-INNER
;MESH:wrench_M3.stl
G1 F2400 E34.89214
G1 F1803.3 X66.906 Y106.458 E34.90462
G1 F1589.1 X66.619 Y106.786 E34.9272
G1 F1300.9 X66.234 Y107.315 E34.9686
G1 F1163.3 X65.897 Y107.856 E35.0137
G1 F1170.2 X65.6 Y108.424 E35.05879
M204 S2000
G0 F8250 X67.117 Y106.284
M204 S500
G1 F1774.2 X67.572 Y106.142 E35.0809
G1 F1718.8 X68.955 Y106.138 E35.14714
G1 F1661.1 X69.58 Y106.121 E35.17813
G1 F1639.1 X70.186 Y106.128 E35.20856
G1 F1339.6 X70.813 Y105.988 E35.24804
G1 F1046.5 X71 Y105.921 E35.26367
G1 X70.845 Y105.797 E35.27928
G1 F1339.6 X70.243 Y105.536 E35.3196
G1 F1639.1 X69.571 Y105.508 E35.35338
G1 F1661.1 X68.905 Y105.562 E35.38649
G1 F1706.9 X68.27 Y105.723 E35.41808
G1 X67.654 Y105.979 E35.45026
G1 F1761.6 X67.117 Y106.284 E35.47911
M204 S2000
G0 F8250 X71 Y105.921
M204 S500
G1 F993 X71.396 Y106.023 E35.51302
G1 F1017.5 X71.661 Y106.17 E35.53753
M204 S2000
G0 F8250 X72.241 Y106.713
G0 X74.155 Y110
G0 X72.241 Y113.287
G0 X71.507 Y113.917
M204 S500
G1 F1036.6 X71.419 Y113.961 E35.54535
G1 F1027 X71.173 Y114.039 E35.56603
M204 S2000
G0 F8250 X69.591 Y114.23
G0 X70.221 Y114.465
M204 S500
G1 F1473.2 X70.87 Y114.262 E35.60403
G1 F1155.2 X71.173 Y114.039 E35.63084
G1 X70.816 Y113.94 E35.65724
G1 F1473.2 X70.186 Y113.867 E35.69268
G1 F1633.7 X69.58 Y113.875 E35.72321
G1 F1661.1 X68.955 Y113.858 E35.7542
G1 F1724.7 X67.572 Y113.852 E35.82021
G1 F1752.2 X67.253 Y113.788 E35.83549
G1 F1746 X67.656 Y114.021 E35.85744
G1 F1718.8 X68.27 Y114.273 E35.88923
G1 F1709.8 X68.905 Y114.434 E35.92077
G1 F1661.1 X69.571 Y114.487 E35.95388
G1 F1633.7 X70.221 Y114.465 E35.98665
M204 S2000
G0 F8250 X69.591 Y114.23
G0 X67.253 Y113.788
M204 S500
G1 F1749.1 X67.052 Y113.675 E35.9975
G1 F1692.3 X66.794 Y113.418 E36.01521
G1 F1534.9 X66.619 Y113.21 E36.02979
G1 F1299.2 X66.235 Y112.685 E36.071
G1 F1160.6 X65.897 Y112.141 E36.11643
G1 F1168.8 X65.601 Y111.576 E36.16135
M204 S2000
G1 F2400 E35.36135
G0 F8250 X67.201 Y113.614
G0 X71.374 Y113.614
G0 X72.339 Y111.944
G0 X110 Y111.42
M204 S500
G1 F2400 E36.16135
G1 F1650 X142.704 Y111.42 E37.79296
G1 X143.03 Y111.455 E37.80932
G1 X143.314 Y111.549 E37.82424
G1 X143.628 Y111.722 E37.84213
G1 X143.88 Y111.986 E37.86034
G1 X144.03 Y112.218 E37.87412
G1 X144.414 Y112.942 E37.91501
G1 X144.817 Y113.515 E37.94996
G1 X145.311 Y114.057 E37.98654
G1 X145.841 Y114.505 E38.02117
G1 X146.455 Y114.902 E38.05764
G1 X147.098 Y115.214 E38.0933
G1 X147.761 Y115.433 E38.12814
G1 X148.141 Y115.489 E38.1473
G1 F1455.9 X148.457 Y115.489 E38.16517
G1 F1302.6 X148.521 Y115.498 E38.16925
G1 F1211.8 X148.811 Y115.448 E38.18924
G1 F1130.1 X149.188 Y115.485 E38.21683
G1 F1140.6 X149.881 Y115.453 E38.26691
G1 F1152.5 X150.566 Y115.323 E38.31671
G1 X151.242 Y115.102 E38.3675
G1 X151.862 Y114.811 E38.41642
G1 X152.197 Y114.597 E38.44482
G1 F1148.5 X148.965 Y114.604 E38.67647
G1 F1217.7 X148.72 Y114.47 E38.69535
G1 F1455.9 X148.339 Y114.192 E38.72202
G1 F1650 X148.048 Y113.921 E38.74186
G1 X147.85 Y113.607 E38.76038
G1 X147.741 Y113.282 E38.77748
G1 X147.708 Y113.004 E38.79145
G1 X147.708 Y106.992 E39.09139
G1 X147.741 Y106.713 E39.1054
G1 X147.85 Y106.39 E39.12241
G1 X148.047 Y106.077 E39.14086
G1 X148.342 Y105.802 E39.16098
G1 X148.49 Y105.71 E39.16967
G1 F1414.3 X148.71 Y105.507 E39.1871
G1 F1187.1 X148.907 Y105.393 E39.20288
